;Generated with Cura_SteamEngine 15.05
; Default start code
G28 ; Home extruder
G1 Z15 F100
M107 ; Turn off fan
G90 ; Absolute positioning
M82 ; Extruder in absolute mode
; Activate all used extruder
M104 T0 S195
G92 E0 ; Reset extruder position
; Wait for all used extruders to reach temperature
M109 T0 S195
;Layer count: 199
;LAYER:0
M107
G0 F9000 X85.197 Y44.032 Z0.360
;TYPE:SKIRT
G1 F1800 X104.697 Y44.032 E1.45929
G1 X104.697 Y63.532 E2.91858
G1 X85.197 Y63.532 E4.37787
G1 X85.197 Y44.032 E5.83715
G0 F9000 X85.697 Y44.532
G1 F1800 X104.197 Y44.532 E7.22161
G1 X104.197 Y63.032 E8.60606
G1 X85.697 Y63.032 E9.99051
G1 X85.697 Y44.532 E11.37497
G0 F9000 X86.197 Y45.032
G1 F1800 X103.697 Y45.032 E12.68458
G1 X103.697 Y62.532 E13.99420
G1 X98.197 Y62.532 E14.40580
G1 X98.197 Y61.532 E14.48063
G1 X97.697 Y61.532 E14.51805
G1 X97.697 Y62.532 E14.59288
G1 X92.197 Y62.532 E15.00448
G1 X92.197 Y61.532 E15.07931
G1 X91.697 Y61.532 E15.11673
G1 X91.697 Y62.532 E15.19157
G1 X86.197 Y62.532 E15.60316
G1 X86.197 Y45.032 E16.91278
G0 F9000 X86.697 Y45.532
G1 F1800 X103.197 Y45.532 E18.14756
G1 X103.197 Y62.032 E19.38234
G1 X98.697 Y62.032 E19.71910
G1 X98.697 Y61.032 E19.79394
G1 X97.197 Y61.032 E19.90619
G1 X97.197 Y62.032 E19.98103
G1 X92.697 Y62.032 E20.31778
G1 X92.697 Y61.032 E20.39262
G1 X91.197 Y61.032 E20.50487
G1 X91.197 Y62.032 E20.57971
G1 X86.697 Y62.032 E20.91647
G1 X86.697 Y45.532 E22.15125
G0 F9000 X82.995 Y44.002
G1 F1800 X82.995 Y52.002 E22.74993
G1 X82.996 Y52.002 E22.75001
G1 X82.996 Y63.502 E23.61061
G1 X82.995 Y63.502 E23.61069
G1 X82.995 Y71.502 E24.20937
G1 X62.495 Y71.502 E25.74349
G1 X62.495 Y63.502 E26.34218
G1 X62.196 Y63.502 E26.36455
G1 X62.196 Y52.002 E27.22516
G1 X62.495 Y52.002 E27.24753
G1 X62.495 Y44.502 E27.80880
G1 X64.495 Y44.502 E27.95847
G1 X64.495 Y44.002 E27.99589
G1 X82.995 Y44.002 E29.38034
G0 F9000 X82.495 Y44.502
G1 F1800 X82.495 Y52.502 E29.97902
G1 X82.496 Y52.502 E29.97910
G1 X82.496 Y63.002 E30.76487
G1 X82.495 Y63.002 E30.76494
G1 X82.495 Y71.002 E31.36363
G1 X62.995 Y71.002 E32.82291
G1 X62.995 Y63.002 E33.42160
G1 X62.696 Y63.002 E33.44397
G1 X62.696 Y52.502 E34.22974
G1 X62.995 Y52.502 E34.25212
G1 X62.995 Y45.002 E34.81338
G1 X64.995 Y45.002 E34.96305
G1 X64.995 Y44.502 E35.00047
G1 X73.495 Y44.502 E35.63657
G1 X73.495 Y45.002 E35.67399
G1 X73.995 Y45.002 E35.71141
G1 X73.995 Y44.502 E35.74882
G1 X82.495 Y44.502 E36.38492
G0 F9000 X81.995 Y45.002
G1 F1800 X81.995 Y53.002 E36.98361
G1 X81.996 Y53.002 E36.98368
G1 X81.996 Y62.502 E37.69462
G1 X81.995 Y62.502 E37.69469
G1 X81.995 Y70.502 E38.29337
G1 X63.495 Y70.502 E39.67783
G1 X63.495 Y62.502 E40.27651
G1 X63.196 Y62.502 E40.29889
G1 X63.196 Y53.002 E41.00982
G1 X63.495 Y53.002 E41.03220
G1 X63.495 Y45.502 E41.59346
G1 X65.495 Y45.502 E41.74313
G1 X65.495 Y45.002 E41.78055
G1 X68.995 Y45.002 E42.04247
G1 X68.995 Y45.502 E42.07989
G1 X69.495 Y45.502 E42.11731
G1 X69.495 Y45.002 E42.15473
G1 X72.995 Y45.002 E42.41665
G1 X72.995 Y45.502 E42.45407
G1 X74.495 Y45.502 E42.56632
G1 X74.495 Y45.002 E42.60374
G1 X77.995 Y45.002 E42.86566
G1 X77.995 Y45.502 E42.90308
G1 X78.495 Y45.502 E42.94050
G1 X78.495 Y45.002 E42.97792
G1 X81.995 Y45.002 E43.23984
G0 F9000 X81.495 Y45.502
G1 F1800 X81.495 Y53.502 E43.83852
G1 X81.496 Y53.502 E43.83860
G1 X81.496 Y62.002 E44.47470
G1 X81.495 Y62.002 E44.47477
G1 X81.495 Y70.002 E45.07345
G1 X72.995 Y70.002 E45.70955
G1 X72.995 Y62.002 E46.30824
G1 X72.495 Y62.002 E46.34565
G1 X72.495 Y70.002 E46.94434
G1 X63.995 Y70.002 E47.58044
G1 X63.995 Y62.002 E48.17912
G1 X63.696 Y62.002 E48.20149
G1 X63.696 Y53.502 E48.83759
G1 X63.995 Y53.502 E48.85997
G1 X63.995 Y46.002 E49.42123
G1 X65.995 Y46.002 E49.57091
G1 X65.995 Y45.502 E49.60832
G1 X68.495 Y45.502 E49.79541
G1 X68.495 Y46.002 E49.83283
G1 X69.995 Y46.002 E49.94508
G1 X69.995 Y45.502 E49.98250
G1 X72.495 Y45.502 E50.16959
G1 X72.495 Y53.502 E50.76827
G1 X72.995 Y53.502 E50.80569
G1 X72.995 Y46.002 E51.36695
G1 X74.995 Y46.002 E51.51662
G1 X74.995 Y45.502 E51.55404
G1 X77.495 Y45.502 E51.74113
G1 X77.495 Y46.002 E51.77855
G1 X78.995 Y46.002 E51.89080
G1 X78.995 Y45.502 E51.92822
G1 X81.495 Y45.502 E52.11531
G0 F9000 X61.454 Y40.726
G1 F1800 X61.454 Y53.762 E53.09086
G1 X55.107 Y53.762 E53.56584
G1 X55.107 Y69.286 E54.72758
G1 X58.281 Y69.286 E54.96511
G1 X58.281 Y85.496 E56.17819
G1 X42.070 Y85.496 E57.39134
G1 X42.070 Y69.286 E58.60442
G1 X45.244 Y69.286 E58.84195
G1 X45.244 Y53.762 E60.00369
G1 X38.896 Y53.762 E60.47875
G1 X38.896 Y40.726 E61.45430
G1 X48.760 Y40.726 E62.19248
G1 X48.760 Y48.659 E62.78615
G1 X51.591 Y48.659 E62.99801
G1 X51.591 Y40.726 E63.59167
G1 X61.454 Y40.726 E64.32977
G0 F9000 X60.954 Y41.226
G1 F1800 X60.954 Y53.262 E65.23049
G1 X54.607 Y53.262 E65.70547
G1 X54.607 Y69.786 E66.94205
G1 X57.781 Y69.786 E67.17958
G1 X57.781 Y84.996 E68.31782
G1 X42.570 Y84.996 E69.45614
G1 X42.570 Y69.786 E70.59439
G1 X45.744 Y69.786 E70.83191
G1 X45.744 Y53.262 E72.06849
G1 X39.396 Y53.262 E72.54355
G1 X39.396 Y41.226 E73.44427
G1 X48.260 Y41.226 E74.10761
G1 X48.260 Y49.159 E74.70127
G1 X52.091 Y49.159 E74.98797
G1 X52.091 Y41.226 E75.58164
G1 X60.954 Y41.226 E76.24490
G0 F9000 X60.454 Y41.726
G1 F1800 X60.454 Y52.762 E77.07078
G1 X54.107 Y52.762 E77.54576
G1 X54.107 Y70.286 E78.85718
G1 X57.281 Y70.286 E79.09470
G1 X57.281 Y84.496 E80.15811
G1 X43.070 Y84.496 E81.22160
G1 X43.070 Y70.286 E82.28501
G1 X46.244 Y70.286 E82.52254
G1 X46.244 Y52.762 E83.83395
G1 X39.896 Y52.762 E84.30900
G1 X39.896 Y41.726 E85.13489
G1 X47.760 Y41.726 E85.72339
G1 X47.760 Y49.659 E86.31706
G1 X52.591 Y49.659 E86.67859
G1 X52.591 Y41.726 E87.27226
G1 X60.454 Y41.726 E87.86069
G0 F9000 X59.954 Y42.226
G1 F1800 X59.954 Y52.262 E88.61173
G1 X53.607 Y52.262 E89.08671
G1 X53.607 Y70.786 E90.47296
G1 X56.781 Y70.786 E90.71049
G1 X56.781 Y83.996 E91.69907
G1 X43.570 Y83.996 E92.68771
G1 X43.570 Y70.786 E93.67629
G1 X46.744 Y70.786 E93.91382
G1 X46.744 Y52.262 E95.30007
G1 X40.396 Y52.262 E95.77512
G1 X40.396 Y42.226 E96.52617
G1 X47.260 Y42.226 E97.03984
G1 X47.260 Y50.159 E97.63350
G1 X53.091 Y50.159 E98.06987
G1 X53.091 Y42.226 E98.66354
G1 X59.954 Y42.226 E99.17713
G0 F9000 X58.954 Y43.226
;TYPE:WALL-INNER
G1 F1800 X58.954 Y51.262 E99.77851
G1 X52.607 Y51.262 E100.25349
G1 X52.607 Y71.786 E101.78941
G1 X55.781 Y71.786 E102.02694
G1 X55.781 Y82.996 E102.86584
G1 X44.570 Y82.996 E103.70482
G1 X44.570 Y71.786 E104.54372
G1 X47.744 Y71.786 E104.78125
G1 X47.744 Y51.262 E106.31717
G1 X41.396 Y51.262 E106.79222
G1 X41.396 Y43.226 E107.39360
G1 X46.260 Y43.226 E107.75760
G1 X46.260 Y51.159 E108.35127
G1 X54.091 Y51.159 E108.93730
G1 X54.091 Y43.226 E109.53097
G1 X58.954 Y43.226 E109.89490
G0 F9000 X59.454 Y42.726
;TYPE:WALL-OUTER
G1 F1800 X59.454 Y51.762 E110.57111
G1 X53.107 Y51.762 E111.04609
G1 X53.107 Y71.286 E112.50717
G1 X56.281 Y71.286 E112.74470
G1 X56.281 Y83.496 E113.65844
G1 X44.070 Y83.496 E114.57225
G1 X44.070 Y71.286 E115.48599
G1 X47.244 Y71.286 E115.72352
G1 X47.244 Y51.762 E117.18460
G1 X40.896 Y51.762 E117.65966
G1 X40.896 Y42.726 E118.33587
G1 X46.760 Y42.726 E118.77470
G1 X46.760 Y50.659 E119.36837
G1 X53.591 Y50.659 E119.87957
G1 X53.591 Y42.726 E120.47324
G1 X59.454 Y42.726 E120.91200
G0 F9000 X58.778 Y43.575
;TYPE:SKIN
G1 F1800 X58.604 Y43.401 E120.93041
G0 F9000 X57.897 Y43.401
G1 F1800 X58.778 Y44.282 E121.02365
G0 F9000 X58.778 Y44.989
G1 F1800 X57.190 Y43.401 E121.19172
G0 F9000 X56.482 Y43.401
G1 F1800 X58.778 Y45.696 E121.43466
G0 F9000 X58.778 Y46.403
G1 F1800 X55.775 Y43.401 E121.75242
G0 F9000 X55.068 Y43.401
G1 F1800 X58.778 Y47.110 E122.14501
G0 F9000 X58.778 Y47.818
G1 F1800 X54.361 Y43.401 E122.61247
G0 F9000 X54.264 Y44.011
G1 F1800 X58.778 Y48.525 E123.09020
G0 F9000 X58.778 Y49.232
G1 F1800 X54.264 Y44.718 E123.56793
G0 F9000 X54.264 Y45.425
G1 F1800 X58.778 Y49.939 E124.04566
G0 F9000 X58.778 Y50.646
G1 F1800 X54.264 Y46.133 E124.52334
G0 F9000 X54.264 Y46.840
G1 F1800 X58.510 Y51.086 E124.97271
G0 F9000 X57.803 Y51.086
G1 F1800 X54.264 Y47.547 E125.34725
G0 F9000 X54.264 Y48.254
G1 F1800 X57.096 Y51.086 E125.64697
G0 F9000 X56.389 Y51.086
G1 F1800 X54.264 Y48.961 E125.87187
G0 F9000 X54.264 Y49.668
G1 F1800 X55.682 Y51.086 E126.02194
G0 F9000 X54.975 Y51.086
G1 F1800 X54.264 Y50.375 E126.09719
G0 F9000 X59.063 Y51.371
G0 X52.716 Y51.371
G0 X52.431 Y52.078
G1 F1800 X51.687 Y51.333 E126.17598
G0 F9000 X50.980 Y51.333
G1 F1800 X52.431 Y52.785 E126.32960
G0 F9000 X52.431 Y53.492
G1 F1800 X50.273 Y51.333 E126.55804
G0 F9000 X49.566 Y51.333
G1 F1800 X52.431 Y54.199 E126.86130
G0 F9000 X52.431 Y54.906
G1 F1800 X48.858 Y51.333 E127.23944
G0 F9000 X48.151 Y51.333
G1 F1800 X52.431 Y55.613 E127.69241
G0 F9000 X52.431 Y56.321
G1 F1800 X47.918 Y51.807 E128.17009
G0 F9000 X47.918 Y52.514
G1 F1800 X52.431 Y57.028 E128.64776
G0 F9000 X52.431 Y57.735
G1 F1800 X47.918 Y53.221 E129.12544
G0 F9000 X47.918 Y53.928
G1 F1800 X52.431 Y58.442 E129.60312
G0 F9000 X52.431 Y59.149
G1 F1800 X47.918 Y54.636 E130.08074
G0 F9000 X47.918 Y55.343
G1 F1800 X52.431 Y59.856 E130.55837
G0 F9000 X52.431 Y60.563
G1 F1800 X47.918 Y56.050 E131.03599
G0 F9000 X47.918 Y56.757
G1 F1800 X52.431 Y61.270 E131.51362
G0 F9000 X52.431 Y61.977
G1 F1800 X47.918 Y57.464 E131.99124
G0 F9000 X47.918 Y58.171
G1 F1800 X52.431 Y62.685 E132.46892
G0 F9000 X52.431 Y63.392
G1 F1800 X47.918 Y58.878 E132.94660
G0 F9000 X47.918 Y59.585
G1 F1800 X52.431 Y64.099 E133.42428
G0 F9000 X52.431 Y64.806
G1 F1800 X47.918 Y60.292 E133.90195
G0 F9000 X47.918 Y60.999
G1 F1800 X52.431 Y65.513 E134.37963
G0 F9000 X52.431 Y66.220
G1 F1800 X47.918 Y61.707 E134.85726
G0 F9000 X47.918 Y62.414
G1 F1800 X52.431 Y66.927 E135.33488
G0 F9000 X52.431 Y67.634
G1 F1800 X47.918 Y63.121 E135.81251
G0 F9000 X47.918 Y63.828
G1 F1800 X52.431 Y68.341 E136.29013
G0 F9000 X52.431 Y69.048
G1 F1800 X47.918 Y64.535 E136.76776
G0 F9000 X47.918 Y65.242
G1 F1800 X52.431 Y69.756 E137.24543
G0 F9000 X52.431 Y70.463
G1 F1800 X47.918 Y65.949 E137.72311
G0 F9000 X47.918 Y66.656
G1 F1800 X52.431 Y71.170 E138.20079
G0 F9000 X52.431 Y71.877
G1 F1800 X47.918 Y67.363 E138.67847
G0 F9000 X47.918 Y68.071
G1 F1800 X55.606 Y75.758 E139.49206
G0 F9000 X55.606 Y76.465
G1 F1800 X47.918 Y68.778 E140.30565
G0 F9000 X47.918 Y69.485
G1 F1800 X55.606 Y77.172 E141.11924
G0 F9000 X55.606 Y77.880
G1 F1800 X47.918 Y70.192 E141.93289
G0 F9000 X47.918 Y70.899
G1 F1800 X55.606 Y78.587 E142.74653
G0 F9000 X55.606 Y79.294
G1 F1800 X47.918 Y71.606 E143.56018
G0 F9000 X47.564 Y71.960
G1 F1800 X55.606 Y80.001 E144.41123
G0 F9000 X55.606 Y80.708
G1 F1800 X46.857 Y71.960 E145.33711
G0 F9000 X46.150 Y71.960
G1 F1800 X55.606 Y81.415 E146.33782
G0 F9000 X55.606 Y82.122
G1 F1800 X45.443 Y71.960 E147.41335
G0 F9000 X44.745 Y71.968
G1 F1800 X55.596 Y82.819 E148.56174
G0 F9000 X54.889 Y82.819
G1 F1800 X44.745 Y72.675 E149.63531
G0 F9000 X44.745 Y73.382
G1 F1800 X54.182 Y82.819 E150.63406
G0 F9000 X53.474 Y82.819
G1 F1800 X44.745 Y74.089 E151.55793
G0 F9000 X44.745 Y74.797
G1 F1800 X52.767 Y82.819 E152.40692
G0 F9000 X52.060 Y82.819
G1 F1800 X44.745 Y75.504 E153.18109
G0 F9000 X44.745 Y76.211
G1 F1800 X51.353 Y82.819 E153.88044
G0 F9000 X50.646 Y82.819
G1 F1800 X44.745 Y76.918 E154.50496
G0 F9000 X44.745 Y77.625
G1 F1800 X49.939 Y82.819 E155.05466
G0 F9000 X49.232 Y82.819
G1 F1800 X44.745 Y78.332 E155.52953
G0 F9000 X44.745 Y79.039
G1 F1800 X48.525 Y82.819 E155.92958
G0 F9000 X47.818 Y82.819
G1 F1800 X44.745 Y79.746 E156.25480
G0 F9000 X52.515 Y71.960
G1 F1800 X55.606 Y75.051 E156.58193
G0 F9000 X55.606 Y74.344
G1 F1800 X53.222 Y71.960 E156.83424
G0 F9000 X53.929 Y71.960
G1 F1800 X55.606 Y73.637 E157.01172
G0 F9000 X55.606 Y72.930
G1 F1800 X54.636 Y71.960 E157.11438
G0 F9000 X55.343 Y71.960
G1 F1800 X55.606 Y72.223 E157.14222
G0 F9000 X47.110 Y82.819
G1 F1800 X44.745 Y80.453 E157.39256
G0 F9000 X44.745 Y81.161
G1 F1800 X46.403 Y82.819 E157.56803
G0 F9000 X45.696 Y82.819
G1 F1800 X44.745 Y81.868 E157.66868
G0 F9000 X44.745 Y82.575
G1 F1800 X44.989 Y82.819 E157.69451
G0 F9000 X47.635 Y71.677
G0 X47.635 Y51.371
G0 X45.075 Y51.085
G1 F1800 X41.570 Y47.581 E158.06540
G0 F9000 X41.570 Y48.288
G1 F1800 X44.368 Y51.085 E158.36147
G0 F9000 X43.661 Y51.085
G1 F1800 X41.570 Y48.995 E158.58271
G0 F9000 X41.570 Y49.702
G1 F1800 X42.953 Y51.085 E158.72908
G0 F9000 X42.246 Y51.085
G1 F1800 X41.570 Y50.409 E158.80062
G0 F9000 X41.570 Y46.874
G1 F1800 X45.782 Y51.085 E159.24634
G0 F9000 X46.084 Y50.681
G1 F1800 X41.570 Y46.167 E159.72407
G0 F9000 X41.570 Y45.459
G1 F1800 X46.084 Y49.974 E160.20185
G0 F9000 X46.084 Y49.266
G1 F1800 X41.570 Y44.752 E160.67958
G0 F9000 X41.570 Y44.045
G1 F1800 X46.084 Y48.559 E161.15731
G0 F9000 X46.084 Y47.852
G1 F1800 X41.633 Y43.401 E161.62837
G0 F9000 X42.340 Y43.401
G1 F1800 X46.084 Y47.145 E162.02461
G0 F9000 X46.084 Y46.438
G1 F1800 X43.047 Y43.401 E162.34603
G0 F9000 X43.755 Y43.401
G1 F1800 X46.084 Y45.731 E162.59257
G0 F9000 X46.084 Y45.024
G1 F1800 X44.462 Y43.401 E162.76428
G0 F9000 X45.169 Y43.401
G1 F1800 X46.084 Y44.317 E162.86117
G0 F9000 X46.084 Y43.610
G1 F1800 X45.876 Y43.401 E162.88324
G1 F2400 E158.88324
G0 F9000 X64.995 Y47.002
;TYPE:WALL-INNER
G1 F2400 E162.88324
G1 F1800 X66.995 Y47.002 E163.03291
G1 X66.995 Y46.502 E163.07033
G1 X67.495 Y46.502 E163.10774
G1 X67.495 Y47.002 E163.14516
G1 X70.995 Y47.002 E163.40709
G1 X70.995 Y46.502 E163.44450
G1 X71.495 Y46.502 E163.48192
G1 X71.495 Y53.002 E163.96835
G1 X64.995 Y53.002 E164.45478
G1 X64.995 Y47.002 E164.90379
G0 F9000 X66.495 Y46.852
G0 X66.495 Y46.502
;TYPE:WALL-OUTER
G1 F1800 X66.495 Y46.002 E164.94121
G1 X67.995 Y46.002 E165.05346
G1 X67.995 Y46.502 E165.09088
G1 X70.495 Y46.502 E165.27797
G1 X70.495 Y46.002 E165.31539
G1 X71.995 Y46.002 E165.42764
G1 X71.995 Y53.502 E165.98890
G1 X64.495 Y53.502 E166.55017
G1 X64.495 Y46.502 E167.07401
G1 X66.495 Y46.502 E167.22369
G0 F9000 X66.622 Y47.177
;TYPE:SKIN
G1 F1800 X71.319 Y51.874 E167.72078
G0 F9000 X71.319 Y52.581
G1 F1800 X65.915 Y47.177 E168.29271
G0 F9000 X65.208 Y47.177
G1 F1800 X70.858 Y52.827 E168.89066
G0 F9000 X70.151 Y52.827
G1 F1800 X65.169 Y47.844 E169.41798
G0 F9000 X65.169 Y48.552
G1 F1800 X69.444 Y52.827 E169.87041
G0 F9000 X68.737 Y52.827
G1 F1800 X65.169 Y49.259 E170.24803
G0 F9000 X65.169 Y49.966
G1 F1800 X68.030 Y52.827 E170.55081
G0 F9000 X67.322 Y52.827
G1 F1800 X65.169 Y50.673 E170.77873
G0 F9000 X65.169 Y51.380
G1 F1800 X66.615 Y52.827 E170.93181
G0 F9000 X65.908 Y52.827
G1 F1800 X65.169 Y52.087 E171.01008
G0 F9000 X67.330 Y47.177
G1 F1800 X71.319 Y51.166 E171.43224
G0 F9000 X71.319 Y50.459
G1 F1800 X68.037 Y47.177 E171.77959
G0 F9000 X68.744 Y47.177
G1 F1800 X71.319 Y49.752 E172.05211
G0 F9000 X71.319 Y49.045
G1 F1800 X69.451 Y47.177 E172.24981
G0 F9000 X70.158 Y47.177
G1 F1800 X71.319 Y48.338 E172.37268
G0 F9000 X71.319 Y47.631
G1 F1800 X70.865 Y47.177 E172.42073
G1 F2400 E168.42073
G0 F9000 X73.995 Y47.002
;TYPE:WALL-INNER
G1 F2400 E172.42073
G1 F1800 X75.995 Y47.002 E172.57040
G1 X75.995 Y46.502 E172.60781
G1 X76.495 Y46.502 E172.64523
G1 X76.495 Y47.002 E172.68265
G1 X79.995 Y47.002 E172.94457
G1 X79.995 Y46.502 E172.98199
G1 X80.495 Y46.502 E173.01941
G1 X80.495 Y53.002 E173.50584
G1 X73.995 Y53.002 E173.99227
G1 X73.995 Y47.002 E174.44128
G0 F9000 X75.495 Y46.852
G0 X75.495 Y46.502
;TYPE:WALL-OUTER
G1 F1800 X75.495 Y46.002 E174.47870
G1 X76.995 Y46.002 E174.59095
G1 X76.995 Y46.502 E174.62837
G1 X79.495 Y46.502 E174.81546
G1 X79.495 Y46.002 E174.85287
G1 X80.995 Y46.002 E174.96513
G1 X80.995 Y53.502 E175.52639
G1 X73.495 Y53.502 E176.08766
G1 X73.495 Y46.502 E176.61150
G1 X75.495 Y46.502 E176.76117
G0 F9000 X75.815 Y47.177
;TYPE:SKIN
G1 F1800 X80.319 Y51.681 E177.23785
G0 F9000 X80.319 Y52.388
G1 F1800 X75.108 Y47.177 E177.78934
G0 F9000 X74.401 Y47.177
G1 F1800 X80.050 Y52.827 E178.38725
G0 F9000 X80.319 Y50.974
G1 F1800 X76.522 Y47.177 E178.78909
G0 F9000 X77.229 Y47.177
G1 F1800 X80.319 Y50.267 E179.11612
G0 F9000 X80.319 Y49.560
G1 F1800 X77.936 Y47.177 E179.36832
G0 F9000 X78.643 Y47.177
G1 F1800 X80.319 Y48.853 E179.54570
G0 F9000 X80.319 Y48.146
G1 F1800 X79.350 Y47.177 E179.64825
