;Generated with Cura_SteamEngine 15.05
; Default start code
G28 ; Home extruder
G1 Z15 F100
M107 ; Turn off fan
G90 ; Absolute positioning
M82 ; Extruder in absolute mode
; Activate all used extruder
M104 T0 S195
G92 E0 ; Reset extruder position
; Wait for all used extruders to reach temperature
M109 T0 S195
;Layer count: 199
;LAYER:0
M107
G0 F9000 X67.163 Y47.374 Z0.360
;TYPE:SKIRT
G1 F1800 X86.663 Y47.374 E1.45929
G1 X86.663 Y66.874 E2.91858
G1 X67.163 Y66.874 E4.37787
G1 X67.163 Y47.374 E5.83715
G0 F9000 X67.663 Y47.874
G1 F1800 X86.163 Y47.874 E7.22161
G1 X86.163 Y66.374 E8.60606
G1 X67.663 Y66.374 E9.99051
G1 X67.663 Y47.874 E11.37497
G0 F9000 X68.163 Y48.374
G1 F1800 X85.663 Y48.374 E12.68458
G1 X85.663 Y65.874 E13.99420
G1 X80.163 Y65.874 E14.40580
G1 X80.163 Y64.874 E14.48063
G1 X79.663 Y64.874 E14.51805
G1 X79.663 Y65.874 E14.59288
G1 X74.163 Y65.874 E15.00448
G1 X74.163 Y64.874 E15.07931
G1 X73.663 Y64.874 E15.11673
G1 X73.663 Y65.874 E15.19157
G1 X68.163 Y65.874 E15.60316
G1 X68.163 Y48.374 E16.91278
G0 F9000 X68.663 Y48.874
G1 F1800 X85.163 Y48.874 E18.14756
G1 X85.163 Y65.374 E19.38234
G1 X80.663 Y65.374 E19.71910
G1 X80.663 Y64.374 E19.79394
G1 X79.163 Y64.374 E19.90619
G1 X79.163 Y65.374 E19.98103
G1 X74.663 Y65.374 E20.31778
G1 X74.663 Y64.374 E20.39262
G1 X73.163 Y64.374 E20.50487
G1 X73.163 Y65.374 E20.57971
G1 X68.663 Y65.374 E20.91647
G1 X68.663 Y48.874 E22.15125
G0 F9000 X63.266 Y45.589
G1 F1800 X63.266 Y73.089 E24.20922
G1 X42.766 Y73.089 E25.74334
G1 X42.766 Y65.089 E26.34203
G1 X42.466 Y65.089 E26.36448
G1 X42.466 Y53.589 E27.22508
G1 X42.766 Y53.589 E27.24753
G1 X42.766 Y46.089 E27.80880
G1 X44.766 Y46.089 E27.95847
G1 X44.766 Y45.589 E27.99589
G1 X63.266 Y45.589 E29.38034
G0 F9000 X62.766 Y46.089
G1 F1800 X62.766 Y72.589 E31.36348
G1 X43.266 Y72.589 E32.82276
G1 X43.266 Y64.589 E33.42145
G1 X42.966 Y64.589 E33.44390
G1 X42.966 Y54.089 E34.22967
G1 X43.266 Y54.089 E34.25212
G1 X43.266 Y46.589 E34.81338
G1 X45.266 Y46.589 E34.96305
G1 X45.266 Y46.089 E35.00047
G1 X53.766 Y46.089 E35.63657
G1 X53.766 Y46.589 E35.67399
G1 X54.266 Y46.589 E35.71141
G1 X54.266 Y46.089 E35.74882
G1 X62.766 Y46.089 E36.38492
G0 F9000 X62.266 Y46.589
G1 F1800 X62.266 Y72.089 E38.29322
G1 X43.766 Y72.089 E39.67768
G1 X43.766 Y64.089 E40.27636
G1 X43.466 Y64.089 E40.29881
G1 X43.466 Y54.589 E41.00975
G1 X43.766 Y54.589 E41.03220
G1 X43.766 Y47.089 E41.59346
G1 X45.766 Y47.089 E41.74313
G1 X45.766 Y46.589 E41.78055
G1 X49.266 Y46.589 E42.04247
G1 X49.266 Y47.089 E42.07989
G1 X49.766 Y47.089 E42.11731
G1 X49.766 Y46.589 E42.15473
G1 X53.266 Y46.589 E42.41665
G1 X53.266 Y47.089 E42.45407
G1 X54.766 Y47.089 E42.56632
G1 X54.766 Y46.589 E42.60374
G1 X58.266 Y46.589 E42.86566
G1 X58.266 Y47.089 E42.90308
G1 X58.766 Y47.089 E42.94050
G1 X58.766 Y46.589 E42.97792
G1 X62.266 Y46.589 E43.23984
G0 F9000 X61.766 Y47.089
G1 F1800 X61.766 Y71.589 E45.07330
G1 X53.266 Y71.589 E45.70940
G1 X53.266 Y63.589 E46.30809
G1 X52.766 Y63.589 E46.34550
G1 X52.766 Y71.589 E46.94419
G1 X44.266 Y71.589 E47.58029
G1 X44.266 Y63.589 E48.17897
G1 X43.966 Y63.589 E48.20142
G1 X43.966 Y55.089 E48.83752
G1 X44.266 Y55.089 E48.85997
G1 X44.266 Y47.589 E49.42123
G1 X46.266 Y47.589 E49.57091
G1 X46.266 Y47.089 E49.60832
G1 X48.766 Y47.089 E49.79541
G1 X48.766 Y47.589 E49.83283
G1 X50.266 Y47.589 E49.94508
G1 X50.266 Y47.089 E49.98250
G1 X52.766 Y47.089 E50.16959
G1 X52.766 Y55.089 E50.76827
G1 X53.266 Y55.089 E50.80569
G1 X53.266 Y47.589 E51.36695
G1 X55.266 Y47.589 E51.51662
G1 X55.266 Y47.089 E51.55404
G1 X57.766 Y47.089 E51.74113
G1 X57.766 Y47.589 E51.77855
G1 X59.266 Y47.589 E51.89080
G1 X59.266 Y47.089 E51.92822
G1 X61.766 Y47.089 E52.11531
G1 F2400 E48.11531
G0 F9000 X51.766 Y48.089
;TYPE:WALL-INNER
G1 F2400 E52.11531
G1 F1800 X51.766 Y54.589 E52.60174
G1 X45.266 Y54.589 E53.08816
G1 X45.266 Y48.589 E53.53718
G1 X47.266 Y48.589 E53.68685
G1 X47.266 Y48.089 E53.72426
G1 X47.766 Y48.089 E53.76168
G1 X47.766 Y48.589 E53.79910
G1 X51.266 Y48.589 E54.06102
G1 X51.266 Y48.089 E54.09844
G1 X51.766 Y48.089 E54.13586
G0 F9000 X50.766 Y48.089
;TYPE:WALL-OUTER
G1 F1800 X50.766 Y47.589 E54.17328
G1 X52.266 Y47.589 E54.28553
G1 X52.266 Y55.089 E54.84679
G1 X44.766 Y55.089 E55.40806
G1 X44.766 Y48.089 E55.93191
G1 X46.766 Y48.089 E56.08158
G1 X46.766 Y47.589 E56.11899
G1 X48.266 Y47.589 E56.23125
G1 X48.266 Y48.089 E56.26866
G1 X50.766 Y48.089 E56.45575
G0 F9000 X50.531 Y48.764
;TYPE:SKIN
G1 F1800 X51.590 Y49.822 E56.56778
G0 F9000 X51.590 Y50.529
G1 F1800 X49.824 Y48.764 E56.75463
G0 F9000 X49.117 Y48.764
G1 F1800 X51.590 Y51.236 E57.01630
G0 F9000 X51.590 Y51.944
G1 F1800 X48.409 Y48.763 E57.35295
G0 F9000 X47.702 Y48.763
G1 F1800 X51.590 Y52.651 E57.76443
G0 F9000 X51.590 Y53.358
G1 F1800 X46.995 Y48.763 E58.25074
G0 F9000 X46.288 Y48.763
G1 F1800 X51.590 Y54.065 E58.81186
G0 F9000 X51.231 Y54.413
G1 F1800 X45.581 Y48.763 E59.40982
G0 F9000 X45.440 Y49.329
G1 F1800 X50.524 Y54.413 E59.94788
G0 F9000 X49.817 Y54.413
G1 F1800 X45.440 Y50.036 E60.41111
G0 F9000 X45.440 Y50.744
G1 F1800 X49.109 Y54.413 E60.79941
G0 F9000 X48.402 Y54.413
G1 F1800 X45.440 Y51.451 E61.11289
G0 F9000 X45.440 Y52.158
G1 F1800 X47.695 Y54.413 E61.35154
G0 F9000 X46.988 Y54.413
G1 F1800 X45.440 Y52.865 E61.51537
G0 F9000 X45.440 Y53.572
G1 F1800 X46.281 Y54.413 E61.60437
G0 F9000 X45.574 Y54.413
G1 F1800 X45.440 Y54.279 E61.61856
G0 F9000 X51.239 Y48.764
G1 F1800 X51.590 Y49.115 E61.65570
G1 F2400 E57.65570
G0 F9000 X54.266 Y48.589
;TYPE:WALL-INNER
G1 F2400 E61.65570
G1 F1800 X56.266 Y48.589 E61.80537
G1 X56.266 Y48.089 E61.84279
G1 X56.766 Y48.089 E61.88021
G1 X56.766 Y48.589 E61.91763
G1 X60.266 Y48.589 E62.17955
G1 X60.266 Y48.089 E62.21697
G1 X60.766 Y48.089 E62.25439
G1 X60.766 Y54.589 E62.74082
G1 X54.266 Y54.589 E63.22725
G1 X54.266 Y48.589 E63.67626
G0 F9000 X55.766 Y48.439
G0 X55.766 Y48.089
;TYPE:WALL-OUTER
G1 F1800 X55.766 Y47.589 E63.71367
G1 X57.266 Y47.589 E63.82593
G1 X57.266 Y48.089 E63.86335
G1 X59.766 Y48.089 E64.05043
G1 X59.766 Y47.589 E64.08785
G1 X61.266 Y47.589 E64.20010
G1 X61.266 Y55.089 E64.76137
G1 X53.766 Y55.089 E65.32263
G1 X53.766 Y48.089 E65.84648
G1 X55.766 Y48.089 E65.99615
G0 F9000 X55.481 Y48.764
;TYPE:SKIN
G1 F1800 X60.589 Y53.872 E66.53675
G0 F9000 X60.424 Y54.413
G1 F1800 X54.774 Y48.764 E67.13465
G0 F9000 X54.440 Y49.136
G1 F1800 X59.717 Y54.413 E67.69313
G0 F9000 X59.010 Y54.413
G1 F1800 X54.440 Y49.843 E68.17679
G0 F9000 X54.440 Y50.551
G1 F1800 X58.303 Y54.413 E68.58557
G0 F9000 X57.595 Y54.413
G1 F1800 X54.440 Y51.258 E68.91947
G0 F9000 X54.440 Y51.965
G1 F1800 X56.888 Y54.413 E69.17855
G0 F9000 X56.181 Y54.413
G1 F1800 X54.440 Y52.672 E69.36281
G0 F9000 X54.440 Y53.379
G1 F1800 X55.474 Y54.413 E69.47224
G0 F9000 X54.767 Y54.413
G1 F1800 X54.440 Y54.086 E69.50685
G0 F9000 X56.188 Y48.764
G1 F1800 X60.589 Y53.165 E69.97262
G0 F9000 X60.589 Y52.458
G1 F1800 X56.895 Y48.764 E70.36357
G0 F9000 X57.603 Y48.764
G1 F1800 X60.589 Y51.751 E70.67964
G0 F9000 X60.589 Y51.043
G1 F1800 X58.310 Y48.764 E70.92083
G0 F9000 X59.017 Y48.764
G1 F1800 X60.589 Y50.336 E71.08720
G0 F9000 X60.589 Y49.629
G1 F1800 X59.724 Y48.764 E71.17875
G0 F9000 X60.431 Y48.764
G1 F1800 X60.589 Y48.922 E71.19547
G1 F2400 E67.19547
G0 F9000 X69.663 Y49.874
;TYPE:WALL-INNER
G1 F2400 E71.19547
G1 F1800 X84.163 Y49.874 E72.28058
G1 X84.163 Y64.374 E73.36569
G1 X81.663 Y64.374 E73.55278
G1 X81.663 Y63.374 E73.62761
G1 X78.163 Y63.374 E73.88954
G1 X78.163 Y64.374 E73.96437
G1 X75.663 Y64.374 E74.15146
G1 X75.663 Y63.374 E74.22630
G1 X72.163 Y63.374 E74.48822
G1 X72.163 Y64.374 E74.56306
G1 X69.663 Y64.374 E74.75014
G1 X69.663 Y49.874 E75.83526
G0 F9000 X69.163 Y49.374
;TYPE:WALL-OUTER
G1 F1800 X84.663 Y49.374 E76.99520
G1 X84.663 Y64.874 E78.15515
G1 X81.163 Y64.874 E78.41707
G1 X81.163 Y63.874 E78.49191
G1 X78.663 Y63.874 E78.67900
G1 X78.663 Y64.874 E78.75383
G1 X75.163 Y64.874 E79.01576
G1 X75.163 Y63.874 E79.09059
G1 X72.663 Y63.874 E79.27768
G1 X72.663 Y64.874 E79.35252
G1 X69.163 Y64.874 E79.61444
G1 X69.163 Y49.374 E80.77439
G0 F9000 X69.836 Y50.391
;TYPE:SKIN
G1 F1800 X83.644 Y64.198 E82.23568
G0 F9000 X83.987 Y63.834
G1 F1800 X70.201 Y50.049 E83.69464
G0 F9000 X70.908 Y50.049
G1 F1800 X83.987 Y63.127 E85.07878
G0 F9000 X83.987 Y62.420
G1 F1800 X71.615 Y50.049 E86.38809
G0 F9000 X72.322 Y50.049
G1 F1800 X83.987 Y61.713 E87.62258
G0 F9000 X83.987 Y61.006
G1 F1800 X73.029 Y50.049 E88.78225
G0 F9000 X73.737 Y50.049
G1 F1800 X83.987 Y60.299 E89.86704
G0 F9000 X81.230 Y63.199
G1 F1800 X69.836 Y51.805 E91.07290
G0 F9000 X69.836 Y52.512
G1 F1800 X80.523 Y63.199 E92.20394
G0 F9000 X81.837 Y63.805
G1 F1800 X82.230 Y64.198 E92.24553
G0 F9000 X82.937 Y64.198
G1 F1800 X69.836 Y51.098 E93.63200
G0 F9000 X69.836 Y53.219
G1 F1800 X79.816 Y63.199 E94.68821
G0 F9000 X79.108 Y63.199
G1 F1800 X69.836 Y53.926 E95.66955
G0 F9000 X69.836 Y54.633
G1 F1800 X78.401 Y63.199 E96.57606
G0 F9000 X77.987 Y63.491
G1 F1800 X69.836 Y55.341 E97.43865
G0 F9000 X69.836 Y56.048
G1 F1800 X77.987 Y64.198 E98.30125
G0 F9000 X77.280 Y64.198
G1 F1800 X69.836 Y56.755 E99.08902
G0 F9000 X69.836 Y57.462
G1 F1800 X75.573 Y63.199 E99.69618
G0 F9000 X75.837 Y63.463
G1 F1800 X76.573 Y64.198 E99.77402
G0 F9000 X74.866 Y63.199
G1 F1800 X69.836 Y58.169 E100.30636
G0 F9000 X69.836 Y58.876
G1 F1800 X74.159 Y63.199 E100.76388
G0 F9000 X73.452 Y63.199
G1 F1800 X69.836 Y59.583 E101.14657
G0 F9000 X74.444 Y50.049
G1 F1800 X83.987 Y59.592 E102.15654
G0 F9000 X83.987 Y58.885
G1 F1800 X75.151 Y50.049 E103.09168
G0 F9000 X75.858 Y50.049
G1 F1800 X83.987 Y58.177 E103.95194
G0 F9000 X83.987 Y57.470
G1 F1800 X76.565 Y50.049 E104.73738
G0 F9000 X77.272 Y50.049
G1 F1800 X83.987 Y56.763 E105.44800
G0 F9000 X83.987 Y56.056
G1 F1800 X77.979 Y50.049 E106.08379
G0 F9000 X78.686 Y50.049
G1 F1800 X83.987 Y55.349 E106.64476
G0 F9000 X83.987 Y54.642
G1 F1800 X79.393 Y50.049 E107.13090
G0 F9000 X80.101 Y50.049
G1 F1800 X83.987 Y53.935 E107.54217
G0 F9000 X83.987 Y53.228
G1 F1800 X80.808 Y50.049 E107.87861
G0 F9000 X81.515 Y50.049
G1 F1800 X83.987 Y52.521 E108.14023
G0 F9000 X83.987 Y51.813
G1 F1800 X82.222 Y50.049 E108.32698
G0 F9000 X82.929 Y50.049
G1 F1800 X83.987 Y51.106 E108.43889
G0 F9000 X83.987 Y50.399
G1 F1800 X83.636 Y50.049 E108.47599
G0 F9000 X72.745 Y63.199
G1 F1800 X69.836 Y60.290 E108.78386
G0 F9000 X69.836 Y60.997
G1 F1800 X72.037 Y63.199 E109.01685
G0 F9000 X71.987 Y63.855
G1 F1800 X69.836 Y61.704 E109.24450
G0 F9000 X69.836 Y62.412
G1 F1800 X71.623 Y64.198 E109.43357
G0 F9000 X70.916 Y64.198
G1 F1800 X69.836 Y63.119 E109.54781
G0 F9000 X69.836 Y63.826
G1 F1800 X70.209 Y64.198 E109.58724
G1 F2400 E105.58724
G0 F9000 X60.766 Y64.089
;TYPE:WALL-INNER
G1 F2400 E109.58724
G1 F1800 X60.766 Y70.589 E110.07367
G1 X54.266 Y70.589 E110.56010
G1 X54.266 Y64.589 E111.00911
G1 X56.266 Y64.589 E111.15878
G1 X56.266 Y64.089 E111.19620
G1 X56.766 Y64.089 E111.23361
G1 X56.766 Y64.589 E111.27103
G1 X60.266 Y64.589 E111.53295
G1 X60.266 Y64.089 E111.57037
G1 X60.766 Y64.089 E111.60779
G0 F9000 X59.766 Y64.089
;TYPE:WALL-OUTER
G1 F1800 X59.766 Y63.589 E111.64521
G1 X61.266 Y63.589 E111.75746
G1 X61.266 Y71.089 E112.31873
G1 X53.766 Y71.089 E112.87999
G1 X53.766 Y64.089 E113.40384
G1 X55.766 Y64.089 E113.55351
G1 X55.766 Y63.589 E113.59093
G1 X57.266 Y63.589 E113.70318
G1 X57.266 Y64.089 E113.74060
G1 X59.766 Y64.089 E113.92768
G0 F9000 X59.459 Y64.763
;TYPE:SKIN
G1 F1800 X60.591 Y65.894 E114.04743
G0 F9000 X60.591 Y66.601
G1 F1800 X58.752 Y64.763 E114.24201
G0 F9000 X58.045 Y64.763
G1 F1800 X60.591 Y67.308 E114.51141
G0 F9000 X60.591 Y68.015
G1 F1800 X57.338 Y64.763 E114.85563
G0 F9000 X56.631 Y64.763
G1 F1800 X60.591 Y68.723 E115.27473
G0 F9000 X60.591 Y69.430
G1 F1800 X55.924 Y64.763 E115.76865
G0 F9000 X55.217 Y64.763
G1 F1800 X60.591 Y70.137 E116.33740
G0 F9000 X60.159 Y70.412
G1 F1800 X54.510 Y64.763 E116.93525
G0 F9000 X54.440 Y65.401
G1 F1800 X59.452 Y70.412 E117.46563
G0 F9000 X58.745 Y70.412
G1 F1800 X54.440 Y66.108 E117.92119
G0 F9000 X54.440 Y66.815
G1 F1800 X58.038 Y70.412 E118.30193
G0 F9000 X57.331 Y70.412
G1 F1800 X54.440 Y67.522 E118.60784
G0 F9000 X54.440 Y68.229
G1 F1800 X56.624 Y70.412 E118.83892
G0 F9000 X55.917 Y70.412
G1 F1800 X54.440 Y68.936 E118.99518
G0 F9000 X54.440 Y69.643
G1 F1800 X55.210 Y70.412 E119.07662
G0 F9000 X60.591 Y65.187
G1 F1800 X60.167 Y64.763 E119.12150
G1 F2400 E115.12150
G0 F9000 X51.766 Y64.089
;TYPE:WALL-INNER
G1 F2400 E119.12150
G1 F1800 X51.766 Y70.589 E119.60793
G1 X45.266 Y70.589 E120.09436
G1 X45.266 Y64.589 E120.54337
G1 X47.266 Y64.589 E120.69304
G1 X47.266 Y64.089 E120.73046
G1 X47.766 Y64.089 E120.76787
G1 X47.766 Y64.589 E120.80529
G1 X51.266 Y64.589 E121.06721
G1 X51.266 Y64.089 E121.10463
G1 X51.766 Y64.089 E121.14205
G0 F9000 X50.766 Y64.089
;TYPE:WALL-OUTER
G1 F1800 X50.766 Y63.589 E121.17947
G1 X52.266 Y63.589 E121.29172
G1 X52.266 Y71.089 E121.85299
G1 X44.766 Y71.089 E122.41425
G1 X44.766 Y64.089 E122.93810
G1 X46.766 Y64.089 E123.08777
G1 X46.766 Y63.589 E123.12519
G1 X48.266 Y63.589 E123.23744
G1 X48.266 Y64.089 E123.27486
G1 X50.766 Y64.089 E123.46194
G0 F9000 X50.974 Y64.763
;TYPE:SKIN
G1 F1800 X51.591 Y65.379 E123.52719
G0 F9000 X51.591 Y66.086
G1 F1800 X50.267 Y64.763 E123.66726
G0 F9000 X49.560 Y64.763
G1 F1800 X51.591 Y66.794 E123.88221
G0 F9000 X51.591 Y67.501
G1 F1800 X48.853 Y64.763 E124.17198
G0 F9000 X48.146 Y64.763
G1 F1800 X51.591 Y68.208 E124.53657
G0 F9000 X51.591 Y68.915
G1 F1800 X47.439 Y64.763 E124.97599
G0 F9000 X46.731 Y64.763
G1 F1800 X51.591 Y69.622 E125.49029
G0 F9000 X51.591 Y70.329
G1 F1800 X46.024 Y64.763 E126.07941
G0 F9000 X45.440 Y64.886
G1 F1800 X50.967 Y70.412 E126.66430
G0 F9000 X50.260 Y70.412
G1 F1800 X45.440 Y65.593 E127.17436
G0 F9000 X45.440 Y66.300
G1 F1800 X49.553 Y70.412 E127.60960
G0 F9000 X48.846 Y70.412
G1 F1800 X45.440 Y67.007 E127.97001
G0 F9000 X45.440 Y67.714
G1 F1800 X48.139 Y70.412 E128.25560
G0 F9000 X47.432 Y70.412
G1 F1800 X45.440 Y68.421 E128.46637
G0 F9000 X45.440 Y69.128
G1 F1800 X46.724 Y70.412 E128.60226
G0 F9000 X46.017 Y70.412
G1 F1800 X45.440 Y69.835 E128.66332
G1 F2400 E124.66332
G0 F9000 X44.995 Y63.464
;TYPE:SUPPORT
G1 F2400 E128.66332
G1 F1800 X44.995 Y55.214 E129.28072
G0 F9000 X44.995 Y56.139
G0 X48.328 Y56.139
G0 X48.328 Y55.214
G1 F1800 X48.328 Y63.464 E129.89811
G0 F9000 X48.328 Y62.539
G0 X49.216 Y61.661
G0 X50.140 Y61.661
G1 F1800 X43.390 Y61.661 E130.40324
G0 F9000 X44.316 Y61.661
G0 X44.316 Y58.328
G0 X43.391 Y58.328
G1 F1800 X50.141 Y58.328 E130.90838
G0 F9000 X49.191 Y58.328
G1 F1800 X56.141 Y58.328 E131.42849
G0 F9000 X55.216 Y58.328
G0 X54.994 Y56.139
G0 X54.994 Y55.214
G1 F1800 X54.994 Y63.464 E132.04588
G0 F9000 X54.994 Y62.539
G0 X55.216 Y61.661
G0 X56.140 Y61.661
G1 F1800 X49.190 Y61.661 E132.56598
G0 F9000 X50.116 Y61.661
G0 X51.661 Y62.539
G0 X51.661 Y63.464
G1 F1800 X51.661 Y55.214 E133.18338
G1 F2400 E129.18338
G0 F9000 X55.191 Y58.328
G1 F2400 E133.18338
G1 F1800 X62.341 Y58.328 E133.71845
G0 F9000 X61.416 Y58.328
G0 X61.506 Y56.139
G0 X61.660 Y55.214
G1 F1800 X61.660 Y63.464 E134.33584
G0 F9000 X61.506 Y62.539
G0 X61.416 Y61.661
G0 X62.340 Y61.661
G1 F1800 X55.190 Y61.661 E134.87091
G0 F9000 X56.116 Y61.661
G0 X58.327 Y62.539
G0 X58.327 Y63.464
G1 F1800 X58.327 Y55.214 E135.48830
;LAYER:1
G1 F2400 E131.48830
G0 F9000 X51.766 Y54.589 Z0.540
;TYPE:WALL-INNER
G1 F2400 E135.48830
G1 F1980 X45.266 Y54.589 E135.73152
G1 X45.266 Y48.589 E135.95602
G1 X47.266 Y48.589 E136.03086
G1 X47.266 Y48.089 E136.04957
G1 X47.766 Y48.089 E136.06828
G1 X47.766 Y48.589 E136.08699
G1 X51.266 Y48.589 E136.21795
G1 X51.266 Y48.089 E136.23666
G1 X51.766 Y48.089 E136.25537
G1 X51.766 Y54.589 E136.49858
G0 F9000 X52.266 Y55.089
;TYPE:WALL-OUTER
G1 F1800 X44.766 Y55.089 E136.77921
G1 X44.766 Y48.089 E137.04114
G1 X46.766 Y48.089 E137.11597
G1 X46.766 Y47.589 E137.13468
G1 X48.266 Y47.589 E137.19081
G1 X48.266 Y48.089 E137.20952
G1 X50.766 Y48.089 E137.30306
G1 X50.766 Y47.589 E137.32177
G1 X52.266 Y47.589 E137.37789
G1 X52.266 Y55.089 E137.65853
G0 F9000 X51.299 Y54.413
;TYPE:SKIN
