;Generated with Cura_SteamEngine 15.05
; Default start code
G28 ; Home extruder
G1 Z15 F100
M107 ; Turn off fan
G90 ; Absolute positioning
M82 ; Extruder in absolute mode
; Activate all used extruder
M104 T0 S195
G92 E0 ; Reset extruder position
; Wait for all used extruders to reach temperature
M109 T0 S195
;Layer count: 143
;LAYER:0
M107
G0 F6120 X46.993 Y77.786 Z0.360
;TYPE:SKIRT
G1 F1560 X68.793 Y77.586 E1.63148
G1 X68.793 Y76.585 E1.70639
G1 X91.193 Y76.385 E3.38277
G1 X91.193 Y75.822 E3.42490
G1 X93.993 Y75.622 E3.63497
G1 X93.993 Y63.646 E4.53120
G1 X92.793 Y63.446 E4.62224
G1 X92.793 Y50.615 E5.58245
G1 X93.593 Y50.415 E5.64416
G1 X93.593 Y44.550 E6.08307
G1 X106.193 Y44.550 E7.02600
G1 X106.193 Y50.415 E7.46491
G1 X106.993 Y50.615 E7.52662
G1 X106.993 Y63.446 E8.48683
G1 X105.793 Y63.646 E8.57787
G1 X105.793 Y75.622 E9.47410
G1 X108.593 Y75.822 E9.68417
G1 X108.593 Y76.385 E9.72630
G1 X130.793 Y76.585 E11.38771
G1 X130.793 Y77.385 E11.44758
G1 X152.993 Y77.589 E13.10899
G1 X152.993 Y84.735 E13.64377
G1 X152.193 Y85.536 E13.72849
G1 X152.193 Y88.395 E13.94244
G1 X150.393 Y88.419 E14.07716
G1 X150.393 Y88.736 E14.10088
G1 X150.193 Y88.936 E14.12205
G1 X150.193 Y91.970 E14.34910
G1 X149.193 Y91.990 E14.42395
G1 X149.193 Y95.371 E14.67697
G1 X149.102 Y95.373 E14.68378
G1 X149.193 Y95.464 E14.69341
G1 X149.193 Y95.664 E14.70837
G1 X149.393 Y95.864 E14.72954
G1 X149.393 Y96.064 E14.74451
G1 X152.327 Y99.003 E15.05529
G1 X145.597 Y105.731 E15.76744
G1 X143.130 Y103.271 E16.02816
G1 X142.923 Y103.272 E16.04365
G1 X136.361 Y104.585 E16.54445
G1 X135.679 Y104.699 E16.59620
G1 X135.562 Y104.757 E16.60597
G1 X134.956 Y104.960 E16.65380
G1 X134.554 Y105.161 E16.68743
G1 X133.954 Y105.360 E16.73474
G1 X133.556 Y105.560 E16.76807
G1 X132.955 Y105.760 E16.81547
G1 X132.556 Y105.960 E16.84887
G1 X131.955 Y106.160 E16.89627
G1 X131.556 Y106.360 E16.92968
G1 X130.993 Y106.547 E16.97407
G1 X130.993 Y111.679 E17.35813
G1 X122.800 Y107.543 E18.04495
G1 X122.003 Y106.746 E18.12930
G1 X121.603 Y106.546 E18.16276
G1 X121.203 Y106.146 E18.20510
G1 X120.803 Y105.946 E18.23857
G1 X120.603 Y105.746 E18.25973
G1 X120.203 Y105.546 E18.29320
G1 X120.001 Y105.344 E18.31458
G1 X119.634 Y105.161 E18.34527
G1 X119.029 Y104.960 E18.39298
G1 X118.628 Y104.758 E18.42658
G1 X118.031 Y104.559 E18.47367
G1 X117.231 Y104.160 E18.54057
G1 X117.032 Y104.094 E18.55626
G1 X116.075 Y103.855 E18.63008
G1 X114.058 Y105.872 E18.84354
G1 X112.593 Y105.265 E18.96222
G1 X112.593 Y110.850 E19.38017
G1 X111.793 Y110.850 E19.44004
G1 X111.793 Y114.350 E19.70196
G1 X113.393 Y114.350 E19.82170
G1 X113.393 Y124.450 E20.57754
G1 X105.793 Y124.450 E21.14628
G1 X105.793 Y155.650 E23.48115
G1 X93.993 Y155.650 E24.36420
G1 X93.993 Y124.450 E26.69906
G1 X86.393 Y124.450 E27.26781
G1 X86.393 Y114.350 E28.02365
G1 X87.993 Y114.350 E28.14338
G1 X87.993 Y110.850 E28.40531
G1 X87.193 Y110.850 E28.46518
G1 X87.193 Y104.465 E28.94300
G1 X85.611 Y105.155 E29.07216
G1 X84.311 Y103.855 E29.20974
G1 X82.818 Y104.228 E29.32491
G1 X82.159 Y104.557 E29.38003
G1 X81.563 Y104.757 E29.42707
G1 X79.986 Y105.544 E29.55897
G1 X79.985 Y105.545 E29.55907
G1 X79.583 Y105.746 E29.59271
G1 X79.383 Y105.946 E29.61388
G1 X78.983 Y106.146 E29.64734
G1 X78.783 Y106.346 E29.66851
G1 X77.984 Y106.746 E29.73538
G1 X77.183 Y107.545 E29.82004
G1 X68.793 Y111.755 E30.52252
G1 X68.793 Y106.342 E30.92761
G1 X68.430 Y106.160 E30.95800
G1 X67.830 Y105.960 E31.00533
G1 X67.431 Y105.760 E31.03873
G1 X66.830 Y105.560 E31.08613
G1 X66.431 Y105.360 E31.11953
G1 X65.830 Y105.160 E31.16693
G1 X65.432 Y104.960 E31.20026
G1 X64.829 Y104.760 E31.24781
G1 X64.421 Y104.555 E31.28198
G1 X64.329 Y104.524 E31.28924
G1 X61.631 Y103.985 E31.49514
G1 X60.426 Y103.785 E31.58655
G1 X58.721 Y103.444 E31.71667
G1 X57.851 Y103.450 E31.78178
G1 X51.700 Y103.450 E32.24209
G1 X49.272 Y97.587 E32.71698
G1 X50.593 Y96.264 E32.85689
G1 X50.593 Y95.464 E32.91676
G1 X50.793 Y95.264 E32.93793
G1 X50.793 Y94.464 E32.99780
G1 X50.993 Y94.264 E33.01896
G1 X50.993 Y93.736 E33.05848
G1 X50.793 Y93.536 E33.07964
G1 X50.793 Y92.536 E33.15448
G1 X50.593 Y92.336 E33.17565
G1 X50.593 Y91.536 E33.23551
G1 X50.393 Y91.336 E33.25668
G1 X50.393 Y91.136 E33.27165
G1 X50.193 Y90.936 E33.29281
G1 X50.193 Y90.536 E33.32275
G1 X49.993 Y90.336 E33.34391
G1 X49.993 Y89.936 E33.37385
G1 X49.793 Y89.736 E33.39502
G1 X49.793 Y89.336 E33.42495
G1 X49.593 Y89.136 E33.44612
G1 X49.593 Y88.736 E33.47605
G1 X49.393 Y88.536 E33.49722
G1 X49.393 Y88.336 E33.51218
G1 X49.193 Y88.136 E33.53335
G1 X49.193 Y87.936 E33.54832
G1 X48.993 Y87.736 E33.56948
G1 X48.993 Y87.536 E33.58445
G1 X48.793 Y87.336 E33.60562
G1 X48.793 Y87.136 E33.62059
G1 X48.393 Y86.736 E33.66292
G1 X48.393 Y86.536 E33.67789
G1 X48.193 Y86.336 E33.69905
G1 X48.193 Y86.136 E33.71402
G1 X47.793 Y85.736 E33.75635
G1 X47.793 Y85.535 E33.77139
G1 X46.993 Y84.734 E33.85611
G1 X46.993 Y77.786 E34.37607
G1 F2400 E30.37607
G0 F6120 X94.349 Y94.150
;TYPE:WALL-INNER
G1 F2400 E34.37607
G1 F1560 X96.050 Y94.150 E34.50336
G1 X96.050 Y94.250 E34.51085
G1 X94.349 Y94.250 E34.63814
G1 X94.349 Y94.150 E34.64563
G0 F6120 X93.849 Y93.650
;TYPE:WALL-OUTER
G1 F1560 X96.550 Y93.650 E34.84776
G1 X96.550 Y94.750 E34.93008
G1 X93.849 Y94.750 E35.13221
G1 X93.849 Y93.650 E35.21452
G1 F2400 E31.21452
G0 F6120 X103.949 Y94.150
;TYPE:WALL-INNER
G1 F2400 E35.21452
G1 F1560 X105.650 Y94.150 E35.34182
G1 X105.650 Y94.250 E35.34930
G1 X103.949 Y94.250 E35.47660
G1 X103.949 Y94.150 E35.48408
G0 F6120 X103.449 Y93.650
;TYPE:WALL-OUTER
G1 F1560 X106.150 Y93.650 E35.68621
G1 X106.150 Y94.750 E35.76853
G1 X103.449 Y94.750 E35.97066
G1 X103.449 Y93.650 E36.05298
G1 F2400 E32.05298
G0 F6120 X104.989 Y94.875
;TYPE:SUPPORT
G1 F2400 E36.05298
G1 F1560 X104.989 Y122.025 E38.08476
G0 F6120 X104.989 Y121.100
G0 X108.322 Y121.100
G0 X108.322 Y122.025
G1 F1560 X108.322 Y94.875 E40.11654
G0 F6120 X108.322 Y95.800
G0 X102.358 Y95.841
G0 X102.358 Y92.559
G0 X104.001 Y89.494
G0 X106.868 Y88.106
G0 X108.027 Y89.714
G0 X109.121 Y92.128
G0 X108.322 Y92.635
G1 F1560 X108.322 Y78.808 E41.15128
G0 F6120 X108.314 Y79.732
G0 X105.201 Y79.746
G0 X105.243 Y78.858
G0 X106.168 Y78.326
G1 F1560 X93.618 Y78.326 E42.09047
G0 F6120 X94.990 Y77.982
G1 F1560 X94.990 Y93.525 E43.25363
G0 F6120 X94.990 Y94.875
G1 F1560 X94.990 Y122.025 E45.28541
G0 F6120 X94.990 Y121.100
G0 X97.384 Y121.059
G0 X97.343 Y124.988
G0 X96.417 Y124.988
G1 F1560 X103.367 Y124.988 E45.80552
G0 F6120 X102.443 Y124.988
G0 X102.443 Y128.321
G0 X103.367 Y128.321
G1 F1560 X96.417 Y128.321 E46.32562
G0 F6120 X97.343 Y128.321
G0 X97.343 Y131.654
G0 X96.417 Y131.654
G1 F1560 X103.367 Y131.654 E46.84573
G0 F6120 X102.443 Y131.654
G0 X102.443 Y134.987
G0 X103.367 Y134.987
G1 F1560 X96.417 Y134.987 E47.36583
G0 F6120 X97.343 Y134.987
G0 X97.343 Y138.320
G0 X96.417 Y138.320
G1 F1560 X103.367 Y138.320 E47.88594
G0 F6120 X102.443 Y138.320
G0 X102.402 Y121.059
G0 X110.043 Y121.190
G0 X110.967 Y121.655
G1 F1560 X88.817 Y121.655 E49.54354
G0 F6120 X89.743 Y121.190
G0 X91.657 Y121.100
G0 X91.657 Y122.025
G1 F1560 X91.657 Y94.875 E51.57532
G1 F2400 E47.57532
G0 F6120 X91.657 Y92.647
G1 F2400 E51.57532
G1 F1560 X91.657 Y78.805 E52.61119
G0 F6120 X91.665 Y79.731
G0 X88.332 Y79.761
G0 X88.324 Y78.835
G1 F1560 X88.324 Y101.326 E54.29431
G0 F6120 X87.563 Y101.657
G1 F1560 X85.542 Y101.657 E54.44555
G0 F6120 X84.991 Y101.204
G1 F1560 X84.991 Y78.865 E56.11730
G0 F6120 X84.999 Y79.791
G0 X81.666 Y79.821
G0 X81.658 Y78.894
G1 F1560 X81.658 Y102.098 E57.85378
G0 F6120 X81.246 Y101.270
G0 X82.878 Y100.760
G0 X83.102 Y101.657
G1 F1560 X62.354 Y101.657 E59.40646
G0 F6120 X61.660 Y101.532
G1 F1560 X61.660 Y80.076 E61.01212
G0 F6120 X61.668 Y81.002
G0 X65.001 Y80.971
G0 X64.993 Y80.046
G1 F1560 X64.993 Y102.188 E62.66913
G0 F6120 X65.285 Y101.313
G0 X68.618 Y102.626
G0 X68.326 Y103.502
G1 F1560 X68.326 Y80.015 E64.42678
G0 F6120 X68.335 Y80.941
G0 X72.185 Y80.946
G0 X72.053 Y79.906
G0 X71.659 Y78.984
G1 F1560 X71.659 Y107.604 E66.56857
G1 F2400 E62.56857
G0 F6120 X71.218 Y104.990
G1 F2400 E66.56857
G1 F1560 X76.309 Y104.990 E66.94956
G0 F6120 X75.657 Y104.336
G0 X74.579 Y105.104
G0 X74.992 Y105.932
G1 F1560 X74.992 Y78.954 E68.96846
G0 F6120 X74.999 Y79.880
G0 X78.332 Y79.850
G0 X78.325 Y78.924
G1 F1560 X78.325 Y103.665 E70.81996
G0 F6120 X77.913 Y102.836
G0 X81.618 Y100.974
G0 X85.468 Y100.160
G0 X89.159 Y94.114
G0 X91.601 Y90.455
G0 X92.919 Y88.706
G0 X95.783 Y89.629
G0 X97.641 Y92.559
G0 X97.641 Y95.841
G0 X90.543 Y104.990
G0 X89.618 Y104.990
G1 F1560 X110.168 Y104.990 E72.35783
G0 F6120 X109.243 Y104.990
G0 X102.358 Y95.841
G0 X102.358 Y92.559
G0 X104.001 Y89.494
G0 X106.868 Y88.106
G0 X108.027 Y89.714
G0 X110.827 Y95.114
G0 X112.027 Y99.286
G0 X112.008 Y101.398
G0 X111.655 Y102.251
G1 F1560 X111.655 Y78.838 E74.10995
G0 F6120 X111.648 Y79.762
G0 X114.981 Y79.792
G0 X114.988 Y78.868
G1 F1560 X114.988 Y101.512 E75.80452
G0 F6120 X114.843 Y101.657
G1 F1560 X110.618 Y101.657 E76.12070
G0 F6120 X110.168 Y101.657
G1 F1560 X89.618 Y101.657 E77.65856
G0 F6120 X90.543 Y101.657
G0 X90.543 Y107.590
G0 X89.618 Y108.323
G1 F1560 X110.168 Y108.323 E79.19643
G0 F6120 X109.243 Y107.590
G0 X108.402 Y107.459
G0 X108.443 Y111.656
G0 X109.368 Y111.656
G1 F1560 X90.418 Y111.656 E80.61456
G0 F6120 X91.343 Y111.656
G0 X91.343 Y114.989
G0 X90.418 Y114.989
G1 F1560 X109.368 Y114.989 E82.03269
G0 F6120 X108.443 Y114.989
G0 X108.402 Y117.741
G0 X110.043 Y118.322
G0 X110.968 Y118.322
G1 F1560 X88.818 Y118.322 E83.69029
G1 F2400 E79.69029
G0 F6120 X89.376 Y98.324
G1 F2400 E83.69029
G1 F1560 X52.201 Y98.324 E86.47229
G0 F6120 X53.201 Y98.320
G0 X54.027 Y97.685
G0 X54.343 Y94.991
G0 X53.417 Y94.991
G1 F1560 X146.568 Y94.991 E93.44328
G0 F6120 X145.643 Y94.991
G0 X145.601 Y92.049
G0 X145.843 Y91.658
G0 X146.768 Y91.658
G1 F1560 X107.818 Y91.658 E96.35811
G0 F6120 X108.743 Y91.380
G0 X107.627 Y88.914
G0 X106.868 Y88.106
G0 X104.001 Y89.494
G0 X103.909 Y91.658
G0 X104.834 Y91.658
G1 F1560 X94.952 Y91.658 E97.09763
G1 F2400 E93.09763
G0 F6120 X92.241 Y91.658
G1 F2400 E97.09763
G1 F1560 X53.217 Y91.658 E100.01801
G0 F6120 X54.143 Y91.658
G0 X53.827 Y89.714
G0 X53.227 Y87.914
G0 X52.921 Y87.728
G0 X52.210 Y88.325
G1 F1560 X147.768 Y88.325 E107.16912
G0 F6120 X146.843 Y88.325
G0 X146.959 Y86.715
G0 X147.664 Y86.129
G0 X148.318 Y86.783
G1 F1560 X148.318 Y79.972 E107.67882
G0 F6120 X148.312 Y80.895
G0 X144.978 Y80.865
G0 X144.985 Y79.941
G1 F1560 X144.985 Y101.695 E109.30679
G0 F6120 X144.947 Y101.657
G1 F1560 X146.241 Y101.657 E109.40363
G0 F6120 X145.587 Y101.005
G0 X144.540 Y99.827
G0 X142.240 Y99.945
G0 X141.472 Y100.146
G0 X141.652 Y101.054
G1 F1560 X141.652 Y79.911 E110.98587
G0 F6120 X141.645 Y80.834
G0 X138.312 Y80.803
G0 X138.319 Y79.880
G1 F1560 X138.319 Y101.721 E112.62035
G0 F6120 X138.630 Y101.657
G1 F1560 X117.284 Y101.657 E114.21778
G0 F6120 X118.321 Y101.992
G1 F1560 X118.321 Y78.898 E115.94603
G0 F6120 X118.314 Y79.822
G0 X105.201 Y79.746
G0 X104.923 Y78.917
G0 X104.989 Y77.996
G1 F1560 X104.989 Y90.446 E116.87773
G0 F6120 X104.974 Y89.520
G0 X104.001 Y89.494
G0 X102.358 Y92.559
G0 X102.358 Y95.841
G0 X109.243 Y98.324
G0 X110.168 Y98.324
G1 F1560 X89.618 Y98.324 E118.41559
G0 F6120 X90.543 Y98.324
G0 X102.358 Y95.841
G0 X102.358 Y92.559
G0 X104.001 Y89.494
G0 X106.868 Y88.106
G0 X108.027 Y89.714
G0 X110.827 Y95.114
G0 X111.543 Y97.980
G0 X110.618 Y98.324
G1 F1560 X148.223 Y98.324 E121.22977
G0 F6120 X148.318 Y98.421
G1 F1560 X148.318 Y99.582 E121.31666
G0 F6120 X147.655 Y98.938
G0 X145.759 Y97.086
G0 X145.559 Y96.686
G0 X145.601 Y92.049
G0 X145.959 Y89.714
G0 X146.401 Y88.652
G0 X146.959 Y86.715
G0 X148.201 Y85.056
G0 X148.843 Y84.992
G0 X149.768 Y84.992
G1 F1560 X50.477 Y84.992 E128.74713
G0 F6120 X51.131 Y84.338
G0 X52.427 Y86.114
G0 X52.521 Y86.728
G0 X51.661 Y87.175
G1 F1560 X51.661 Y80.168 E129.27150
G0 F6120 X51.668 Y81.093
G0 X50.343 Y81.659
G0 X49.417 Y81.659
G1 F1560 X150.568 Y81.659 E136.84117
G0 F6120 X149.643 Y81.659
G0 X134.979 Y80.773
G0 X134.986 Y79.849
G1 F1560 X134.986 Y102.357 E138.52556
G0 F6120 X134.835 Y101.443
G0 X131.274 Y102.856
G0 X131.653 Y103.701
G1 F1560 X131.653 Y79.819 E140.31278
G0 F6120 X131.645 Y80.742
G0 X127.401 Y80.745
G0 X127.533 Y79.905
G0 X128.320 Y78.988
G1 F1560 X128.320 Y107.613 E142.45494
G1 F2400 E138.45494
G0 F6120 X128.568 Y104.990
G1 F2400 E142.45494
G1 F1560 X123.677 Y104.990 E142.82096
G0 F6120 X124.331 Y104.338
G0 X125.405 Y105.106
G0 X124.987 Y105.931
G1 F1560 X124.987 Y78.958 E144.83949
G0 F6120 X124.981 Y79.882
G0 X121.647 Y79.852
G0 X121.654 Y78.928
G1 F1560 X121.654 Y103.560 E146.68283
G0 F6120 X122.181 Y102.791
G0 X105.201 Y79.746
G0 X102.397 Y78.784
G0 X102.443 Y74.993
G0 X103.368 Y74.993
G1 F1560 X96.418 Y74.993 E147.20294
G0 F6120 X97.343 Y74.993
G0 X97.343 Y71.660
G0 X96.418 Y71.660
G1 F1560 X103.368 Y71.660 E147.72304
G0 F6120 X102.443 Y71.660
G0 X102.443 Y68.327
G0 X103.368 Y68.327
G1 F1560 X96.418 Y68.327 E148.24315
G0 F6120 X97.343 Y68.327
G0 X97.343 Y64.994
G0 X96.418 Y64.994
G1 F1560 X103.368 Y64.994 E148.76325
G0 F6120 X102.443 Y64.994
G0 X102.443 Y61.661
G0 X103.368 Y61.661
G1 F1560 X96.418 Y61.661 E149.28336
G0 F6120 X97.343 Y61.661
G0 X97.395 Y60.764
G0 X96.143 Y58.328
G0 X95.218 Y58.328
G1 F1560 X104.568 Y58.328 E149.98307
G0 F6120 X103.643 Y58.328
G0 X103.643 Y54.995
G0 X104.568 Y54.995
G1 F1560 X95.218 Y54.995 E150.68278
G0 F6120 X96.143 Y54.995
G0 X97.000 Y53.076
G0 X96.943 Y51.662
G0 X96.018 Y51.662
G1 F1560 X103.768 Y51.662 E151.26275
G0 F6120 X102.843 Y51.662
G0 X102.843 Y48.329
G0 X103.768 Y48.329
G1 F1560 X96.018 Y48.329 E151.84273
G0 F6120 X96.943 Y48.329
G0 X98.323 Y47.900
G0 X98.323 Y46.975
G1 F1560 X98.323 Y153.225 E159.79398
G0 F6120 X98.323 Y152.300
G0 X97.343 Y151.652
G0 X96.417 Y151.652
G1 F1560 X103.367 Y151.652 E160.31408
G0 F6120 X102.443 Y151.652
G0 X101.656 Y152.300
G0 X101.656 Y153.225
G1 F1560 X101.656 Y46.975 E168.26533
G0 F6120 X101.656 Y47.900
G0 X97.000 Y53.076
G0 X97.395 Y60.764
G0 X97.389 Y78.784
G0 X94.585 Y79.746
G0 X72.185 Y80.946
G0 X58.335 Y81.032
G0 X58.327 Y80.107
G1 F1560 X58.327 Y101.022 E169.83051
G0 F6120 X58.322 Y100.096
G0 X54.994 Y100.100
G0 X54.994 Y101.025
G1 F1560 X54.994 Y80.137 E171.39367
G0 F6120 X55.001 Y81.063
G0 X72.213 Y104.028
G0 X84.723 Y100.197
G0 X85.468 Y100.160
G0 X89.159 Y94.114
G0 X91.601 Y90.455
G0 X92.919 Y88.706
G0 X95.783 Y89.629
G0 X97.641 Y92.559
G0 X97.641 Y95.841
G0 X91.384 Y117.741
G0 X97.384 Y121.059
G0 X97.343 Y141.653
G0 X96.417 Y141.653
G1 F1560 X103.367 Y141.653 E171.91378
G0 F6120 X102.443 Y141.653
G0 X102.443 Y144.986
G0 X103.367 Y144.986
G1 F1560 X96.417 Y144.986 E172.43388
G0 F6120 X97.343 Y144.986
G0 X97.343 Y148.319
G0 X96.417 Y148.319
G1 F1560 X103.367 Y148.319 E172.95399
;LAYER:1
G1 F2400 E168.95399
G0 F6120 X96.050 Y94.250 Z0.540
;TYPE:WALL-INNER
G1 F2400 E172.95399
G1 F1740 X94.349 Y94.250 E173.01764
G1 X94.349 Y94.150 E173.02138
G1 X96.050 Y94.150 E173.08503
G1 X96.050 Y94.250 E173.08877
G0 F6120 X96.550 Y94.750
;TYPE:WALL-OUTER
G1 F1680 X93.849 Y94.750 E173.18983
G1 X93.849 Y93.650 E173.23099
G1 X96.550 Y93.650 E173.33206
G1 X96.550 Y94.750 E173.37322
G1 F2400 E169.37322
G0 F6120 X103.949 Y94.250
;TYPE:WALL-INNER
G1 F2400 E173.37322
G1 F1740 X103.949 Y94.150 E173.37696
G1 X105.650 Y94.150 E173.44061
G1 X105.650 Y94.250 E173.44435
G1 X103.949 Y94.250 E173.50800
G0 F6120 X103.449 Y94.750
;TYPE:WALL-OUTER
G1 F1680 X103.449 Y93.650 E173.54915
G1 X106.150 Y93.650 E173.65022
G1 X106.150 Y94.750 E173.69138
G1 X103.449 Y94.750 E173.79244
G1 F2400 E169.79244
G0 F6120 X104.989 Y95.625
;TYPE:SUPPORT
G1 F2400 E173.79244
G1 F1680 X104.989 Y121.275 E174.75221
G0 F6120 X104.989 Y121.100
G0 X108.322 Y121.100
G0 X108.322 Y121.275
G1 F1680 X108.322 Y95.625 E175.71197
G0 F6120 X108.322 Y95.800
G0 X102.358 Y95.841
G0 X102.358 Y92.559
G0 X104.001 Y89.494
G0 X106.868 Y88.106
G0 X108.027 Y89.714
G0 X110.827 Y95.114
G0 X111.778 Y98.585
G0 X111.655 Y98.708
G1 F1680 X111.655 Y79.589 E176.42736
G0 F6120 X111.654 Y79.762
G0 X108.321 Y79.732
G0 X108.322 Y79.559
G1 F1680 X108.322 Y90.775 E176.84703
