;Generated with Cura_SteamEngine 15.05
; Default start code
G28 ; Home extruder
G1 Z15 F100
M107 ; Turn off fan
G90 ; Absolute positioning
M82 ; Extruder in absolute mode
; Activate all used extruder
M104 T0 S195
G92 E0 ; Reset extruder position
; Wait for all used extruders to reach temperature
M109 T0 S195
;Layer count: 177
;LAYER:0
M107
G0 F6120 X25.613 Y58.367 Z0.360
;TYPE:SKIRT
G1 F1560 X91.537 Y58.367 E4.93344
G1 X93.195 Y58.697 E5.05995
G1 X93.587 Y58.780 E5.08994
G1 X95.128 Y59.808 E5.22857
G1 X95.460 Y60.034 E5.25862
G1 X96.709 Y61.904 E5.42691
G1 X97.066 Y63.704 E5.56423
G1 X97.151 Y64.107 E5.59506
G1 X96.708 Y66.332 E5.76483
G1 X95.674 Y67.882 E5.90427
G1 X95.447 Y68.214 E5.93437
G1 X93.911 Y69.240 E6.07260
G1 X93.585 Y69.461 E6.10207
G1 X91.531 Y69.868 E6.25877
G1 X25.613 Y69.868 E11.19177
G1 X25.613 Y58.367 E12.05245
G0 F6120 X26.113 Y58.867
G1 F1560 X91.488 Y58.867 E16.94481
G1 X93.094 Y59.186 E17.06734
G1 X93.389 Y59.249 E17.08991
G1 X94.848 Y60.223 E17.22119
G1 X95.098 Y60.393 E17.24382
G1 X96.238 Y62.099 E17.39737
G1 X96.577 Y63.807 E17.52768
G1 X96.641 Y64.110 E17.55085
G1 X96.237 Y66.137 E17.70553
G1 X95.259 Y67.602 E17.83735
G1 X95.089 Y67.852 E17.85997
G1 X93.633 Y68.824 E17.99098
G1 X93.388 Y68.991 E18.01317
G1 X91.482 Y69.368 E18.15857
G1 X26.113 Y69.368 E23.05048
G1 X26.113 Y58.867 E23.83632
G0 F6120 X26.613 Y59.367
G1 F1560 X91.439 Y59.367 E28.68760
G1 X92.994 Y59.676 E28.80624
G1 X93.191 Y59.718 E28.82132
G1 X94.568 Y60.637 E28.94521
G1 X94.736 Y60.751 E28.96040
G1 X95.767 Y62.294 E29.09928
G1 X96.088 Y63.911 E29.22265
G1 X96.131 Y64.113 E29.23810
G1 X95.766 Y65.942 E29.37767
G1 X94.845 Y67.322 E29.50183
G1 X94.731 Y67.490 E29.51703
G1 X93.362 Y68.404 E29.64021
G1 X93.191 Y68.520 E29.65567
G1 X91.433 Y68.868 E29.78979
G1 X26.613 Y68.868 E34.64061
G1 X26.613 Y59.367 E35.35162
G0 F6120 X27.113 Y59.867
G1 F1560 X91.390 Y59.867 E40.16181
G1 X92.893 Y60.166 E40.27649
G1 X92.994 Y60.187 E40.28421
G1 X94.289 Y61.052 E40.40076
G1 X94.374 Y61.110 E40.40846
G1 X95.296 Y62.489 E40.53260
G1 X95.598 Y64.014 E40.64894
G1 X95.599 Y64.014 E40.64901
G1 X95.620 Y64.116 E40.65680
G1 X95.295 Y65.747 E40.78126
G1 X94.430 Y67.043 E40.89786
G1 X94.372 Y67.128 E40.90557
G1 X93.080 Y67.991 E41.02184
G1 X92.994 Y68.049 E41.02960
G1 X91.384 Y68.368 E41.15243
G1 X27.113 Y68.368 E45.96217
G1 X27.113 Y59.867 E46.59834
G0 F6120 X25.612 Y73.617
G1 F1560 X91.537 Y73.617 E51.53186
G1 X93.578 Y74.024 E51.68761
G1 X95.455 Y75.277 E51.85649
G1 X96.708 Y77.154 E52.02538
G1 X97.149 Y79.368 E52.19432
G1 X96.785 Y81.199 E52.33403
G1 X96.702 Y81.591 E52.36401
G1 X95.455 Y83.459 E52.53209
G1 X93.911 Y84.490 E52.67103
G1 X93.586 Y84.711 E52.70044
G1 X91.778 Y85.070 E52.83839
G1 X91.547 Y85.119 E52.85606
G1 X25.612 Y85.118 E57.79032
G1 X25.612 Y73.617 E58.65100
G0 F6120 X26.112 Y74.117
G1 F1560 X91.487 Y74.117 E63.54336
G1 X93.383 Y74.495 E63.68804
G1 X95.094 Y75.638 E63.84203
G1 X96.237 Y77.349 E63.99601
G1 X96.640 Y79.368 E64.15009
G1 X96.296 Y81.098 E64.28209
G1 X96.233 Y81.393 E64.30466
G1 X95.094 Y83.098 E64.45811
G1 X93.633 Y84.074 E64.58959
G1 X93.389 Y84.240 E64.61168
G1 X91.675 Y84.581 E64.74246
G1 X91.495 Y84.619 E64.75623
G1 X26.112 Y84.618 E69.64918
G1 X26.112 Y74.117 E70.43503
G0 F6120 X26.612 Y74.617
G1 F1560 X91.438 Y74.617 E75.28630
G1 X93.188 Y74.966 E75.41984
G1 X94.734 Y75.998 E75.55895
G1 X95.766 Y77.544 E75.69805
G1 X96.130 Y79.368 E75.83724
G1 X95.806 Y80.998 E75.96161
G1 X95.764 Y81.195 E75.97668
G1 X94.734 Y82.738 E76.11552
G1 X93.362 Y83.654 E76.23897
G1 X93.191 Y83.770 E76.25444
G1 X91.562 Y84.094 E76.37873
G1 X91.442 Y84.119 E76.38790
G1 X26.612 Y84.118 E81.23948
G1 X26.612 Y74.617 E81.95049
G0 F6120 X27.112 Y75.117
G1 F1560 X91.389 Y75.117 E86.76068
G1 X92.993 Y75.437 E86.88308
G1 X94.373 Y76.359 E87.00728
G1 X95.295 Y77.739 E87.13148
G1 X95.620 Y79.368 E87.25579
G1 X95.316 Y80.897 E87.37245
G1 X95.295 Y80.998 E87.38017
G1 X94.373 Y82.377 E87.50431
G1 X93.080 Y83.241 E87.62069
G1 X92.994 Y83.299 E87.62845
G1 X91.468 Y83.602 E87.74488
G1 X91.468 Y83.603 E87.74495
G1 X91.390 Y83.619 E87.75091
G1 X27.112 Y83.618 E92.56118
G1 X27.112 Y75.117 E93.19735
G0 F6120 X37.613 Y91.117
G1 F1560 X61.114 Y91.117 E94.95605
G1 X61.114 Y114.618 E96.71476
G1 X37.613 Y114.618 E98.47346
G1 X37.613 Y91.117 E100.23217
G0 F6120 X38.113 Y91.617
G1 F1560 X60.614 Y91.617 E101.91604
G1 X60.614 Y114.118 E103.59991
G1 X38.113 Y114.118 E105.28378
G1 X38.113 Y91.617 E106.96764
G0 F6120 X38.613 Y92.117
G1 F1560 X60.114 Y92.117 E108.57668
G1 X60.114 Y113.618 E110.18571
G1 X38.613 Y113.618 E111.79475
G1 X38.613 Y92.117 E113.40378
G0 F6120 X39.113 Y92.617
G1 F1560 X59.614 Y92.617 E114.93798
G1 X59.614 Y113.118 E116.47218
G1 X39.113 Y113.118 E118.00638
G1 X39.113 Y92.617 E119.54057
G0 F6120 X38.192 Y121.117
G1 F1560 X91.115 Y121.117 E123.50108
G1 X91.115 Y132.619 E124.36184
G1 X38.192 Y132.619 E128.32235
G1 X36.151 Y132.212 E128.47809
G1 X34.601 Y131.178 E128.61753
G1 X34.269 Y130.952 E128.64759
G1 X33.021 Y129.082 E128.81583
G1 X32.580 Y126.868 E128.98477
G1 X32.944 Y125.037 E129.12448
G1 X33.027 Y124.645 E129.15446
G1 X34.274 Y122.777 E129.32254
G1 X35.818 Y121.746 E129.46148
G1 X36.143 Y121.525 E129.49089
G1 X38.192 Y121.117 E129.64724
G0 F6120 X38.242 Y121.617
G1 F1560 X90.615 Y121.617 E133.56659
G1 X90.615 Y132.119 E134.35251
G1 X38.242 Y132.119 E138.27186
G1 X36.346 Y131.741 E138.41654
G1 X34.881 Y130.763 E138.54836
G1 X34.631 Y130.593 E138.57098
G1 X33.492 Y128.887 E138.72449
G1 X33.089 Y126.868 E138.87856
G1 X33.433 Y125.138 E139.01056
G1 X33.496 Y124.843 E139.03313
G1 X34.635 Y123.138 E139.18658
G1 X36.096 Y122.162 E139.31807
G1 X36.340 Y121.996 E139.34015
G1 X38.242 Y121.617 E139.48529
G0 F6120 X38.291 Y122.117
G1 F1560 X90.115 Y122.117 E143.36355
G1 X90.115 Y131.619 E144.07464
G1 X38.291 Y131.619 E147.95290
G1 X36.541 Y131.270 E148.08644
G1 X35.161 Y130.349 E148.21060
G1 X34.993 Y130.235 E148.22580
G1 X33.963 Y128.692 E148.36463
G1 X33.599 Y126.868 E148.50382
G1 X33.923 Y125.238 E148.62819
G1 X33.965 Y125.041 E148.64326
G1 X34.995 Y123.498 E148.78210
G1 X36.367 Y122.582 E148.90555
G1 X36.538 Y122.466 E148.92102
G1 X38.291 Y122.117 E149.05478
G0 F6120 X38.340 Y122.617
G1 F1560 X89.615 Y122.617 E152.89196
G1 X89.615 Y131.119 E153.52821
G1 X38.340 Y131.119 E157.36539
G1 X36.736 Y130.799 E157.48779
G1 X35.440 Y129.934 E157.60439
G1 X35.355 Y129.876 E157.61209
G1 X34.434 Y128.497 E157.73619
G1 X34.109 Y126.868 E157.86050
G1 X34.413 Y125.339 E157.97716
G1 X34.434 Y125.238 E157.98488
G1 X35.356 Y123.859 E158.10902
G1 X36.649 Y122.995 E158.22540
G1 X36.735 Y122.937 E158.23316
G1 X38.340 Y122.617 E158.35564
G0 F6120 X38.192 Y133.117
G1 F1560 X91.115 Y133.117 E162.31614
G1 X91.115 Y144.619 E163.17690
G1 X38.192 Y144.619 E167.13741
G1 X36.151 Y144.212 E167.29316
G1 X34.274 Y142.959 E167.46204
G1 X33.021 Y141.082 E167.63093
G1 X32.580 Y138.868 E167.79987
G1 X32.944 Y137.037 E167.93958
G1 X33.027 Y136.645 E167.96956
G1 X34.274 Y134.777 E168.13764
G1 X35.818 Y133.746 E168.27658
G1 X36.143 Y133.525 E168.30599
G1 X38.192 Y133.117 E168.46234
G0 F6120 X38.242 Y133.617
G1 F1560 X90.615 Y133.617 E172.38169
G1 X90.615 Y144.119 E173.16761
G1 X38.242 Y144.119 E177.08696
G1 X36.346 Y143.741 E177.23164
G1 X34.635 Y142.598 E177.38562
G1 X33.492 Y140.887 E177.53961
G1 X33.089 Y138.868 E177.69368
G1 X33.433 Y137.138 E177.82568
G1 X33.496 Y136.843 E177.84826
G1 X34.635 Y135.138 E178.00170
G1 X36.096 Y134.162 E178.13319
G1 X36.340 Y133.996 E178.15527
G1 X38.242 Y133.617 E178.30041
G0 F6120 X38.291 Y134.117
G1 F1560 X90.115 Y134.117 E182.17867
G1 X90.115 Y143.619 E182.88976
G1 X38.291 Y143.619 E186.76802
G1 X36.541 Y143.270 E186.90156
G1 X34.995 Y142.238 E187.04067
G1 X33.963 Y140.692 E187.17977
G1 X33.599 Y138.868 E187.31896
G1 X33.923 Y137.238 E187.44333
G1 X33.965 Y137.041 E187.45841
G1 X34.995 Y135.498 E187.59724
G1 X36.367 Y134.582 E187.72069
G1 X36.538 Y134.466 E187.73616
G1 X38.291 Y134.117 E187.86992
G0 F6120 X38.340 Y134.617
G1 F1560 X89.615 Y134.617 E191.70710
G1 X89.615 Y143.119 E192.34335
G1 X38.340 Y143.119 E196.18053
G1 X36.736 Y142.799 E196.30293
G1 X35.356 Y141.877 E196.42713
G1 X34.434 Y140.497 E196.55133
G1 X34.109 Y138.868 E196.67564
G1 X34.413 Y137.339 E196.79230
G1 X34.434 Y137.238 E196.80002
G1 X35.356 Y135.859 E196.92416
G1 X36.649 Y134.995 E197.04054
G1 X36.735 Y134.937 E197.04830
G1 X38.340 Y134.617 E197.17078
G0 F6120 X72.113 Y113.118
G1 F1560 X72.113 Y92.618 E198.70490
G1 X86.615 Y92.618 E199.79016
G1 X86.615 Y113.118 E201.32429
G1 X72.113 Y113.118 E202.40955
G0 F6120 X71.613 Y113.618
G1 F1560 X71.613 Y92.118 E204.01851
G1 X87.115 Y92.118 E205.17860
G1 X87.115 Y113.618 E206.78756
G1 X71.613 Y113.618 E207.94766
G0 F6120 X71.113 Y114.118
G1 F1560 X71.113 Y91.618 E209.63145
G1 X87.615 Y91.618 E210.86639
G1 X87.615 Y114.118 E212.55018
G1 X71.113 Y114.118 E213.78511
G0 F6120 X70.613 Y114.618
G1 F1560 X70.613 Y91.118 E215.54374
G1 X88.115 Y91.118 E216.85351
G1 X88.115 Y114.618 E218.61214
G1 X70.613 Y114.618 E219.92191
G0 F6120 X100.612 Y85.118
G1 F1560 X100.612 Y73.617 E220.78259
G1 X166.537 Y73.617 E225.71611
G1 X168.578 Y74.024 E225.87185
G1 X170.455 Y75.277 E226.04074
G1 X171.708 Y77.154 E226.20963
G1 X172.149 Y79.368 E226.37857
G1 X171.785 Y81.199 E226.51827
G1 X171.702 Y81.591 E226.54826
G1 X170.455 Y83.459 E226.71634
G1 X168.911 Y84.490 E226.85528
G1 X168.586 Y84.711 E226.88469
G1 X166.778 Y85.070 E227.02263
G1 X166.547 Y85.119 E227.04030
G1 X100.612 Y85.118 E231.97457
G0 F6120 X101.112 Y84.618
G1 F1560 X101.112 Y74.117 E232.76041
G1 X166.487 Y74.117 E237.65277
G1 X168.383 Y74.495 E237.79745
G1 X170.094 Y75.638 E237.95144
G1 X171.237 Y77.349 E238.10542
G1 X171.640 Y79.368 E238.25950
G1 X171.296 Y81.098 E238.39150
G1 X171.233 Y81.393 E238.41407
G1 X170.094 Y83.098 E238.56752
G1 X168.633 Y84.074 E238.69900
G1 X168.389 Y84.240 E238.72109
G1 X166.675 Y84.581 E238.85187
G1 X166.495 Y84.619 E238.86564
G1 X101.112 Y84.618 E243.75859
G0 F6120 X101.612 Y84.118
G1 F1560 X101.612 Y74.617 E244.46960
G1 X166.438 Y74.617 E249.32088
G1 X168.188 Y74.966 E249.45442
G1 X169.734 Y75.998 E249.59352
G1 X170.766 Y77.544 E249.73263
G1 X171.130 Y79.368 E249.87182
G1 X170.806 Y80.998 E249.99618
G1 X170.764 Y81.195 E250.01126
G1 X169.734 Y82.738 E250.15009
G1 X168.362 Y83.654 E250.27355
G1 X168.191 Y83.770 E250.28901
G1 X166.562 Y84.094 E250.41330
G1 X166.442 Y84.119 E250.42248
G1 X101.612 Y84.118 E255.27405
G0 F6120 X102.112 Y83.618
G1 F1560 X102.112 Y75.117 E255.91023
G1 X166.389 Y75.117 E260.72041
G1 X167.993 Y75.437 E260.84282
G1 X169.373 Y76.359 E260.96702
G1 X170.295 Y77.739 E261.09122
G1 X170.620 Y79.368 E261.21553
G1 X170.316 Y80.897 E261.33219
G1 X170.295 Y80.998 E261.33991
G1 X169.373 Y82.377 E261.46405
G1 X168.080 Y83.241 E261.58043
G1 X167.994 Y83.299 E261.58819
G1 X166.468 Y83.602 E261.70462
G1 X166.468 Y83.603 E261.70469
G1 X166.390 Y83.619 E261.71065
G1 X102.112 Y83.618 E266.52091
G0 F6120 X102.113 Y68.368
G1 F1560 X102.113 Y59.867 E267.15709
G1 X166.390 Y59.867 E271.96728
G1 X167.893 Y60.166 E272.08196
G1 X167.994 Y60.187 E272.08968
G1 X169.289 Y61.052 E272.20622
G1 X169.374 Y61.110 E272.21392
G1 X170.296 Y62.489 E272.33806
G1 X170.598 Y64.014 E272.45440
G1 X170.599 Y64.014 E272.45448
G1 X170.620 Y64.116 E272.46227
G1 X170.295 Y65.747 E272.58673
G1 X169.430 Y67.043 E272.70333
G1 X169.372 Y67.128 E272.71103
G1 X168.080 Y67.991 E272.82730
G1 X167.994 Y68.049 E272.83507
G1 X166.384 Y68.368 E272.95789
G1 X102.113 Y68.368 E277.76763
G0 F6120 X101.613 Y68.868
G1 F1560 X101.613 Y59.367 E278.47864
G1 X166.439 Y59.367 E283.32992
G1 X167.994 Y59.676 E283.44856
G1 X168.191 Y59.718 E283.46364
G1 X169.568 Y60.637 E283.58753
G1 X169.736 Y60.751 E283.60272
G1 X170.767 Y62.294 E283.74160
G1 X171.088 Y63.911 E283.86497
G1 X171.131 Y64.113 E283.88042
G1 X170.766 Y65.942 E284.01999
G1 X169.845 Y67.322 E284.14415
G1 X169.731 Y67.490 E284.15935
G1 X168.362 Y68.404 E284.28253
G1 X168.191 Y68.520 E284.29799
G1 X166.433 Y68.868 E284.43211
G1 X101.613 Y68.868 E289.28293
G0 F6120 X101.113 Y69.368
G1 F1560 X101.113 Y58.867 E290.06878
G1 X166.488 Y58.867 E294.96114
G1 X168.094 Y59.186 E295.08367
G1 X168.389 Y59.249 E295.10624
G1 X169.848 Y60.223 E295.23752
G1 X170.098 Y60.393 E295.26015
G1 X171.238 Y62.099 E295.41370
G1 X171.577 Y63.807 E295.54401
G1 X171.641 Y64.110 E295.56718
G1 X171.237 Y66.137 E295.72186
G1 X170.259 Y67.602 E295.85368
G1 X170.089 Y67.852 E295.87630
G1 X168.633 Y68.824 E296.00731
G1 X168.388 Y68.991 E296.02950
G1 X166.482 Y69.368 E296.17490
G1 X101.113 Y69.368 E301.06681
G0 F6120 X100.613 Y69.868
G1 F1560 X100.613 Y58.367 E301.92749
G1 X166.537 Y58.367 E306.86093
G1 X168.195 Y58.697 E306.98744
G1 X168.587 Y58.780 E307.01743
G1 X170.128 Y59.808 E307.15606
G1 X170.460 Y60.034 E307.18611
G1 X171.709 Y61.904 E307.35440
G1 X172.066 Y63.704 E307.49172
G1 X172.151 Y64.107 E307.52255
G1 X171.708 Y66.332 E307.69232
G1 X170.674 Y67.882 E307.83176
G1 X170.447 Y68.214 E307.86186
G1 X168.911 Y69.240 E308.00009
G1 X168.585 Y69.461 E308.02956
G1 X166.531 Y69.868 E308.18626
G1 X100.613 Y69.868 E313.11926
G0 F6120 X112.613 Y91.117
G1 F1560 X136.114 Y91.117 E314.87796
G1 X136.114 Y114.618 E316.63667
G1 X112.613 Y114.618 E318.39537
G1 X112.613 Y91.117 E320.15408
G0 F6120 X113.113 Y91.617
G1 F1560 X135.614 Y91.617 E321.83794
G1 X135.614 Y114.118 E323.52181
G1 X113.113 Y114.118 E325.20568
G1 X113.113 Y91.617 E326.88955
G0 F6120 X113.613 Y92.117
G1 F1560 X135.114 Y92.117 E328.49859
G1 X135.114 Y113.618 E330.10762
G1 X113.613 Y113.618 E331.71665
G1 X113.613 Y92.117 E333.32569
G0 F6120 X114.113 Y92.617
G1 F1560 X134.614 Y92.617 E334.85989
G1 X134.614 Y113.118 E336.39408
G1 X114.113 Y113.118 E337.92828
G1 X114.113 Y92.617 E339.46248
G0 F6120 X113.192 Y121.117
G1 F1560 X166.115 Y121.117 E343.42299
G1 X166.115 Y132.619 E344.28375
G1 X113.192 Y132.619 E348.24425
G1 X111.151 Y132.212 E348.40000
G1 X109.601 Y131.178 E348.53944
G1 X109.269 Y130.952 E348.56949
G1 X108.021 Y129.082 E348.73774
G1 X107.580 Y126.868 E348.90668
G1 X107.944 Y125.037 E349.04638
G1 X108.027 Y124.645 E349.07637
G1 X109.274 Y122.777 E349.24445
G1 X110.818 Y121.746 E349.38338
G1 X111.143 Y121.525 E349.41280
G1 X113.192 Y121.117 E349.56914
G0 F6120 X113.242 Y121.617
G1 F1560 X165.615 Y121.617 E353.48849
G1 X165.615 Y132.119 E354.27441
G1 X113.242 Y132.119 E358.19376
G1 X111.346 Y131.741 E358.33844
G1 X109.881 Y130.763 E358.47026
G1 X109.631 Y130.593 E358.49289
G1 X108.492 Y128.887 E358.64639
G1 X108.089 Y126.868 E358.80047
G1 X108.433 Y125.138 E358.93247
G1 X108.496 Y124.843 E358.95504
G1 X109.635 Y123.138 E359.10849
G1 X111.096 Y122.162 E359.23997
G1 X111.340 Y121.996 E359.26206
G1 X113.242 Y121.617 E359.40719
G0 F6120 X113.291 Y122.117
G1 F1560 X165.115 Y122.117 E363.28546
G1 X165.115 Y131.619 E363.99654
G1 X113.291 Y131.619 E367.87481
G1 X111.541 Y131.270 E368.00835
G1 X110.161 Y130.349 E368.13251
G1 X109.993 Y130.235 E368.14770
G1 X108.963 Y128.692 E368.28654
G1 X108.599 Y126.868 E368.42573
G1 X108.923 Y125.238 E368.55010
G1 X108.965 Y125.041 E368.56517
G1 X109.995 Y123.498 E368.70400
G1 X111.367 Y122.582 E368.82746
G1 X111.538 Y122.466 E368.84292
G1 X113.291 Y122.117 E368.97668
G0 F6120 X113.340 Y122.617
G1 F1560 X164.615 Y122.617 E372.81386
G1 X164.615 Y131.119 E373.45011
G1 X113.340 Y131.119 E377.28729
G1 X111.736 Y130.799 E377.40969
G1 X110.440 Y129.934 E377.52630
G1 X110.355 Y129.876 E377.53400
G1 X109.434 Y128.497 E377.65810
G1 X109.109 Y126.868 E377.78241
G1 X109.413 Y125.339 E377.89907
G1 X109.434 Y125.238 E377.90679
G1 X110.356 Y123.859 E378.03093
G1 X111.649 Y122.995 E378.14731
G1 X111.735 Y122.937 E378.15507
G1 X113.340 Y122.617 E378.27754
G0 F6120 X113.192 Y133.117
G1 F1560 X166.115 Y133.117 E382.23805
G1 X166.115 Y144.619 E383.09881
G1 X113.192 Y144.619 E387.05932
G1 X111.151 Y144.212 E387.21506
G1 X109.274 Y142.959 E387.38395
G1 X108.021 Y141.082 E387.55284
G1 X107.580 Y138.868 E387.72178
G1 X107.944 Y137.037 E387.86148
G1 X108.027 Y136.645 E387.89147
G1 X109.274 Y134.777 E388.05955
G1 X110.818 Y133.746 E388.19849
G1 X111.143 Y133.525 E388.22790
