;Generated with Cura_SteamEngine 15.05
; Default start code
G28 ; Home extruder
G1 Z15 F100
M107 ; Turn off fan
G90 ; Absolute positioning
M82 ; Extruder in absolute mode
; Activate all used extruder
M104 T0 S195
G92 E0 ; Reset extruder position
; Wait for all used extruders to reach temperature
M109 T0 S195
;Layer count: 177
;LAYER:0
M107
G0 F6120 X22.692 Y20.110 Z0.360
;TYPE:SKIRT
G1 F1560 X88.616 Y20.110 E4.93344
G1 X90.274 Y20.440 E5.05995
G1 X90.666 Y20.523 E5.08994
G1 X92.207 Y21.551 E5.22857
G1 X92.539 Y21.777 E5.25862
G1 X93.788 Y23.647 E5.42691
G1 X94.145 Y25.447 E5.56423
G1 X94.230 Y25.850 E5.59506
G1 X93.787 Y28.075 E5.76483
G1 X92.753 Y29.625 E5.90427
G1 X92.526 Y29.957 E5.93437
G1 X90.990 Y30.983 E6.07260
G1 X90.664 Y31.204 E6.10207
G1 X88.610 Y31.611 E6.25877
G1 X22.692 Y31.611 E11.19177
G1 X22.692 Y20.110 E12.05245
G0 F6120 X23.192 Y20.610
G1 F1560 X88.567 Y20.610 E16.94481
G1 X90.173 Y20.929 E17.06734
G1 X90.468 Y20.992 E17.08991
G1 X91.927 Y21.966 E17.22119
G1 X92.177 Y22.136 E17.24382
G1 X93.317 Y23.842 E17.39737
G1 X93.656 Y25.550 E17.52768
G1 X93.720 Y25.853 E17.55085
G1 X93.316 Y27.880 E17.70553
G1 X92.338 Y29.345 E17.83735
G1 X92.168 Y29.595 E17.85997
G1 X90.712 Y30.567 E17.99098
G1 X90.467 Y30.734 E18.01317
G1 X88.561 Y31.111 E18.15857
G1 X23.192 Y31.111 E23.05048
G1 X23.192 Y20.610 E23.83632
G0 F6120 X23.692 Y21.110
G1 F1560 X88.518 Y21.110 E28.68760
G1 X90.073 Y21.419 E28.80624
G1 X90.270 Y21.461 E28.82132
G1 X91.647 Y22.380 E28.94521
G1 X91.815 Y22.494 E28.96040
G1 X92.846 Y24.037 E29.09928
G1 X93.167 Y25.654 E29.22265
G1 X93.210 Y25.856 E29.23810
G1 X92.845 Y27.685 E29.37767
G1 X91.924 Y29.065 E29.50183
G1 X91.810 Y29.233 E29.51703
G1 X90.441 Y30.147 E29.64021
G1 X90.270 Y30.263 E29.65567
G1 X88.512 Y30.611 E29.78979
G1 X23.692 Y30.611 E34.64061
G1 X23.692 Y21.110 E35.35162
G0 F6120 X24.192 Y21.610
G1 F1560 X88.469 Y21.610 E40.16181
G1 X89.972 Y21.909 E40.27649
G1 X90.073 Y21.930 E40.28421
G1 X91.368 Y22.795 E40.40076
G1 X91.453 Y22.853 E40.40846
G1 X92.375 Y24.232 E40.53260
G1 X92.677 Y25.757 E40.64894
G1 X92.678 Y25.757 E40.64901
G1 X92.699 Y25.859 E40.65680
G1 X92.374 Y27.490 E40.78126
G1 X91.509 Y28.786 E40.89786
G1 X91.451 Y28.871 E40.90557
G1 X90.159 Y29.734 E41.02184
G1 X90.073 Y29.792 E41.02960
G1 X88.463 Y30.111 E41.15243
G1 X24.192 Y30.111 E45.96217
G1 X24.192 Y21.610 E46.59834
G0 F6120 X22.691 Y35.360
G1 F1560 X88.616 Y35.360 E51.53186
G1 X90.657 Y35.767 E51.68761
G1 X92.534 Y37.020 E51.85649
G1 X93.787 Y38.897 E52.02538
G1 X94.228 Y41.111 E52.19432
G1 X93.864 Y42.942 E52.33403
G1 X93.781 Y43.334 E52.36401
G1 X92.534 Y45.202 E52.53209
G1 X90.990 Y46.233 E52.67103
G1 X90.665 Y46.454 E52.70044
G1 X88.857 Y46.813 E52.83839
G1 X88.626 Y46.862 E52.85606
G1 X22.691 Y46.861 E57.79032
G1 X22.691 Y35.360 E58.65100
G0 F6120 X23.191 Y35.860
G1 F1560 X88.566 Y35.860 E63.54336
G1 X90.462 Y36.238 E63.68804
G1 X92.173 Y37.381 E63.84203
G1 X93.316 Y39.092 E63.99601
G1 X93.719 Y41.111 E64.15009
G1 X93.375 Y42.841 E64.28209
G1 X93.312 Y43.136 E64.30466
G1 X92.173 Y44.841 E64.45811
G1 X90.712 Y45.817 E64.58959
G1 X90.468 Y45.983 E64.61168
G1 X88.754 Y46.324 E64.74246
G1 X88.574 Y46.362 E64.75623
G1 X23.191 Y46.361 E69.64918
G1 X23.191 Y35.860 E70.43503
G0 F6120 X23.691 Y36.360
G1 F1560 X88.517 Y36.360 E75.28630
G1 X90.267 Y36.709 E75.41984
G1 X91.813 Y37.741 E75.55895
G1 X92.845 Y39.287 E75.69805
G1 X93.209 Y41.111 E75.83724
G1 X92.885 Y42.741 E75.96161
G1 X92.843 Y42.938 E75.97668
G1 X91.813 Y44.481 E76.11552
G1 X90.441 Y45.397 E76.23897
G1 X90.270 Y45.513 E76.25444
G1 X88.641 Y45.837 E76.37873
G1 X88.521 Y45.862 E76.38790
G1 X23.691 Y45.861 E81.23948
G1 X23.691 Y36.360 E81.95049
G0 F6120 X24.191 Y36.860
G1 F1560 X88.468 Y36.860 E86.76068
G1 X90.072 Y37.180 E86.88308
G1 X91.452 Y38.102 E87.00728
G1 X92.374 Y39.482 E87.13148
G1 X92.699 Y41.111 E87.25579
G1 X92.395 Y42.640 E87.37245
G1 X92.374 Y42.741 E87.38017
G1 X91.452 Y44.120 E87.50431
G1 X90.159 Y44.984 E87.62069
G1 X90.073 Y45.042 E87.62845
G1 X88.547 Y45.345 E87.74488
G1 X88.547 Y45.346 E87.74495
G1 X88.469 Y45.362 E87.75091
G1 X24.191 Y45.361 E92.56118
G1 X24.191 Y36.860 E93.19735
G0 F6120 X34.692 Y52.860
G1 F1560 X58.193 Y52.860 E94.95605
G1 X58.193 Y76.361 E96.71476
G1 X34.692 Y76.361 E98.47346
G1 X34.692 Y52.860 E100.23217
G0 F6120 X35.192 Y53.360
G1 F1560 X57.693 Y53.360 E101.91604
G1 X57.693 Y75.861 E103.59991
G1 X35.192 Y75.861 E105.28378
G1 X35.192 Y53.360 E106.96764
G0 F6120 X35.692 Y53.860
G1 F1560 X57.193 Y53.860 E108.57668
G1 X57.193 Y75.361 E110.18571
G1 X35.692 Y75.361 E111.79475
G1 X35.692 Y53.860 E113.40378
G0 F6120 X36.192 Y54.360
G1 F1560 X56.693 Y54.360 E114.93798
G1 X56.693 Y74.861 E116.47218
G1 X36.192 Y74.861 E118.00638
G1 X36.192 Y54.360 E119.54057
G0 F6120 X35.271 Y82.860
G1 F1560 X88.194 Y82.860 E123.50108
G1 X88.194 Y94.362 E124.36184
G1 X35.271 Y94.362 E128.32235
G1 X33.230 Y93.955 E128.47809
G1 X31.680 Y92.921 E128.61753
G1 X31.348 Y92.695 E128.64759
G1 X30.100 Y90.825 E128.81583
G1 X29.659 Y88.611 E128.98477
G1 X30.023 Y86.780 E129.12448
G1 X30.106 Y86.388 E129.15446
G1 X31.353 Y84.520 E129.32254
G1 X32.897 Y83.489 E129.46148
G1 X33.222 Y83.268 E129.49089
G1 X35.271 Y82.860 E129.64724
G0 F6120 X35.321 Y83.360
G1 F1560 X87.694 Y83.360 E133.56659
G1 X87.694 Y93.862 E134.35251
G1 X35.321 Y93.862 E138.27186
G1 X33.425 Y93.484 E138.41654
G1 X31.960 Y92.506 E138.54836
G1 X31.710 Y92.336 E138.57098
G1 X30.571 Y90.630 E138.72449
G1 X30.168 Y88.611 E138.87856
G1 X30.512 Y86.881 E139.01056
G1 X30.575 Y86.586 E139.03313
G1 X31.714 Y84.881 E139.18658
G1 X33.175 Y83.905 E139.31807
G1 X33.419 Y83.739 E139.34015
G1 X35.321 Y83.360 E139.48529
G0 F6120 X35.370 Y83.860
G1 F1560 X87.194 Y83.860 E143.36355
G1 X87.194 Y93.362 E144.07464
G1 X35.370 Y93.362 E147.95290
G1 X33.620 Y93.013 E148.08644
G1 X32.240 Y92.092 E148.21060
G1 X32.072 Y91.978 E148.22580
G1 X31.042 Y90.435 E148.36463
G1 X30.678 Y88.611 E148.50382
G1 X31.002 Y86.981 E148.62819
G1 X31.044 Y86.784 E148.64326
G1 X32.074 Y85.241 E148.78210
G1 X33.446 Y84.325 E148.90555
G1 X33.617 Y84.209 E148.92102
G1 X35.370 Y83.860 E149.05478
G0 F6120 X35.419 Y84.360
G1 F1560 X86.694 Y84.360 E152.89196
G1 X86.694 Y92.862 E153.52821
G1 X35.419 Y92.862 E157.36539
G1 X33.815 Y92.542 E157.48779
G1 X32.519 Y91.677 E157.60439
G1 X32.434 Y91.619 E157.61209
G1 X31.513 Y90.240 E157.73619
G1 X31.188 Y88.611 E157.86050
G1 X31.492 Y87.082 E157.97716
G1 X31.513 Y86.981 E157.98488
G1 X32.435 Y85.602 E158.10902
G1 X33.728 Y84.738 E158.22540
G1 X33.814 Y84.680 E158.23316
G1 X35.419 Y84.360 E158.35564
G0 F6120 X35.271 Y94.860
G1 F1560 X88.194 Y94.860 E162.31614
G1 X88.194 Y106.362 E163.17690
G1 X35.271 Y106.362 E167.13741
G1 X33.230 Y105.955 E167.29316
G1 X31.353 Y104.702 E167.46204
G1 X30.100 Y102.825 E167.63093
G1 X29.659 Y100.611 E167.79987
G1 X30.023 Y98.780 E167.93958
G1 X30.106 Y98.388 E167.96956
G1 X31.353 Y96.520 E168.13764
G1 X32.897 Y95.489 E168.27658
G1 X33.222 Y95.268 E168.30599
G1 X35.271 Y94.860 E168.46234
G0 F6120 X35.321 Y95.360
G1 F1560 X87.694 Y95.360 E172.38169
G1 X87.694 Y105.862 E173.16761
G1 X35.321 Y105.862 E177.08696
G1 X33.425 Y105.484 E177.23164
G1 X31.714 Y104.341 E177.38562
G1 X30.571 Y102.630 E177.53961
G1 X30.168 Y100.611 E177.69368
G1 X30.512 Y98.881 E177.82568
G1 X30.575 Y98.586 E177.84826
G1 X31.714 Y96.881 E178.00170
G1 X33.175 Y95.905 E178.13319
G1 X33.419 Y95.739 E178.15527
G1 X35.321 Y95.360 E178.30041
G0 F6120 X35.370 Y95.860
G1 F1560 X87.194 Y95.860 E182.17867
G1 X87.194 Y105.362 E182.88976
G1 X35.370 Y105.362 E186.76802
G1 X33.620 Y105.013 E186.90156
G1 X32.074 Y103.981 E187.04067
G1 X31.042 Y102.435 E187.17977
G1 X30.678 Y100.611 E187.31896
G1 X31.002 Y98.981 E187.44333
G1 X31.044 Y98.784 E187.45841
G1 X32.074 Y97.241 E187.59724
G1 X33.446 Y96.325 E187.72069
G1 X33.617 Y96.209 E187.73616
G1 X35.370 Y95.860 E187.86992
G0 F6120 X35.419 Y96.360
G1 F1560 X86.694 Y96.360 E191.70710
G1 X86.694 Y104.862 E192.34335
G1 X35.419 Y104.862 E196.18053
G1 X33.815 Y104.542 E196.30293
G1 X32.435 Y103.620 E196.42713
G1 X31.513 Y102.240 E196.55133
G1 X31.188 Y100.611 E196.67564
G1 X31.492 Y99.082 E196.79230
G1 X31.513 Y98.981 E196.80002
G1 X32.435 Y97.602 E196.92416
G1 X33.728 Y96.738 E197.04054
G1 X33.814 Y96.680 E197.04830
G1 X35.419 Y96.360 E197.17078
G0 F6120 X69.192 Y74.861
G1 F1560 X69.192 Y54.361 E198.70490
G1 X83.694 Y54.361 E199.79016
G1 X83.694 Y74.861 E201.32429
G1 X69.192 Y74.861 E202.40955
G0 F6120 X68.692 Y75.361
G1 F1560 X68.692 Y53.861 E204.01851
G1 X84.194 Y53.861 E205.17860
G1 X84.194 Y75.361 E206.78756
G1 X68.692 Y75.361 E207.94766
G0 F6120 X68.192 Y75.861
G1 F1560 X68.192 Y53.361 E209.63145
G1 X84.694 Y53.361 E210.86639
G1 X84.694 Y75.861 E212.55018
G1 X68.192 Y75.861 E213.78511
G0 F6120 X67.692 Y76.361
G1 F1560 X67.692 Y52.861 E215.54374
G1 X85.194 Y52.861 E216.85351
G1 X85.194 Y76.361 E218.61214
G1 X67.692 Y76.361 E219.92191
G1 F2400 E215.92191
G0 F6120 X88.363 Y29.111
;TYPE:WALL-INNER
G1 F2400 E219.92191
G1 F1560 X25.192 Y29.111 E224.64933
G1 X25.192 Y22.610 E225.13583
G1 X88.368 Y22.610 E229.86363
G1 X89.681 Y22.871 E229.96381
G1 X90.729 Y23.571 E230.05812
G1 X91.432 Y24.623 E230.15281
G1 X91.679 Y25.862 E230.24735
G1 X91.432 Y27.101 E230.34190
G1 X90.732 Y28.148 E230.43615
G1 X89.681 Y28.850 E230.53073
G1 X88.363 Y29.111 E230.63128
G0 F6120 X88.414 Y29.611
;TYPE:WALL-OUTER
G1 F1560 X24.692 Y29.611 E235.39994
G1 X24.692 Y22.110 E235.96128
G1 X88.420 Y22.110 E240.73038
G1 X89.870 Y22.398 E240.84101
G1 X91.087 Y23.209 E240.95046
G1 X91.904 Y24.428 E241.06027
G1 X92.188 Y25.859 E241.16945
G1 X91.904 Y27.294 E241.27892
G1 X91.095 Y28.505 E241.38791
G1 X89.878 Y29.320 E241.49752
G1 X88.414 Y29.611 E241.60922
G0 F6120 X88.629 Y28.878
;TYPE:SKIN
G1 F1560 X82.535 Y22.785 E242.25412
G0 F6120 X81.828 Y22.785
G1 F1560 X87.978 Y28.935 E242.90499
G0 F6120 X87.271 Y28.935
G1 F1560 X81.121 Y22.785 E243.55587
G0 F6120 X80.414 Y22.785
G1 F1560 X86.564 Y28.935 E244.20674
G0 F6120 X85.857 Y28.935
G1 F1560 X79.707 Y22.785 E244.85761
G0 F6120 X79.000 Y22.785
G1 F1560 X85.150 Y28.935 E245.50849
G0 F6120 X84.443 Y28.935
G1 F1560 X78.292 Y22.785 E246.15941
G0 F6120 X77.585 Y22.785
G1 F1560 X83.736 Y28.935 E246.81034
G0 F6120 X83.029 Y28.935
G1 F1560 X76.878 Y22.785 E247.46127
G0 F6120 X76.171 Y22.785
G1 F1560 X82.322 Y28.935 E248.11219
G0 F6120 X81.614 Y28.935
G1 F1560 X75.464 Y22.785 E248.76307
G0 F6120 X74.757 Y22.785
G1 F1560 X80.907 Y28.935 E249.41394
G0 F6120 X80.200 Y28.935
G1 F1560 X74.050 Y22.785 E250.06481
G0 F6120 X73.343 Y22.785
G1 F1560 X79.493 Y28.935 E250.71569
G0 F6120 X78.786 Y28.935
G1 F1560 X72.636 Y22.785 E251.36656
G0 F6120 X71.929 Y22.785
G1 F1560 X78.079 Y28.935 E252.01743
G0 F6120 X77.372 Y28.935
G1 F1560 X71.221 Y22.785 E252.66836
G0 F6120 X70.514 Y22.785
G1 F1560 X76.665 Y28.935 E253.31929
G0 F6120 X75.958 Y28.935
G1 F1560 X69.807 Y22.785 E253.97021
G0 F6120 X69.100 Y22.785
G1 F1560 X75.251 Y28.935 E254.62114
G0 F6120 X74.543 Y28.935
G1 F1560 X68.393 Y22.785 E255.27201
G0 F6120 X67.686 Y22.785
G1 F1560 X73.836 Y28.935 E255.92289
G0 F6120 X73.129 Y28.935
G1 F1560 X66.979 Y22.785 E256.57376
G0 F6120 X66.272 Y22.785
G1 F1560 X72.422 Y28.935 E257.22463
G0 F6120 X71.715 Y28.935
G1 F1560 X65.565 Y22.785 E257.87551
G0 F6120 X64.857 Y22.785
G1 F1560 X71.008 Y28.935 E258.52643
G0 F6120 X70.301 Y28.935
G1 F1560 X64.150 Y22.785 E259.17736
G0 F6120 X63.443 Y22.785
G1 F1560 X69.594 Y28.935 E259.82829
G0 F6120 X68.887 Y28.935
G1 F1560 X62.736 Y22.785 E260.47921
G0 F6120 X62.029 Y22.785
G1 F1560 X68.179 Y28.935 E261.13009
G0 F6120 X67.472 Y28.935
G1 F1560 X61.322 Y22.785 E261.78096
G0 F6120 X60.615 Y22.785
G1 F1560 X66.765 Y28.935 E262.43183
G0 F6120 X66.058 Y28.935
G1 F1560 X59.908 Y22.785 E263.08271
G0 F6120 X59.201 Y22.785
G1 F1560 X65.351 Y28.935 E263.73358
G0 F6120 X64.644 Y28.935
G1 F1560 X58.493 Y22.785 E264.38451
G0 F6120 X57.786 Y22.785
G1 F1560 X63.937 Y28.935 E265.03543
G0 F6120 X63.230 Y28.935
G1 F1560 X57.079 Y22.785 E265.68636
G0 F6120 X56.372 Y22.785
G1 F1560 X62.523 Y28.935 E266.33729
G0 F6120 X61.815 Y28.935
G1 F1560 X55.665 Y22.785 E266.98816
G0 F6120 X54.958 Y22.785
G1 F1560 X61.108 Y28.935 E267.63903
G0 F6120 X60.401 Y28.935
G1 F1560 X54.251 Y22.785 E268.28991
G0 F6120 X53.544 Y22.785
G1 F1560 X59.694 Y28.935 E268.94078
G0 F6120 X58.987 Y28.935
G1 F1560 X52.837 Y22.785 E269.59166
G0 F6120 X52.130 Y22.785
G1 F1560 X58.280 Y28.935 E270.24253
G0 F6120 X57.573 Y28.935
G1 F1560 X51.422 Y22.785 E270.89346
G0 F6120 X50.715 Y22.785
G1 F1560 X56.866 Y28.935 E271.54438
G0 F6120 X56.159 Y28.935
G1 F1560 X50.008 Y22.785 E272.19531
G0 F6120 X49.301 Y22.785
G1 F1560 X55.452 Y28.935 E272.84624
G0 F6120 X54.744 Y28.935
G1 F1560 X48.594 Y22.785 E273.49711
G0 F6120 X47.887 Y22.785
G1 F1560 X54.037 Y28.935 E274.14798
G0 F6120 X53.330 Y28.935
G1 F1560 X47.180 Y22.785 E274.79886
G0 F6120 X46.473 Y22.785
G1 F1560 X52.623 Y28.935 E275.44973
G0 F6120 X51.916 Y28.935
G1 F1560 X45.766 Y22.785 E276.10060
G0 F6120 X45.058 Y22.785
G1 F1560 X51.209 Y28.935 E276.75153
G0 F6120 X50.502 Y28.935
G1 F1560 X44.351 Y22.785 E277.40246
G0 F6120 X43.644 Y22.785
G1 F1560 X49.795 Y28.935 E278.05338
G0 F6120 X49.088 Y28.935
G1 F1560 X42.937 Y22.785 E278.70431
G0 F6120 X42.230 Y22.785
G1 F1560 X48.380 Y28.935 E279.35518
G0 F6120 X47.673 Y28.935
G1 F1560 X41.523 Y22.785 E280.00606
G0 F6120 X40.816 Y22.785
G1 F1560 X46.966 Y28.935 E280.65693
G0 F6120 X46.259 Y28.935
G1 F1560 X40.109 Y22.785 E281.30780
G0 F6120 X39.402 Y22.785
G1 F1560 X45.552 Y28.935 E281.95868
G0 F6120 X44.845 Y28.935
G1 F1560 X38.695 Y22.785 E282.60955
G0 F6120 X37.987 Y22.785
G1 F1560 X44.138 Y28.935 E283.26048
G0 F6120 X43.431 Y28.935
G1 F1560 X37.280 Y22.785 E283.91140
G0 F6120 X36.573 Y22.785
G1 F1560 X42.724 Y28.935 E284.56233
G0 F6120 X42.016 Y28.935
G1 F1560 X35.866 Y22.785 E285.21320
G0 F6120 X35.159 Y22.785
G1 F1560 X41.309 Y28.935 E285.86408
G0 F6120 X40.602 Y28.935
G1 F1560 X34.452 Y22.785 E286.51495
G0 F6120 X33.745 Y22.785
G1 F1560 X39.895 Y28.935 E287.16582
G0 F6120 X39.188 Y28.935
G1 F1560 X33.038 Y22.785 E287.81670
G0 F6120 X32.331 Y22.785
G1 F1560 X38.481 Y28.935 E288.46757
G0 F6120 X37.774 Y28.935
G1 F1560 X31.623 Y22.785 E289.11850
G0 F6120 X30.916 Y22.785
G1 F1560 X37.067 Y28.935 E289.76942
G0 F6120 X36.360 Y28.935
G1 F1560 X30.209 Y22.785 E290.42035
G0 F6120 X29.502 Y22.785
G1 F1560 X35.653 Y28.935 E291.07128
G0 F6120 X34.945 Y28.935
G1 F1560 X28.795 Y22.785 E291.72215
G0 F6120 X28.088 Y22.785
G1 F1560 X34.238 Y28.935 E292.37302
G0 F6120 X33.531 Y28.935
G1 F1560 X27.381 Y22.785 E293.02390
G0 F6120 X26.674 Y22.785
G1 F1560 X32.824 Y28.935 E293.67477
G0 F6120 X32.117 Y28.935
G1 F1560 X25.967 Y22.785 E294.32565
G0 F6120 X25.366 Y22.891
G1 F1560 X31.410 Y28.935 E294.96530
G0 F6120 X30.703 Y28.935
G1 F1560 X25.366 Y23.598 E295.53013
G0 F6120 X25.366 Y24.305
G1 F1560 X29.996 Y28.935 E296.02014
G0 F6120 X29.289 Y28.935
G1 F1560 X25.366 Y25.012 E296.43532
G0 F6120 X25.366 Y25.719
G1 F1560 X28.581 Y28.935 E296.77563
G0 F6120 X27.874 Y28.935
G1 F1560 X25.366 Y26.427 E297.04106
G0 F6120 X25.366 Y27.134
G1 F1560 X27.167 Y28.935 E297.23166
G0 F6120 X26.460 Y28.935
G1 F1560 X25.366 Y27.841 E297.34744
G0 F6120 X25.366 Y28.548
G1 F1560 X25.753 Y28.935 E297.38840
G0 F6120 X83.242 Y22.785
G1 F1560 X89.219 Y28.762 E298.02097
G0 F6120 X89.754 Y28.589
G1 F1560 X83.949 Y22.785 E298.63527
G0 F6120 X84.656 Y22.785
G1 F1560 X90.178 Y28.306 E299.21963
G0 F6120 X90.602 Y28.023
G1 F1560 X85.364 Y22.785 E299.77399
G0 F6120 X86.071 Y22.785
G1 F1560 X90.887 Y27.601 E300.28368
G0 F6120 X91.170 Y27.176
G1 F1560 X86.778 Y22.785 E300.74844
G0 F6120 X87.485 Y22.785
G1 F1560 X91.344 Y26.644 E301.15685
G0 F6120 X91.461 Y26.054
G1 F1560 X88.192 Y22.785 E301.50282
G0 F6120 X89.035 Y22.920
G1 F1560 X91.382 Y25.267 E301.75121
G0 F6120 X90.771 Y23.949
G1 F1560 X90.350 Y23.528 E301.79577
G1 F2400 E297.79577
G0 F6120 X88.366 Y37.860
;TYPE:WALL-INNER
G1 F2400 E301.79577
G1 F1560 X89.681 Y38.122 E301.89611
G1 X90.731 Y38.823 E301.99059
G1 X91.432 Y39.873 E302.08507
G1 X91.679 Y41.111 E302.17954
G1 X91.433 Y42.347 E302.27385
