;Generated with Cura_SteamEngine 15.05
; Default start code
G28 ; Home extruder
G1 Z15 F100
M107 ; Turn off fan
G90 ; Absolute positioning
M82 ; Extruder in absolute mode
; Activate all used extruder
M104 T0 S195
G92 E0 ; Reset extruder position
; Wait for all used extruders to reach temperature
M109 T0 S195
;Layer count: 143
;LAYER:0
M107
G0 F6120 X3.748 Y36.593 Z0.360
;TYPE:SKIRT
G1 F1560 X25.548 Y36.393 E1.63148
G1 X25.548 Y35.593 E1.69135
G1 X47.948 Y35.393 E3.36772
G1 X47.948 Y34.540 E3.43156
G1 X50.748 Y34.339 E3.64164
G1 X50.748 Y19.696 E4.73745
G1 X49.548 Y19.496 E4.82849
G1 X49.548 Y9.308 E5.59091
G1 X50.348 Y9.108 E5.65262
G1 X50.348 Y3.571 E6.06699
G1 X59.948 Y3.571 E6.78541
G1 X59.948 Y9.108 E7.19977
G1 X60.748 Y9.308 E7.26148
G1 X60.748 Y19.496 E8.02390
G1 X59.548 Y19.696 E8.11494
G1 X59.548 Y34.339 E9.21076
G1 X62.348 Y34.540 E9.42083
G1 X62.348 Y35.393 E9.48467
G1 X84.548 Y35.593 E11.14608
G1 X84.548 Y36.192 E11.19091
G1 X106.748 Y36.396 E12.85232
G1 X106.748 Y41.435 E13.22942
G1 X105.948 Y42.236 E13.31413
G1 X105.948 Y44.236 E13.46381
G1 X104.731 Y44.252 E13.55489
G1 X104.148 Y44.836 E13.61664
G1 X104.148 Y45.436 E13.66154
G1 X103.948 Y45.636 E13.68271
G1 X103.948 Y47.820 E13.84615
G1 X103.148 Y47.836 E13.90603
G1 X103.148 Y48.036 E13.92100
G1 X102.948 Y48.236 E13.94216
G1 X102.948 Y51.221 E14.16555
G1 X102.748 Y51.225 E14.18052
G1 X102.748 Y53.206 E14.32877
G1 X102.948 Y53.406 E14.34993
G1 X102.948 Y53.606 E14.36490
G1 X103.148 Y53.806 E14.38607
G1 X103.148 Y54.007 E14.40111
G1 X105.461 Y56.323 E14.64606
G1 X100.850 Y60.932 E15.13395
G1 X99.001 Y59.088 E15.32937
G1 X98.026 Y59.094 E15.40234
G1 X91.346 Y60.431 E15.91215
G1 X90.466 Y60.577 E15.97891
G1 X90.242 Y60.689 E15.99765
G1 X89.637 Y60.891 E16.04538
G1 X89.235 Y61.092 E16.07901
G1 X88.632 Y61.293 E16.12658
G1 X88.235 Y61.492 E16.15981
G1 X87.632 Y61.693 E16.20738
G1 X87.235 Y61.892 E16.24061
G1 X86.632 Y62.093 E16.28818
G1 X86.235 Y62.292 E16.32141
G1 X85.632 Y62.493 E16.36898
G1 X85.235 Y62.692 E16.40221
G1 X84.748 Y62.854 E16.44062
G1 X84.748 Y66.563 E16.71819
G1 X78.946 Y63.634 E17.20457
G1 X78.148 Y62.835 E17.28908
G1 X77.746 Y62.634 E17.32271
G1 X77.347 Y62.235 E17.36494
G1 X76.946 Y62.034 E17.39851
G1 X76.747 Y61.834 E17.41962
G1 X76.346 Y61.634 E17.45316
G1 X76.147 Y61.435 E17.47422
G1 X75.457 Y61.090 E17.53195
G1 X74.860 Y60.892 E17.57902
G1 X74.456 Y60.689 E17.61285
G1 X73.862 Y60.491 E17.65971
G1 X73.061 Y60.091 E17.72671
G1 X72.709 Y59.974 E17.75447
G1 X71.124 Y59.579 E17.87671
G1 X70.885 Y59.499 E17.89557
G1 X68.961 Y61.423 E18.09920
G1 X66.348 Y60.341 E18.31084
G1 X66.348 Y66.671 E18.78455
G1 X65.548 Y66.671 E18.84442
G1 X65.548 Y73.171 E19.33085
G1 X67.148 Y73.171 E19.45059
G1 X67.148 Y80.271 E19.98192
G1 X59.548 Y80.271 E20.55066
G1 X59.548 Y111.471 E22.88553
G1 X50.748 Y111.471 E23.54408
G1 X50.748 Y80.271 E25.87894
G1 X43.148 Y80.271 E26.44769
G1 X43.148 Y73.171 E26.97902
G1 X44.748 Y73.171 E27.09875
G1 X44.748 Y66.671 E27.58518
G1 X43.948 Y66.671 E27.64505
G1 X43.948 Y59.495 E28.18207
G1 X41.203 Y60.692 E28.40617
G1 X40.027 Y59.515 E28.53069
G1 X37.550 Y60.134 E28.72175
G1 X36.838 Y60.489 E28.78129
G1 X36.239 Y60.690 E28.82857
G1 X34.633 Y61.492 E28.96291
G1 X34.423 Y61.562 E28.97948
G1 X34.352 Y61.633 E28.98699
G1 X33.949 Y61.834 E29.02069
G1 X33.750 Y62.034 E29.04181
G1 X33.349 Y62.234 E29.07534
G1 X33.150 Y62.434 E29.09646
G1 X32.350 Y62.834 E29.16339
G1 X31.549 Y63.634 E29.24811
G1 X25.548 Y66.645 E29.75056
G1 X25.548 Y62.635 E30.05065
G1 X25.264 Y62.492 E30.07444
G1 X24.661 Y62.292 E30.12198
G1 X24.264 Y62.093 E30.15522
G1 X23.661 Y61.892 E30.20278
G1 X23.264 Y61.693 E30.23602
G1 X22.661 Y61.492 E30.28358
G1 X22.264 Y61.293 E30.31682
G1 X21.661 Y61.092 E30.36438
G1 X21.264 Y60.893 E30.39762
G1 X20.660 Y60.692 E30.44525
G1 X20.254 Y60.488 E30.47926
G1 X19.966 Y60.392 E30.50198
G1 X17.155 Y59.830 E30.71650
G1 X15.951 Y59.631 E30.80782
G1 X14.120 Y59.264 E30.94757
G1 X13.101 Y59.271 E31.02383
G1 X7.958 Y59.271 E31.40871
G1 X6.296 Y55.259 E31.73369
G1 X7.348 Y54.206 E31.84508
G1 X7.348 Y53.406 E31.90495
G1 X7.548 Y53.206 E31.92612
G1 X7.548 Y52.406 E31.98598
G1 X7.748 Y52.206 E32.00715
G1 X7.748 Y50.436 E32.13961
G1 X7.548 Y50.236 E32.16078
G1 X7.548 Y49.236 E32.23561
G1 X7.348 Y49.036 E32.25678
G1 X7.348 Y48.236 E32.31665
G1 X7.148 Y48.036 E32.33781
G1 X7.148 Y47.836 E32.35278
G1 X6.948 Y47.636 E32.37395
G1 X6.948 Y47.236 E32.40388
G1 X6.748 Y47.036 E32.42505
G1 X6.748 Y46.636 E32.45498
G1 X6.548 Y46.436 E32.47615
G1 X6.548 Y46.036 E32.50608
G1 X6.348 Y45.836 E32.52725
G1 X6.348 Y45.436 E32.55718
G1 X6.148 Y45.236 E32.57835
G1 X6.148 Y45.036 E32.59332
G1 X5.948 Y44.836 E32.61448
G1 X5.948 Y44.636 E32.62945
G1 X5.748 Y44.436 E32.65062
G1 X5.748 Y44.236 E32.66558
G1 X5.548 Y44.036 E32.68675
G1 X5.548 Y43.836 E32.70172
G1 X5.148 Y43.436 E32.74405
G1 X5.148 Y43.236 E32.75902
G1 X4.948 Y43.036 E32.78018
G1 X4.948 Y42.836 E32.79515
G1 X4.548 Y42.436 E32.83748
G1 X4.548 Y42.235 E32.85253
G1 X3.748 Y41.434 E32.93725
G1 X3.748 Y36.593 E33.29952
G0 F6120 X4.248 Y37.088
G1 F1560 X26.048 Y36.888 E34.93100
G1 X26.048 Y36.088 E34.99087
G1 X48.448 Y35.888 E36.66725
G1 X48.448 Y35.005 E36.73333
G1 X51.248 Y34.805 E36.94340
G1 X51.248 Y19.273 E38.10574
G1 X50.048 Y19.073 E38.19678
G1 X50.048 Y9.698 E38.89836
G1 X50.848 Y9.498 E38.96008
G1 X50.848 Y4.071 E39.36621
G1 X59.448 Y4.071 E40.00979
G1 X59.448 Y9.498 E40.41592
G1 X60.248 Y9.698 E40.47763
G1 X60.248 Y19.073 E41.17921
G1 X59.048 Y19.273 E41.27025
G1 X59.048 Y34.805 E42.43260
G1 X61.848 Y35.005 E42.64267
G1 X61.848 Y35.888 E42.70875
G1 X84.048 Y36.088 E44.37016
G1 X84.048 Y36.687 E44.41499
G1 X106.248 Y36.891 E46.07640
G1 X106.248 Y41.228 E46.40096
G1 X105.448 Y42.029 E46.48568
G1 X105.448 Y43.742 E46.61387
G1 X104.448 Y43.756 E46.68872
G1 X104.448 Y43.828 E46.69410
G1 X103.648 Y44.629 E46.77882
G1 X103.648 Y45.229 E46.82372
G1 X103.448 Y45.429 E46.84489
G1 X103.448 Y47.330 E46.98715
G1 X102.848 Y47.342 E47.03206
G1 X102.848 Y47.429 E47.03857
G1 X102.648 Y47.629 E47.05974
G1 X102.648 Y47.829 E47.07471
G1 X102.448 Y48.029 E47.09587
G1 X102.448 Y50.731 E47.29808
G1 X102.248 Y50.735 E47.31305
G1 X102.248 Y53.413 E47.51346
G1 X102.448 Y53.613 E47.53462
G1 X102.448 Y53.813 E47.54959
G1 X102.648 Y54.013 E47.57076
G1 X102.648 Y54.214 E47.58580
G1 X104.754 Y56.323 E47.80884
G1 X100.850 Y60.225 E48.22191
G1 X99.206 Y58.586 E48.39563
G1 X97.977 Y58.594 E48.48761
G1 X91.255 Y59.939 E49.00062
G1 X90.311 Y60.096 E49.07224
G1 X90.050 Y60.226 E49.09406
G1 X89.445 Y60.428 E49.14179
G1 X89.043 Y60.629 E49.17543
G1 X88.444 Y60.828 E49.22266
G1 X88.044 Y61.029 E49.25616
G1 X87.444 Y61.228 E49.30347
G1 X87.044 Y61.429 E49.33697
G1 X86.444 Y61.628 E49.38428
G1 X86.044 Y61.829 E49.41778
G1 X85.443 Y62.028 E49.46515
G1 X85.043 Y62.229 E49.49866
G1 X84.444 Y62.428 E49.54589
G1 X84.248 Y62.525 E49.56226
G1 X84.248 Y65.750 E49.80360
G1 X79.243 Y63.224 E50.22315
G1 X78.442 Y62.423 E50.30792
G1 X78.043 Y62.223 E50.34132
G1 X77.642 Y61.823 E50.38371
G1 X77.243 Y61.623 E50.41711
G1 X77.043 Y61.423 E50.43828
G1 X76.643 Y61.223 E50.47174
G1 X76.442 Y61.023 E50.49296
G1 X75.648 Y60.626 E50.55940
G1 X75.052 Y60.429 E50.60637
G1 X74.653 Y60.228 E50.63980
G1 X74.053 Y60.028 E50.68713
G1 X73.256 Y59.629 E50.75384
G1 X72.853 Y59.495 E50.78562
G1 X71.264 Y59.098 E50.90819
G1 X70.750 Y58.927 E50.94872
G1 X68.843 Y60.833 E51.15049
G1 X65.848 Y59.593 E51.39308
G1 X65.848 Y66.171 E51.88534
G1 X65.048 Y66.171 E51.94521
G1 X65.048 Y73.671 E52.50648
G1 X66.648 Y73.671 E52.62621
G1 X66.648 Y79.771 E53.08271
G1 X59.048 Y79.771 E53.65146
G1 X59.048 Y110.971 E55.98632
G1 X51.248 Y110.971 E56.57003
G1 X51.248 Y79.771 E58.90490
G1 X43.648 Y79.771 E59.47364
G1 X43.648 Y73.671 E59.93014
G1 X45.248 Y73.671 E60.04988
G1 X45.248 Y66.171 E60.61114
G1 X44.448 Y66.171 E60.67101
G1 X44.448 Y58.731 E61.22778
G1 X41.316 Y60.097 E61.48349
G1 X40.179 Y58.961 E61.60377
G1 X37.378 Y59.662 E61.81985
G1 X36.646 Y60.026 E61.88103
G1 X36.044 Y60.228 E61.92855
G1 X34.441 Y61.029 E62.06265
G1 X34.151 Y61.126 E62.08553
G1 X34.055 Y61.222 E62.09569
G1 X33.653 Y61.423 E62.12933
G1 X33.453 Y61.623 E62.15049
G1 X33.053 Y61.823 E62.18396
G1 X32.853 Y62.023 E62.20513
G1 X32.052 Y62.424 E62.27216
G1 X31.253 Y63.223 E62.35672
G1 X26.048 Y65.835 E62.79254
G1 X26.048 Y62.294 E63.05753
G1 X25.853 Y62.229 E63.07291
G1 X25.453 Y62.028 E63.10641
G1 X24.853 Y61.829 E63.15372
G1 X24.453 Y61.628 E63.18722
G1 X23.852 Y61.429 E63.23460
G1 X23.452 Y61.228 E63.26810
G1 X22.852 Y61.029 E63.31540
G1 X22.452 Y60.828 E63.34890
G1 X21.852 Y60.629 E63.39621
G1 X21.452 Y60.428 E63.42971
G1 X20.852 Y60.229 E63.47702
G1 X20.445 Y60.024 E63.51112
G1 X20.102 Y59.909 E63.53819
G1 X17.243 Y59.338 E63.75637
G1 X16.041 Y59.139 E63.84755
G1 X14.167 Y58.764 E63.99057
G1 X13.099 Y58.771 E64.07050
G1 X8.292 Y58.771 E64.43023
G1 X6.886 Y55.376 E64.70522
G1 X7.848 Y54.413 E64.80709
G1 X7.848 Y53.613 E64.86696
G1 X8.048 Y53.413 E64.88812
G1 X8.048 Y52.613 E64.94799
G1 X8.248 Y52.413 E64.96916
G1 X8.248 Y50.229 E65.13260
G1 X8.048 Y50.029 E65.15376
G1 X8.048 Y49.029 E65.22860
G1 X7.848 Y48.829 E65.24977
G1 X7.848 Y48.029 E65.30963
G1 X7.648 Y47.829 E65.33080
G1 X7.648 Y47.629 E65.34577
G1 X7.448 Y47.429 E65.36693
G1 X7.448 Y47.029 E65.39687
G1 X7.248 Y46.829 E65.41804
G1 X7.248 Y46.429 E65.44797
G1 X7.048 Y46.229 E65.46914
G1 X7.048 Y45.829 E65.49907
G1 X6.848 Y45.629 E65.52024
G1 X6.848 Y45.229 E65.55017
G1 X6.648 Y45.029 E65.57134
G1 X6.648 Y44.829 E65.58630
G1 X6.448 Y44.629 E65.60747
G1 X6.448 Y44.429 E65.62244
G1 X6.248 Y44.229 E65.64360
G1 X6.248 Y44.029 E65.65857
G1 X6.048 Y43.829 E65.67974
G1 X6.048 Y43.629 E65.69471
G1 X5.648 Y43.229 E65.73704
G1 X5.648 Y43.029 E65.75201
G1 X5.448 Y42.829 E65.77317
G1 X5.448 Y42.629 E65.78814
G1 X5.048 Y42.229 E65.83047
G1 X5.048 Y42.028 E65.84551
G1 X4.248 Y41.227 E65.93023
G1 X4.248 Y37.088 E66.23998
G0 F6120 X4.748 Y37.584
G1 F1560 X26.548 Y37.384 E67.87146
G1 X26.548 Y36.584 E67.93132
G1 X48.948 Y36.384 E69.60770
G1 X48.948 Y35.471 E69.67603
G1 X51.748 Y35.271 E69.88610
G1 X51.748 Y18.849 E71.11504
G1 X50.548 Y18.649 E71.20609
G1 X50.548 Y10.088 E71.84675
G1 X51.348 Y9.888 E71.90846
G1 X51.348 Y4.571 E72.30636
G1 X58.948 Y4.571 E72.87511
G1 X58.948 Y9.888 E73.27301
G1 X59.748 Y10.088 E73.33472
G1 X59.748 Y18.649 E73.97538
G1 X58.548 Y18.849 E74.06642
G1 X58.548 Y35.271 E75.29537
G1 X61.348 Y35.471 E75.50544
G1 X61.348 Y36.384 E75.57377
G1 X83.548 Y36.584 E77.23518
G1 X83.548 Y37.183 E77.28001
G1 X105.748 Y37.387 E78.94142
G1 X105.748 Y41.021 E79.21337
G1 X104.948 Y41.823 E79.29814
G1 X104.948 Y43.249 E79.40486
G1 X104.109 Y43.260 E79.46765
G1 X103.948 Y43.421 E79.48469
G1 X103.948 Y43.621 E79.49966
G1 X103.148 Y44.423 E79.58443
G1 X103.148 Y45.022 E79.62926
G1 X102.948 Y45.222 E79.65042
G1 X102.948 Y46.840 E79.77151
G1 X102.521 Y46.849 E79.80347
G1 X102.348 Y47.022 E79.82178
G1 X102.348 Y47.222 E79.83674
G1 X102.148 Y47.422 E79.85791
G1 X102.148 Y47.622 E79.87288
G1 X101.948 Y47.822 E79.89404
G1 X101.948 Y50.241 E80.07507
G1 X101.748 Y50.245 E80.09004
G1 X101.748 Y53.620 E80.34261
G1 X101.948 Y53.820 E80.36378
G1 X101.948 Y54.020 E80.37874
G1 X102.148 Y54.220 E80.39991
G1 X102.148 Y54.420 E80.41488
G1 X104.047 Y56.322 E80.61601
G1 X100.850 Y59.519 E80.95436
G1 X99.412 Y58.085 E81.10634
G1 X97.924 Y58.094 E81.21769
G1 X91.165 Y59.447 E81.73354
G1 X90.153 Y59.616 E81.81032
G1 X89.858 Y59.763 E81.83499
G1 X89.253 Y59.965 E81.88272
G1 X88.851 Y60.166 E81.91636
G1 X88.250 Y60.366 E81.96376
G1 X87.852 Y60.566 E81.99709
G1 X87.250 Y60.766 E82.04456
G1 X86.852 Y60.966 E82.07790
G1 X86.250 Y61.166 E82.12537
G1 X85.852 Y61.366 E82.15870
G1 X85.250 Y61.566 E82.20617
G1 X84.852 Y61.766 E82.23951
G1 X84.250 Y61.965 E82.28696
G1 X83.854 Y62.163 E82.32009
G1 X83.748 Y62.199 E82.32847
G1 X83.748 Y64.938 E82.53344
G1 X79.540 Y62.813 E82.88622
G1 X78.740 Y62.013 E82.97089
G1 X78.339 Y61.812 E83.00446
G1 X77.940 Y61.413 E83.04668
G1 X77.539 Y61.212 E83.08025
G1 X77.340 Y61.013 E83.10131
G1 X76.939 Y60.812 E83.13488
G1 X76.739 Y60.612 E83.15605
G1 X75.843 Y60.164 E83.23101
G1 X75.244 Y59.966 E83.27822
G1 X74.842 Y59.764 E83.31189
G1 X74.245 Y59.565 E83.35899
G1 X73.447 Y59.166 E83.42575
G1 X72.990 Y59.014 E83.46180
G1 X71.403 Y58.618 E83.58420
G1 X70.794 Y58.415 E83.63224
G1 X70.548 Y58.353 E83.65123
G1 X70.548 Y58.422 E83.65639
G1 X68.726 Y60.244 E83.84922
G1 X65.948 Y59.093 E84.07425
G1 X65.948 Y56.620 E84.25932
G1 X66.247 Y56.321 E84.29096
G1 X66.148 Y56.222 E84.30144
G1 X66.148 Y55.822 E84.33137
G1 X65.948 Y55.622 E84.35254
G1 X65.948 Y55.222 E84.38247
G1 X65.748 Y55.022 E84.40364
G1 X65.748 Y54.622 E84.43357
G1 X65.548 Y54.422 E84.45474
G1 X65.548 Y54.022 E84.48467
G1 X65.348 Y53.822 E84.50584
G1 X65.348 Y65.671 E85.39256
G1 X64.548 Y65.671 E85.45243
G1 X64.548 Y74.171 E86.08853
G1 X66.148 Y74.171 E86.20827
G1 X66.148 Y79.271 E86.58993
G1 X58.548 Y79.271 E87.15868
G1 X58.548 Y110.471 E89.49354
G1 X51.748 Y110.471 E90.00242
G1 X51.748 Y79.271 E92.33728
G1 X44.148 Y79.271 E92.90603
G1 X44.148 Y74.171 E93.28769
G1 X45.748 Y74.171 E93.40742
G1 X45.748 Y65.671 E94.04352
G1 X44.948 Y65.671 E94.10339
G1 X44.948 Y54.871 E94.91161
G1 X44.748 Y54.871 E94.92658
G1 X44.748 Y55.263 E94.95592
G1 X44.548 Y55.264 E94.97088
G1 X44.548 Y55.417 E94.98233
G1 X44.608 Y55.563 E94.99415
G1 X44.548 Y55.623 E95.00050
G1 X44.548 Y55.799 E95.01367
G1 X44.362 Y55.809 E95.02761
G1 X44.156 Y56.014 E95.04936
G1 X44.240 Y58.276 E95.21875
G1 X41.428 Y59.503 E95.44835
G1 X40.367 Y58.441 E95.56069
G1 X40.130 Y58.458 E95.57847
G1 X37.201 Y59.191 E95.80442
G1 X36.454 Y59.563 E95.86687
G1 X35.855 Y59.765 E95.91418
G1 X34.250 Y60.566 E96.04842
G1 X33.881 Y60.689 E96.07753
G1 X33.759 Y60.811 E96.09044
G1 X33.356 Y61.013 E96.12417
G1 X33.157 Y61.212 E96.14523
G1 X32.756 Y61.413 E96.17880
G1 X32.557 Y61.612 E96.19986
G1 X31.758 Y62.012 E96.26673
G1 X30.956 Y62.812 E96.35150
G1 X26.548 Y65.025 E96.72061
G1 X26.548 Y61.933 E96.95200
G1 X26.045 Y61.766 E96.99167
G1 X25.648 Y61.566 E97.02493
G1 X25.044 Y61.366 E97.07255
G1 X24.646 Y61.166 E97.10588
G1 X24.044 Y60.966 E97.15335
G1 X23.646 Y60.766 E97.18669
G1 X23.044 Y60.566 E97.23416
G1 X22.646 Y60.366 E97.26749
G1 X22.044 Y60.166 E97.31496
G1 X21.646 Y59.966 E97.34830
G1 X21.044 Y59.766 E97.39577
G1 X20.638 Y59.561 E97.42981
G1 X20.225 Y59.423 E97.46239
G1 X17.354 Y58.850 E97.68148
G1 X16.131 Y58.647 E97.77426
G1 X14.218 Y58.264 E97.92026
G1 X13.098 Y58.271 E98.00408
G1 X8.626 Y58.271 E98.33874
G1 X7.475 Y55.493 E98.56377
G1 X8.348 Y54.619 E98.65622
G1 X8.348 Y53.820 E98.71601
G1 X8.548 Y53.620 E98.73718
G1 X8.548 Y52.820 E98.79704
G1 X8.748 Y52.620 E98.81821
G1 X8.748 Y50.022 E99.01263
G1 X8.548 Y49.822 E99.03380
G1 X8.548 Y48.822 E99.10863
G1 X8.348 Y48.622 E99.12980
G1 X8.348 Y47.822 E99.18967
G1 X8.148 Y47.622 E99.21084
G1 X8.148 Y47.422 E99.22580
G1 X7.948 Y47.222 E99.24697
G1 X7.948 Y46.822 E99.27690
G1 X7.748 Y46.622 E99.29807
G1 X7.748 Y46.222 E99.32800
G1 X7.548 Y46.022 E99.34917
G1 X7.548 Y45.622 E99.37911
G1 X7.348 Y45.422 E99.40027
G1 X7.348 Y45.022 E99.43021
G1 X7.148 Y44.822 E99.45137
G1 X7.148 Y44.622 E99.46634
G1 X6.948 Y44.422 E99.48751
G1 X6.948 Y44.222 E99.50247
G1 X6.748 Y44.022 E99.52364
G1 X6.748 Y43.822 E99.53861
G1 X6.548 Y43.622 E99.55977
G1 X6.548 Y43.421 E99.57482
G1 X6.148 Y43.022 E99.61710
G1 X6.148 Y42.822 E99.63206
G1 X5.948 Y42.622 E99.65323
G1 X5.948 Y42.421 E99.66827
G1 X5.548 Y42.022 E99.71055
G1 X5.548 Y41.822 E99.72552
G1 X4.748 Y41.020 E99.81029
G1 X4.748 Y37.584 E100.06743
G0 F6120 X5.248 Y38.079
G1 F1560 X27.048 Y37.879 E101.69890
G1 X27.048 Y37.079 E101.75877
G1 X49.448 Y36.879 E103.43515
G1 X49.448 Y35.936 E103.50572
G1 X52.248 Y35.737 E103.71579
G1 X52.248 Y18.426 E105.01126
G1 X51.048 Y18.226 E105.10230
G1 X51.048 Y10.479 E105.68205
G1 X51.848 Y10.278 E105.74378
G1 X51.848 Y5.071 E106.13345
G1 X58.448 Y5.071 E106.62736
G1 X58.448 Y10.278 E107.01703
G1 X59.248 Y10.479 E107.07876
G1 X59.248 Y18.226 E107.65851
G1 X58.048 Y18.426 E107.74955
G1 X58.048 Y35.737 E109.04502
G1 X60.848 Y35.936 E109.25509
