;Generated with Cura_SteamEngine 15.05
; Default start code
G28 ; Home extruder
G1 Z15 F100
M107 ; Turn off fan
G90 ; Absolute positioning
M82 ; Extruder in absolute mode
; Activate all used extruder
M104 T0 S195
G92 E0 ; Reset extruder position
; Wait for all used extruders to reach temperature
M109 T0 S195
;Layer count: 32
;LAYER:0
M107
G0 F6120 X26.693 Y19.699 Z0.360
;TYPE:SKIRT
G1 F1560 X27.394 Y18.808 E0.08484
G1 X28.014 Y18.200 E0.14983
G1 X28.739 Y17.613 E0.21964
G1 X29.219 Y17.285 E0.26314
G1 X29.851 Y16.913 E0.31802
G1 X30.498 Y16.588 E0.37221
G1 X31.157 Y16.303 E0.42594
G1 X31.829 Y16.060 E0.47941
G1 X32.512 Y15.853 E0.53282
G1 X33.187 Y15.689 E0.58481
G1 X33.844 Y15.561 E0.63490
G1 X34.490 Y15.472 E0.68370
G1 X35.122 Y15.418 E0.73116
G1 X35.165 Y15.421 E0.73439
G1 X35.305 Y15.411 E0.74489
G1 X35.356 Y15.415 E0.74872
G1 X35.485 Y15.409 E0.75839
G1 X35.546 Y15.413 E0.76296
G1 X35.635 Y15.412 E0.76962
G1 X36.742 Y15.462 E0.85255
G1 X37.528 Y15.562 E0.91184
G1 X38.277 Y15.707 E0.96894
G1 X39.020 Y15.909 E1.02656
G1 X39.737 Y16.167 E1.08358
G1 X40.424 Y16.477 E1.13999
G1 X41.025 Y16.809 E1.19137
G1 X41.404 Y17.033 E1.22431
G1 X41.505 Y17.108 E1.23373
G1 X42.161 Y17.561 E1.29339
G1 X42.941 Y18.219 E1.36976
G1 X43.636 Y18.928 E1.44405
G1 X44.085 Y19.465 E1.49644
G1 X44.498 Y20.021 E1.54827
G1 X44.994 Y20.778 E1.61600
G1 X45.304 Y21.331 E1.66344
G1 X45.373 Y21.329 E1.66860
G1 X46.292 Y21.372 E1.73745
G1 X47.222 Y21.499 E1.80770
G1 X48.139 Y21.709 E1.87810
G1 X49.037 Y21.997 E1.94867
G1 X49.155 Y22.046 E1.95823
G1 X49.576 Y21.666 E2.00067
G1 X50.260 Y21.222 E2.06170
G1 X50.963 Y20.894 E2.11975
G1 X51.656 Y20.687 E2.17388
G1 X52.290 Y20.560 E2.22227
G1 X52.387 Y20.560 E2.22953
G1 X52.427 Y20.554 E2.23255
G1 X52.951 Y20.514 E2.27188
G1 X53.043 Y20.520 E2.27878
G1 X53.278 Y20.513 E2.29637
G1 X54.056 Y20.590 E2.35488
G1 X54.171 Y20.406 E2.37112
G1 X54.785 Y19.685 E2.44199
G1 X55.384 Y19.187 E2.50028
G1 X56.176 Y18.754 E2.56783
G1 X56.816 Y18.543 E2.61826
G1 X57.210 Y18.466 E2.64831
G1 X57.740 Y18.398 E2.68829
G1 X57.863 Y18.408 E2.69753
G1 X57.988 Y18.400 E2.70690
G1 X59.016 Y18.504 E2.78423
G1 X59.645 Y18.686 E2.83323
G1 X60.027 Y18.822 E2.86357
G1 X60.635 Y19.129 E2.91454
G1 X61.309 Y19.596 E2.97591
G1 X61.753 Y20.018 E3.02175
G1 X62.083 Y20.379 E3.05835
G1 X62.118 Y20.431 E3.06304
G1 X62.172 Y20.494 E3.06925
G1 X62.689 Y21.236 E3.13693
G1 X62.838 Y21.523 E3.16113
G1 X62.953 Y21.495 E3.16998
G1 X63.251 Y21.443 E3.19262
G1 X63.565 Y21.400 E3.21634
G1 X64.190 Y21.355 E3.26323
G1 X64.286 Y21.361 E3.27043
G1 X64.386 Y21.359 E3.27792
G1 X65.296 Y21.401 E3.34609
G1 X66.179 Y21.523 E3.41280
G1 X66.580 Y21.602 E3.44338
G1 X67.448 Y21.828 E3.51050
G1 X68.154 Y22.079 E3.56658
G1 X68.801 Y21.541 E3.62955
G1 X69.311 Y21.230 E3.67425
G1 X69.998 Y20.920 E3.73066
G1 X70.655 Y20.721 E3.78203
G1 X71.078 Y20.636 E3.81432
G1 X71.451 Y20.586 E3.84248
G1 X71.935 Y20.549 E3.87881
G1 X72.025 Y20.553 E3.88555
G1 X72.280 Y20.546 E3.90464
G1 X73.178 Y20.635 E3.97217
G1 X73.831 Y20.814 E4.02284
G1 X74.278 Y20.982 E4.05857
G1 X74.955 Y21.346 E4.11610
G1 X75.737 Y21.970 E4.19097
G1 X76.343 Y22.718 E4.26301
G1 X76.839 Y23.539 E4.33479
G1 X77.221 Y24.399 E4.40521
G1 X77.491 Y25.264 E4.47302
G1 X77.703 Y26.231 E4.54711
G1 X77.705 Y26.272 E4.55018
G1 X77.732 Y26.404 E4.56026
G1 X77.735 Y26.461 E4.56453
G1 X77.797 Y26.875 E4.59586
G1 X77.797 Y26.919 E4.59915
G1 X77.813 Y27.039 E4.60821
G1 X77.859 Y27.496 E4.64259
G1 X77.856 Y27.538 E4.64574
G1 X77.866 Y27.648 E4.65400
G1 X77.904 Y28.464 E4.71514
G1 X77.926 Y29.225 E4.77211
G1 X77.923 Y29.286 E4.77668
G1 X77.928 Y29.599 E4.80011
G1 X77.922 Y30.303 E4.85279
G1 X77.909 Y30.995 E4.90459
G1 X77.887 Y31.696 E4.95707
G1 X77.859 Y32.403 E5.01002
G1 X77.829 Y32.953 E5.05124
G1 X77.766 Y33.875 E5.12040
G1 X77.712 Y34.450 E5.16362
G1 X77.607 Y35.376 E5.23336
G1 X77.505 Y36.135 E5.29067
G1 X77.380 Y36.901 E5.34876
G1 X77.234 Y37.658 E5.40645
G1 X77.068 Y38.408 E5.46394
G1 X76.877 Y39.164 E5.52229
G1 X76.655 Y39.929 E5.58190
G1 X76.398 Y40.688 E5.64187
G1 X76.111 Y41.431 E5.70147
G1 X75.793 Y42.150 E5.76031
G1 X75.482 Y42.789 E5.81349
G1 X75.021 Y43.560 E5.88072
G1 X74.569 Y44.158 E5.93681
G1 X74.453 Y44.313 E5.95130
G1 X73.837 Y44.961 E6.01821
G1 X73.199 Y45.521 E6.08174
G1 X72.547 Y46.006 E6.14255
G1 X72.316 Y46.154 E6.16308
G1 X72.220 Y46.226 E6.17206
G1 X71.427 Y46.668 E6.24000
G1 X70.660 Y47.017 E6.30306
G1 X69.860 Y47.302 E6.36662
G1 X69.050 Y47.512 E6.42924
G1 X68.254 Y47.658 E6.48980
G1 X67.458 Y47.745 E6.54972
G1 X66.627 Y47.774 E6.61195
G1 X65.716 Y47.721 E6.68024
G1 X64.963 Y47.613 E6.73717
G1 X64.269 Y47.463 E6.79030
G1 X63.664 Y47.295 E6.83729
G1 X63.617 Y47.437 E6.84848
G1 X62.983 Y48.396 E6.93452
G1 X62.114 Y49.150 E7.02061
G1 X61.028 Y49.673 E7.11082
G1 X60.154 Y49.909 E7.17857
G1 X59.492 Y49.991 E7.22849
G1 X58.928 Y50.008 E7.27071
G1 X57.950 Y49.909 E7.34428
G1 X57.080 Y49.693 E7.41136
G1 X56.227 Y49.353 E7.48008
G1 X55.422 Y48.882 E7.54987
G1 X54.701 Y48.276 E7.62036
G1 X54.187 Y47.686 E7.67892
G1 X53.655 Y46.829 E7.75440
G1 X53.408 Y46.180 E7.80637
G1 X53.383 Y46.086 E7.81365
G1 X53.115 Y46.255 E7.83736
G1 X52.633 Y46.524 E7.87867
G1 X52.504 Y46.606 E7.89011
G1 X51.677 Y46.980 E7.95803
G1 X51.050 Y47.210 E8.00801
G1 X50.259 Y47.435 E8.06955
G1 X49.459 Y47.596 E8.13062
G1 X48.667 Y47.698 E8.19038
G1 X47.908 Y47.739 E8.24726
G1 X47.600 Y47.742 E8.27031
G1 X47.583 Y47.813 E8.27578
G1 X47.301 Y48.660 E8.34258
G1 X46.898 Y49.502 E8.41244
G1 X46.476 Y50.135 E8.46937
G1 X45.938 Y50.713 E8.52846
G1 X45.328 Y51.172 E8.58559
G1 X44.469 Y51.578 E8.65669
G1 X43.575 Y51.752 E8.72485
G1 X43.207 Y51.757 E8.75239
G1 X43.232 Y51.779 E8.75489
G1 X43.405 Y51.909 E8.77108
G1 X43.679 Y52.151 E8.79844
G1 X44.163 Y52.645 E8.85019
G1 X44.207 Y52.714 E8.85632
G1 X44.281 Y52.796 E8.86458
G1 X44.353 Y52.910 E8.87467
G1 X44.596 Y53.223 E8.90433
G1 X45.057 Y53.991 E8.97136
G1 X45.105 Y54.097 E8.98007
G1 X45.217 Y54.058 E8.98894
G1 X45.996 Y53.861 E9.04908
G1 X46.749 Y53.738 E9.10617
G1 X47.344 Y53.678 E9.15093
G1 X47.425 Y53.681 E9.15699
G1 X47.673 Y53.665 E9.17559
G1 X47.777 Y53.670 E9.18338
G1 X48.053 Y53.664 E9.20404
G1 X48.854 Y53.714 E9.26410
G1 X49.663 Y53.845 E9.32543
G1 X50.484 Y54.058 E9.38891
G1 X51.280 Y54.338 E9.45205
G1 X52.013 Y54.654 E9.51179
G1 X52.466 Y54.870 E9.54934
G1 X52.542 Y54.921 E9.55619
G1 X53.035 Y55.185 E9.59804
G1 X53.056 Y55.198 E9.59989
G1 X53.123 Y55.136 E9.60672
G1 X54.008 Y54.551 E9.68611
G1 X54.910 Y54.218 E9.75807
G1 X55.448 Y54.116 E9.79905
G1 X55.983 Y54.052 E9.83937
G1 X56.037 Y54.057 E9.84343
G1 X56.110 Y54.050 E9.84892
G1 X56.235 Y54.061 E9.85831
G1 X56.292 Y54.060 E9.86257
G1 X57.004 Y54.118 E9.91603
G1 X57.695 Y54.259 E9.96881
G1 X57.872 Y54.333 E9.98317
G1 X58.323 Y54.479 E10.01864
G1 X58.444 Y54.556 E10.02937
G1 X58.522 Y54.588 E10.03568
G1 X59.386 Y55.138 E10.11233
G1 X60.178 Y55.921 E10.19567
G1 X60.312 Y56.131 E10.21432
G1 X60.469 Y55.890 E10.23584
G1 X61.151 Y55.122 E10.31271
G1 X61.776 Y54.635 E10.37200
G1 X62.604 Y54.186 E10.44249
G1 X63.440 Y53.941 E10.50768
G1 X64.159 Y53.827 E10.56216
G1 X64.253 Y53.835 E10.56922
G1 X64.360 Y53.824 E10.57727
G1 X64.484 Y53.835 E10.58659
G1 X64.600 Y53.831 E10.59527
G1 X65.500 Y53.919 E10.66294
G1 X66.005 Y54.030 E10.70164
G1 X66.625 Y54.244 E10.75072
G1 X67.214 Y54.521 E10.79943
G1 X67.392 Y54.654 E10.81606
G1 X67.768 Y54.894 E10.84944
G1 X68.017 Y55.121 E10.87466
G1 X68.588 Y54.500 E10.93779
G1 X69.466 Y53.913 E11.01683
G1 X70.176 Y53.630 E11.07402
G1 X70.610 Y53.517 E11.10759
G1 X70.971 Y53.454 E11.13501
G1 X71.505 Y53.399 E11.17518
G1 X71.610 Y53.408 E11.18307
G1 X71.783 Y53.400 E11.19603
G1 X72.660 Y53.507 E11.26215
G1 X73.293 Y53.714 E11.31199
G1 X73.717 Y53.901 E11.34667
G1 X74.189 Y54.189 E11.38804
G1 X74.531 Y54.439 E11.41975
G1 X74.995 Y54.876 E11.46745
G1 X75.584 Y55.615 E11.53817
G1 X75.727 Y55.446 E11.55473
G1 X76.347 Y54.921 E11.61553
G1 X77.188 Y54.461 E11.68727
G1 X77.900 Y54.246 E11.74293
G1 X78.373 Y54.165 E11.77884
G1 X79.041 Y54.123 E11.82893
G1 X79.081 Y54.127 E11.83194
G1 X79.467 Y53.510 E11.88640
G1 X80.280 Y52.598 E11.97783
G1 X81.147 Y52.032 E12.05532
G1 X81.752 Y51.784 E12.10425
G1 X82.143 Y51.670 E12.13473
G1 X82.554 Y51.589 E12.16607
G1 X83.273 Y51.528 E12.22007
G1 X84.530 Y51.693 E12.31495
G1 X85.275 Y51.945 E12.37381
G1 X85.798 Y52.207 E12.41758
G1 X86.177 Y52.429 E12.45045
G1 X86.894 Y52.999 E12.51900
G1 X87.075 Y53.213 E12.53997
G1 X87.418 Y53.588 E12.57800
G1 X87.766 Y54.086 E12.62347
G1 X88.207 Y53.947 E12.65807
G1 X89.218 Y53.749 E12.73517
G1 X89.689 Y53.701 E12.77060
G1 X90.148 Y53.674 E12.80501
G1 X90.249 Y53.676 E12.81257
G1 X90.504 Y53.670 E12.83165
G1 X91.306 Y53.705 E12.89173
G1 X92.116 Y53.807 E12.95283
G1 X92.916 Y53.979 E13.01406
G1 X93.700 Y54.227 E13.07560
G1 X94.454 Y54.548 E13.13692
G1 X94.823 Y54.749 E13.16837
G1 X95.135 Y54.582 E13.19485
G1 X95.930 Y54.329 E13.25729
G1 X96.547 Y54.235 E13.30399
G1 X97.122 Y54.209 E13.34707
G1 X97.978 Y54.276 E13.41132
G1 X98.948 Y54.538 E13.48651
G1 X99.606 Y54.847 E13.54091
G1 X100.160 Y55.196 E13.58991
G1 X100.664 Y55.621 E13.63925
G1 X100.751 Y55.482 E13.65152
G1 X101.272 Y54.829 E13.71404
G1 X102.023 Y54.235 E13.78569
G1 X102.709 Y53.892 E13.84309
G1 X103.375 Y53.687 E13.89524
G1 X103.990 Y53.603 E13.94169
G1 X104.480 Y53.592 E13.97837
G1 X105.361 Y53.688 E14.04469
G1 X106.079 Y53.892 E14.10055
G1 X106.767 Y54.193 E14.15675
G1 X107.596 Y54.729 E14.23062
G1 X108.101 Y55.203 E14.28245
G1 X108.390 Y55.021 E14.30801
G1 X109.096 Y54.658 E14.36742
G1 X109.845 Y54.354 E14.42791
G1 X110.620 Y54.121 E14.48847
G1 X111.404 Y53.961 E14.54835
G1 X112.198 Y53.867 E14.60819
G1 X113.036 Y53.836 E14.67094
G1 X113.880 Y53.890 E14.73423
G1 X114.683 Y54.023 E14.79514
G1 X115.496 Y54.236 E14.85804
G1 X116.291 Y54.515 E14.92109
G1 X117.066 Y54.852 E14.98433
G1 X117.807 Y55.230 E15.04659
G1 X118.522 Y55.654 E15.10879
G1 X119.212 Y56.123 E15.17123
G1 X119.887 Y56.642 E15.23495
G1 X120.532 Y57.214 E15.29946
G1 X121.135 Y57.831 E15.36403
G1 X121.687 Y58.490 E15.42836
G1 X122.207 Y59.214 E15.49506
G1 X122.664 Y60.004 E15.56336
G1 X122.962 Y60.667 E15.61776
G1 X123.229 Y61.502 E15.68337
G1 X123.320 Y61.907 E15.71443
G1 X123.395 Y62.361 E15.74887
G1 X123.398 Y62.432 E15.75418
G1 X123.414 Y62.558 E15.76369
G1 X123.445 Y63.014 E15.79789
G1 X123.441 Y63.096 E15.80404
G1 X123.449 Y63.347 E15.82283
G1 X123.373 Y64.078 E15.87783
G1 X123.252 Y64.626 E15.91983
G1 X123.175 Y64.811 E15.93482
G1 X123.025 Y65.249 E15.96947
G1 X122.856 Y65.515 E15.99305
G1 X122.544 Y66.055 E16.03972
G1 X121.718 Y66.923 E16.12939
G1 X121.057 Y67.335 E16.18768
G1 X121.187 Y67.563 E16.20732
G1 X121.513 Y68.252 E16.26436
G1 X121.851 Y69.147 E16.33596
G1 X122.061 Y69.909 E16.39511
G1 X122.235 Y70.854 E16.46702
G1 X122.307 Y71.617 E16.52437
G1 X122.325 Y72.336 E16.57819
G1 X122.282 Y73.138 E16.63830
G1 X122.162 Y73.958 E16.70032
G1 X122.007 Y74.603 E16.74996
G1 X121.737 Y75.395 E16.81258
G1 X121.379 Y76.161 E16.87585
G1 X120.880 Y76.996 E16.94865
G1 X120.372 Y77.671 E17.01187
G1 X119.737 Y78.358 E17.08188
G1 X119.292 Y78.761 E17.12681
G1 X118.655 Y79.251 E17.18695
G1 X117.830 Y79.760 E17.25949
G1 X117.101 Y80.113 E17.32011
G1 X116.366 Y80.393 E17.37897
G1 X115.617 Y80.611 E17.43735
G1 X114.864 Y80.764 E17.49485
G1 X114.317 Y80.835 E17.53613
G1 X113.693 Y80.881 E17.58295
G1 X113.637 Y80.879 E17.58714
G1 X113.410 Y80.890 E17.60415
G1 X113.347 Y80.885 E17.60888
G1 X113.257 Y80.887 E17.61562
G1 X112.422 Y80.849 E17.67817
G1 X111.907 Y80.791 E17.71695
G1 X111.067 Y80.637 E17.78086
G1 X110.247 Y80.403 E17.84468
G1 X109.791 Y80.233 E17.88110
G1 X109.342 Y80.041 E17.91764
G1 X108.587 Y79.643 E17.98151
G1 X108.313 Y79.461 E18.00613
G1 X107.618 Y79.876 E18.06670
G1 X106.527 Y80.280 E18.15377
G1 X105.748 Y80.449 E18.21342
G1 X105.233 Y80.524 E18.25237
G1 X105.145 Y80.527 E18.25896
G1 X104.951 Y80.548 E18.27356
G1 X104.468 Y80.574 E18.30976
G1 X104.396 Y80.572 E18.31515
G1 X104.153 Y80.578 E18.33334
G1 X103.378 Y80.546 E18.39139
G1 X102.626 Y80.459 E18.44804
G1 X101.775 Y80.293 E18.51292
G1 X101.680 Y80.250 E18.52073
G1 X101.629 Y80.237 E18.52466
G1 X100.864 Y79.980 E18.58506
G1 X100.348 Y79.761 E18.62701
G1 X100.303 Y79.738 E18.63079
G1 X99.990 Y80.036 E18.66313
G1 X99.189 Y80.534 E18.73371
G1 X98.827 Y80.687 E18.76312
G1 X98.599 Y80.771 E18.78131
G1 X98.342 Y80.849 E18.80141
G1 X98.081 Y80.911 E18.82148
G1 X97.811 Y80.958 E18.84199
G1 X97.435 Y80.997 E18.87028
G1 X97.003 Y81.009 E18.90262
G1 X95.784 Y80.867 E18.99446
G1 X94.665 Y80.453 E19.08375
G1 X94.304 Y80.213 E19.11619
G1 X93.890 Y80.380 E19.14960
G1 X93.067 Y80.617 E19.21369
G1 X92.221 Y80.770 E19.27803
G1 X91.397 Y80.839 E19.33991
G1 X90.900 Y80.846 E19.37711
G1 X90.074 Y80.810 E19.43898
G1 X89.222 Y80.698 E19.50329
G1 X88.833 Y80.610 E19.53313
G1 X88.540 Y81.161 E19.57984
G1 X87.978 Y81.801 E19.64358
G1 X87.299 Y82.337 E19.70831
G1 X86.178 Y82.852 E19.80063
G1 X85.407 Y83.049 E19.86018
G1 X84.759 Y83.129 E19.90905
G1 X84.199 Y83.143 E19.95097
G1 X83.221 Y83.046 E20.02451
G1 X82.296 Y82.811 E20.09594
G1 X81.260 Y82.372 E20.18014
G1 X80.307 Y81.725 E20.26634
G1 X79.508 Y80.894 E20.35261
G1 X79.389 Y80.704 E20.36939
G1 X78.795 Y80.731 E20.41389
G1 X78.765 Y80.730 E20.41613
G1 X78.610 Y80.744 E20.42778
G1 X77.518 Y80.616 E20.51006
G1 X76.771 Y80.431 E20.56765
G1 X75.874 Y80.080 E20.63973
G1 X75.042 Y79.639 E20.71020
G1 X74.767 Y79.453 E20.73505
G1 X74.298 Y79.870 E20.78201
G1 X73.394 Y80.459 E20.86276
G1 X72.404 Y80.846 E20.94230
G1 X71.468 Y81.010 E21.01341
G1 X70.848 Y81.031 E21.05984
G1 X69.896 Y80.955 E21.13131
G1 X68.910 Y80.733 E21.20694
G1 X67.998 Y80.394 E21.27976
G1 X67.170 Y79.981 E21.34900
G1 X66.941 Y79.836 E21.36928
G1 X66.603 Y80.042 E21.39891
G1 X65.557 Y80.412 E21.48194
G1 X64.696 Y80.543 E21.54711
G1 X63.956 Y80.568 E21.60252
G1 X62.754 Y80.395 E21.69340
G1 X61.595 Y79.864 E21.78880
G1 X61.089 Y79.474 E21.83661
G1 X60.584 Y79.353 E21.87547
G1 X59.814 Y79.061 E21.93710
G1 X59.494 Y78.901 E21.96388
G1 X59.196 Y79.188 E21.99484
G1 X58.576 Y79.605 E22.05075
G1 X57.980 Y79.896 E22.10039
G1 X57.230 Y80.120 E22.15896
G1 X56.525 Y80.207 E22.21212
G1 X56.077 Y80.212 E22.24565
G1 X55.089 Y80.120 E22.31991
G1 X54.328 Y79.934 E22.37853
G1 X53.512 Y79.596 E22.44463
G1 X53.163 Y79.385 E22.47515
G1 X52.844 Y79.582 E22.50321
G1 X52.117 Y79.934 E22.56366
G1 X51.387 Y80.214 E22.62217
G1 X50.632 Y80.435 E22.68104
G1 X49.859 Y80.591 E22.74005
G1 X49.083 Y80.683 E22.79853
G1 X48.292 Y80.713 E22.85777
G1 X47.402 Y80.672 E22.92444
G1 X46.521 Y80.555 E22.99095
G1 X45.653 Y80.353 E23.05764
G1 X45.579 Y80.328 E23.06349
G1 X45.549 Y80.380 E23.06798
G1 X45.001 Y81.117 E23.13671
G1 X44.292 Y81.853 E23.21319
G1 X43.343 Y82.513 E23.29969
G1 X42.372 Y82.918 E23.37843
G1 X41.301 Y83.125 E23.46006
G1 X40.563 Y83.154 E23.51533
G1 X39.458 Y83.066 E23.59828
G1 X38.295 Y82.756 E23.68836
G1 X37.272 Y82.220 E23.77478
G1 X36.280 Y81.318 E23.87512
G1 X35.964 Y80.866 E23.91639
G1 X35.895 Y80.978 E23.92624
G1 X35.484 Y81.516 E23.97690
G1 X34.830 Y82.194 E24.04740
G1 X34.158 Y82.696 E24.11017
G1 X33.410 Y83.096 E24.17365
G1 X32.442 Y83.425 E24.25016
G1 X31.644 Y83.573 E24.31090
G1 X30.962 Y83.627 E24.36209
G1 X30.462 Y83.636 E24.39952
G1 X29.382 Y83.530 E24.48073
G1 X28.429 Y83.245 E24.55517
G1 X27.724 Y82.893 E24.61414
G1 X27.080 Y82.439 E24.67310
G1 X26.439 Y81.780 E24.74190
G1 X25.860 Y80.955 E24.81733
G1 X25.392 Y79.979 E24.89833
G1 X25.208 Y79.425 E24.94202
G1 X25.014 Y78.655 E25.00144
G1 X25.007 Y78.564 E25.00827
G1 X24.954 Y78.305 E25.02805
G1 X24.950 Y78.254 E25.03188
G1 X24.949 Y78.248 E25.03234
G1 X24.870 Y77.683 E25.07503
G1 X24.870 Y77.640 E25.07825
G1 X24.820 Y77.059 E25.12189
G1 X24.825 Y76.991 E25.12699
G1 X24.816 Y76.821 E25.13973
G1 X24.818 Y76.649 E25.15260
G1 X24.800 Y75.979 E25.20276
G1 X24.543 Y75.971 E25.22200
G1 X23.723 Y75.898 E25.28361
G1 X22.903 Y75.777 E25.34564
G1 X22.084 Y75.609 E25.40821
G1 X21.252 Y75.389 E25.47261
G1 X20.429 Y75.111 E25.53762
G1 X19.632 Y74.778 E25.60226
G1 X18.862 Y74.390 E25.66678
G1 X18.110 Y73.937 E25.73248
