;Generated with Cura_SteamEngine 15.05
; Default start code
G28 ; Home extruder
G1 Z15 F100
M107 ; Turn off fan
G90 ; Absolute positioning
M82 ; Extruder in absolute mode
; Activate all used extruder
M104 T0 S195
G92 E0 ; Reset extruder position
; Wait for all used extruders to reach temperature
M109 T0 S195
;Layer count: 32
;LAYER:0
M107
G0 F6120 X18.159 Y18.112 Z0.360
;TYPE:SKIRT
G1 F1560 X19.077 Y17.373 E0.08819
G1 X19.737 Y17.017 E0.14431
G1 X20.558 Y16.726 E0.20950
G1 X21.129 Y16.610 E0.25310
G1 X21.809 Y16.533 E0.30431
G1 X21.909 Y16.541 E0.31182
G1 X22.013 Y16.535 E0.31962
G1 X22.072 Y16.540 E0.32405
G1 X22.177 Y16.537 E0.33191
G1 X23.090 Y16.612 E0.40046
G1 X23.603 Y16.714 E0.43961
G1 X24.382 Y16.952 E0.50056
G1 X24.524 Y17.028 E0.51261
G1 X24.790 Y17.135 E0.53407
G1 X25.993 Y17.916 E0.64141
G1 X26.228 Y18.195 E0.66870
G1 X26.580 Y18.548 E0.70601
G1 X26.700 Y18.728 E0.72220
G1 X26.843 Y18.913 E0.73970
G1 X27.373 Y18.176 E0.80763
G1 X28.244 Y17.353 E0.89731
G1 X29.289 Y16.698 E0.98960
G1 X30.272 Y16.334 E1.06805
G1 X30.797 Y16.217 E1.10830
G1 X31.082 Y16.174 E1.12987
G1 X31.676 Y16.111 E1.17457
G1 X31.760 Y16.119 E1.18089
G1 X31.853 Y16.113 E1.18786
G1 X31.936 Y16.120 E1.19409
G1 X31.953 Y16.120 E1.19537
G1 X32.332 Y16.136 E1.22375
G1 X33.292 Y16.260 E1.29619
G1 X33.507 Y16.358 E1.31388
G1 X34.033 Y16.542 E1.35558
G1 X34.890 Y17.004 E1.42844
G1 X35.078 Y17.171 E1.44726
G1 X35.316 Y17.350 E1.46954
G1 X35.991 Y18.009 E1.54014
G1 X36.047 Y18.097 E1.54794
G1 X36.122 Y18.179 E1.55626
G1 X36.206 Y18.311 E1.56797
G1 X36.443 Y18.618 E1.59699
G1 X36.901 Y19.379 E1.66346
G1 X36.951 Y19.489 E1.67250
G1 X37.062 Y19.450 E1.68131
G1 X37.843 Y19.253 E1.74158
G1 X38.600 Y19.130 E1.79898
G1 X39.196 Y19.071 E1.84380
G1 X39.273 Y19.074 E1.84956
G1 X39.520 Y19.058 E1.86809
G1 X39.624 Y19.063 E1.87588
G1 X39.895 Y19.057 E1.89616
G1 X40.700 Y19.106 E1.95652
G1 X41.512 Y19.239 E2.01809
G1 X42.329 Y19.450 E2.08124
G1 X43.127 Y19.731 E2.14455
G1 X43.860 Y20.048 E2.20432
G1 X44.312 Y20.263 E2.24177
G1 X44.390 Y20.315 E2.24879
G1 X44.882 Y20.578 E2.29054
G1 X44.902 Y20.590 E2.29229
G1 X44.963 Y20.534 E2.29848
G1 X45.723 Y20.028 E2.36681
G1 X46.178 Y19.811 E2.40453
G1 X46.806 Y19.602 E2.45406
G1 X47.294 Y19.509 E2.49124
G1 X47.829 Y19.445 E2.53156
G1 X47.883 Y19.450 E2.53562
G1 X47.956 Y19.443 E2.54111
G1 X48.058 Y19.452 E2.54877
G1 X48.122 Y19.450 E2.55356
G1 X48.853 Y19.511 E2.60846
G1 X49.540 Y19.651 E2.66093
G1 X49.720 Y19.726 E2.67552
G1 X50.170 Y19.872 E2.71092
G1 X50.288 Y19.947 E2.72139
G1 X50.339 Y19.968 E2.72552
G1 X51.091 Y20.427 E2.79145
G1 X51.698 Y20.986 E2.85320
G1 X52.050 Y21.355 E2.89136
G1 X52.158 Y21.524 E2.90637
G1 X52.313 Y21.285 E2.92769
G1 X52.993 Y20.519 E3.00434
G1 X53.620 Y20.027 E3.06399
G1 X54.451 Y19.580 E3.13460
G1 X55.295 Y19.330 E3.20047
G1 X56.017 Y19.221 E3.25512
G1 X56.099 Y19.228 E3.26128
G1 X56.206 Y19.217 E3.26932
G1 X56.330 Y19.228 E3.27864
G1 X56.448 Y19.224 E3.28748
G1 X57.347 Y19.312 E3.35508
G1 X57.909 Y19.436 E3.39814
G1 X58.967 Y19.844 E3.48300
G1 X59.268 Y20.070 E3.51117
G1 X59.803 Y20.430 E3.55943
G1 X59.875 Y20.501 E3.56700
G1 X60.180 Y20.146 E3.60202
G1 X60.805 Y19.612 E3.66354
G1 X61.683 Y19.139 E3.73817
G1 X62.388 Y18.922 E3.79337
G1 X62.819 Y18.846 E3.82613
G1 X63.354 Y18.792 E3.86637
G1 X63.457 Y18.801 E3.87410
G1 X63.629 Y18.793 E3.88699
G1 X64.549 Y18.906 E3.95636
G1 X65.504 Y19.245 E4.03219
G1 X66.316 Y19.773 E4.10468
G1 X66.845 Y20.273 E4.15915
G1 X67.427 Y21.005 E4.22913
G1 X67.524 Y20.881 E4.24091
G1 X68.191 Y20.315 E4.30638
G1 X69.039 Y19.850 E4.37875
G1 X69.752 Y19.639 E4.43440
G1 X70.156 Y19.569 E4.46508
G1 X70.690 Y19.515 E4.50525
G1 X70.802 Y19.525 E4.51366
G1 X70.925 Y19.520 E4.52288
G1 X70.927 Y19.520 E4.52302
G1 X71.411 Y18.769 E4.58989
G1 X72.176 Y17.959 E4.67326
G1 X72.992 Y17.427 E4.74616
G1 X73.595 Y17.178 E4.79498
G1 X73.989 Y17.063 E4.82570
G1 X74.400 Y16.982 E4.85705
G1 X75.116 Y16.921 E4.91082
G1 X76.381 Y17.085 E5.00628
G1 X77.131 Y17.341 E5.06559
G1 X77.646 Y17.601 E5.10876
G1 X78.020 Y17.820 E5.14120
G1 X78.738 Y18.389 E5.20975
G1 X78.863 Y18.537 E5.22425
G1 X78.925 Y18.598 E5.23076
G1 X79.285 Y19.012 E5.27182
G1 X79.612 Y19.479 E5.31448
G1 X80.051 Y19.341 E5.34892
G1 X81.068 Y19.140 E5.42650
G1 X81.542 Y19.093 E5.46214
G1 X81.996 Y19.067 E5.49618
G1 X82.096 Y19.069 E5.50366
G1 X82.350 Y19.063 E5.52267
G1 X83.150 Y19.098 E5.58260
G1 X83.963 Y19.199 E5.64391
G1 X84.765 Y19.373 E5.70532
G1 X85.546 Y19.620 E5.76662
G1 X86.300 Y19.941 E5.82795
G1 X86.664 Y20.140 E5.85899
G1 X87.212 Y19.888 E5.90413
G1 X87.833 Y19.713 E5.95241
G1 X88.394 Y19.628 E5.99488
G1 X88.968 Y19.602 E6.03788
G1 X89.821 Y19.669 E6.10191
G1 X90.865 Y19.948 E6.18278
G1 X91.700 Y20.389 E6.25344
G1 X92.043 Y20.621 E6.28443
G1 X92.515 Y21.017 E6.33054
G1 X92.705 Y20.692 E6.35871
G1 X93.569 Y19.815 E6.45084
G1 X94.489 Y19.305 E6.52956
G1 X95.221 Y19.080 E6.58687
G1 X95.836 Y18.996 E6.63332
G1 X96.326 Y18.985 E6.67000
G1 X97.207 Y19.081 E6.73632
G1 X97.934 Y19.288 E6.79289
G1 X98.635 Y19.599 E6.85028
G1 X99.444 Y20.124 E6.92245
G1 X99.948 Y20.596 E6.97413
G1 X100.284 Y20.386 E7.00378
G1 X100.996 Y20.027 E7.06345
G1 X101.742 Y19.730 E7.12354
G1 X102.517 Y19.502 E7.18399
G1 X103.301 Y19.346 E7.24382
G1 X104.092 Y19.256 E7.30339
G1 X104.884 Y19.230 E7.36269
G1 X105.726 Y19.282 E7.42583
G1 X106.532 Y19.417 E7.48698
G1 X107.342 Y19.629 E7.54964
G1 X108.137 Y19.908 E7.61269
G1 X108.909 Y20.243 E7.67567
G1 X109.653 Y20.622 E7.73816
G1 X110.372 Y21.049 E7.80074
G1 X111.058 Y21.516 E7.86284
G1 X111.733 Y22.034 E7.92651
G1 X112.379 Y22.608 E7.99118
G1 X112.981 Y23.224 E8.05564
G1 X113.533 Y23.883 E8.11997
G1 X114.051 Y24.605 E8.18647
G1 X114.512 Y25.398 E8.25511
G1 X114.809 Y26.063 E8.30962
G1 X115.075 Y26.895 E8.37498
G1 X115.166 Y27.300 E8.40605
G1 X115.241 Y27.754 E8.44048
G1 X115.244 Y27.825 E8.44580
G1 X115.259 Y27.942 E8.45463
G1 X115.292 Y28.401 E8.48907
G1 X115.288 Y28.500 E8.49648
G1 X115.295 Y28.785 E8.51782
G1 X115.170 Y29.781 E8.59294
G1 X114.868 Y30.648 E8.66164
G1 X114.695 Y30.921 E8.68583
G1 X114.449 Y31.345 E8.72251
G1 X114.019 Y31.869 E8.77324
G1 X113.502 Y32.346 E8.82588
G1 X112.908 Y32.736 E8.87906
G1 X113.068 Y33.029 E8.90404
G1 X113.460 Y33.883 E8.97436
G1 X113.724 Y34.628 E9.03351
G1 X113.962 Y35.556 E9.10521
G1 X114.088 Y36.310 E9.16242
G1 X114.153 Y37.014 E9.21532
G1 X114.171 Y37.725 E9.26855
G1 X114.130 Y38.528 E9.32872
G1 X114.005 Y39.377 E9.39294
G1 X113.789 Y40.216 E9.45777
G1 X113.488 Y41.011 E9.52139
G1 X113.123 Y41.743 E9.58260
G1 X112.686 Y42.445 E9.64448
G1 X112.096 Y43.211 E9.71684
G1 X111.547 Y43.783 E9.77617
G1 X111.140 Y44.153 E9.81733
G1 X110.501 Y44.644 E9.87764
G1 X109.676 Y45.153 E9.95019
G1 X108.948 Y45.505 E10.01070
G1 X108.214 Y45.786 E10.06952
G1 X107.459 Y46.005 E10.12835
G1 X106.712 Y46.156 E10.18538
G1 X106.169 Y46.227 E10.22636
G1 X105.539 Y46.274 E10.27364
G1 X105.471 Y46.271 E10.27873
G1 X105.312 Y46.278 E10.29064
G1 X105.243 Y46.275 E10.29581
G1 X105.096 Y46.278 E10.30681
G1 X104.234 Y46.240 E10.37138
G1 X103.348 Y46.121 E10.43828
G1 X102.518 Y45.927 E10.50207
G1 X102.057 Y45.781 E10.53826
G1 X101.599 Y45.612 E10.57479
G1 X100.864 Y45.272 E10.63540
G1 X100.401 Y45.015 E10.67502
G1 X100.160 Y44.854 E10.69671
G1 X99.461 Y45.271 E10.75763
G1 X98.374 Y45.672 E10.84433
G1 X97.597 Y45.842 E10.90385
G1 X97.079 Y45.917 E10.94302
G1 X96.991 Y45.920 E10.94961
G1 X96.797 Y45.941 E10.96421
G1 X96.315 Y45.967 E11.00034
G1 X96.229 Y45.964 E11.00678
G1 X95.995 Y45.969 E11.02429
G1 X95.227 Y45.940 E11.08181
G1 X94.468 Y45.851 E11.13900
G1 X93.617 Y45.683 E11.20391
G1 X93.528 Y45.642 E11.21124
G1 X93.478 Y45.630 E11.21509
G1 X92.711 Y45.373 E11.27563
G1 X92.193 Y45.153 E11.31774
G1 X92.166 Y45.139 E11.32002
G1 X92.166 Y45.140 E11.32009
G1 X91.388 Y45.742 E11.39371
G1 X90.746 Y46.054 E11.44713
G1 X90.437 Y46.167 E11.47175
G1 X90.142 Y46.256 E11.49481
G1 X89.740 Y46.338 E11.52551
G1 X89.481 Y46.371 E11.54505
G1 X89.225 Y46.393 E11.56428
G1 X88.829 Y46.399 E11.59392
G1 X87.634 Y46.261 E11.68394
G1 X86.656 Y45.900 E11.76195
G1 X86.127 Y45.614 E11.80696
G1 X85.678 Y45.792 E11.84310
G1 X84.908 Y46.011 E11.90301
G1 X84.064 Y46.163 E11.96719
G1 X83.246 Y46.231 E12.02861
G1 X82.749 Y46.239 E12.06581
G1 X81.921 Y46.201 E12.12784
G1 X81.072 Y46.092 E12.19190
G1 X80.685 Y46.005 E12.22158
G1 X80.590 Y46.228 E12.23972
G1 X80.096 Y46.913 E12.30292
G1 X79.503 Y47.474 E12.36401
G1 X78.744 Y47.944 E12.43082
G1 X77.865 Y48.297 E12.50171
G1 X76.869 Y48.502 E12.57781
G1 X76.081 Y48.540 E12.63684
G1 X75.067 Y48.439 E12.71310
G1 X74.142 Y48.204 E12.78452
G1 X73.106 Y47.765 E12.86873
G1 X72.153 Y47.118 E12.95493
G1 X71.370 Y46.304 E13.03945
G1 X71.229 Y46.085 E13.05894
G1 X70.922 Y46.117 E13.08204
G1 X70.601 Y46.123 E13.10607
G1 X70.443 Y46.136 E13.11793
G1 X69.363 Y46.009 E13.19931
G1 X68.618 Y45.824 E13.25676
G1 X67.720 Y45.473 E13.32891
G1 X66.888 Y45.032 E13.39938
G1 X66.624 Y44.853 E13.42325
G1 X66.121 Y45.277 E13.47248
G1 X65.485 Y45.705 E13.52985
G1 X65.092 Y45.908 E13.56295
G1 X64.254 Y46.238 E13.63035
G1 X63.314 Y46.403 E13.70177
G1 X62.695 Y46.424 E13.74812
G1 X61.741 Y46.348 E13.81974
G1 X60.758 Y46.126 E13.89516
G1 X59.845 Y45.788 E13.96801
G1 X59.015 Y45.374 E14.03742
G1 X58.800 Y45.238 E14.05646
G1 X58.712 Y45.299 E14.06448
G1 X57.731 Y45.709 E14.14404
G1 X57.031 Y45.874 E14.19786
G1 X56.302 Y45.948 E14.25270
G1 X55.773 Y45.957 E14.29229
G1 X54.607 Y45.789 E14.38045
G1 X53.460 Y45.269 E14.47470
G1 X52.933 Y44.867 E14.52430
G1 X52.399 Y44.738 E14.56541
G1 X51.341 Y44.313 E14.65074
G1 X51.328 Y44.305 E14.65188
G1 X51.179 Y44.458 E14.66786
G1 X50.807 Y44.749 E14.70320
G1 X50.277 Y45.087 E14.75025
G1 X49.384 Y45.443 E14.82219
G1 X48.582 Y45.587 E14.88317
G1 X47.962 Y45.607 E14.92959
G1 X46.936 Y45.514 E15.00668
G1 X46.176 Y45.327 E15.06526
G1 X45.356 Y44.988 E15.13166
G1 X45.009 Y44.778 E15.16201
G1 X44.690 Y44.975 E15.19007
G1 X43.964 Y45.326 E15.25042
G1 X43.234 Y45.607 E15.30895
G1 X42.474 Y45.829 E15.36820
G1 X41.705 Y45.983 E15.42690
G1 X40.930 Y46.076 E15.48531
G1 X40.137 Y46.105 E15.54469
G1 X39.251 Y46.066 E15.61106
G1 X38.367 Y45.948 E15.67780
G1 X37.499 Y45.746 E15.74450
G1 X37.425 Y45.721 E15.75034
G1 X37.396 Y45.771 E15.75467
G1 X36.862 Y46.489 E15.82163
G1 X36.354 Y47.034 E15.87738
G1 X35.731 Y47.559 E15.93835
G1 X35.093 Y47.947 E15.99423
G1 X34.218 Y48.310 E16.06513
G1 X33.146 Y48.519 E16.14686
G1 X32.406 Y48.546 E16.20228
G1 X31.304 Y48.460 E16.28500
G1 X30.193 Y48.161 E16.37110
G1 X29.486 Y47.821 E16.42980
G1 X28.853 Y47.401 E16.48665
G1 X28.105 Y46.676 E16.56461
G1 X27.802 Y46.256 E16.60337
G1 X27.584 Y46.596 E16.63359
G1 X26.984 Y47.288 E16.70213
G1 X26.606 Y47.641 E16.74084
G1 X26.004 Y48.089 E16.79699
G1 X25.301 Y48.466 E16.85669
G1 X24.575 Y48.737 E16.91468
G1 X23.845 Y48.911 E16.97084
G1 X23.126 Y49.003 E17.02509
G1 X22.338 Y49.031 E17.08410
G1 X21.229 Y48.923 E17.16748
G1 X20.272 Y48.637 E17.24223
G1 X19.573 Y48.286 E17.30076
G1 X18.930 Y47.836 E17.35949
G1 X18.285 Y47.173 E17.42872
G1 X17.720 Y46.367 E17.50238
G1 X17.301 Y45.526 E17.57269
G1 X17.063 Y44.849 E17.62639
G1 X16.860 Y44.052 E17.68794
G1 X16.853 Y43.958 E17.69500
G1 X16.800 Y43.698 E17.71485
G1 X16.796 Y43.647 E17.71868
G1 X16.795 Y43.641 E17.71914
G1 X16.738 Y43.237 E17.74967
G1 X16.701 Y42.860 E17.77802
G1 X16.668 Y42.440 E17.80955
G1 X16.672 Y42.390 E17.81330
G1 X16.662 Y42.220 E17.82604
G1 X16.664 Y42.043 E17.83929
G1 X16.646 Y41.372 E17.88952
G1 X16.389 Y41.364 E17.90877
G1 X15.569 Y41.291 E17.97037
G1 X14.751 Y41.170 E18.03225
G1 X13.931 Y41.003 E18.09488
G1 X13.097 Y40.782 E18.15945
G1 X12.275 Y40.504 E18.22438
G1 X11.480 Y40.172 E18.28886
G1 X10.708 Y39.783 E18.35355
G1 X9.957 Y39.330 E18.41918
G1 X9.237 Y38.810 E18.48565
G1 X8.568 Y38.226 E18.55210
G1 X7.969 Y37.600 E18.61694
G1 X7.390 Y36.868 E18.68679
G1 X6.880 Y36.030 E18.76020
G1 X6.565 Y35.328 E18.81778
G1 X6.330 Y34.619 E18.87368
G1 X6.140 Y33.681 E18.94530
G1 X6.078 Y32.969 E18.99878
G1 X6.068 Y32.526 E19.03194
G1 X6.124 Y31.547 E19.10533
G1 X6.309 Y30.533 E19.18246
G1 X6.550 Y29.755 E19.24341
G1 X6.947 Y28.861 E19.31662
G1 X7.353 Y28.187 E19.37550
G1 X7.898 Y27.459 E19.44356
G1 X8.529 Y26.774 E19.51325
G1 X9.245 Y26.141 E19.58477
G1 X9.998 Y25.600 E19.65416
G1 X10.772 Y25.145 E19.72135
G1 X11.559 Y24.757 E19.78701
G1 X12.375 Y24.425 E19.85294
G1 X13.215 Y24.148 E19.91913
G1 X14.053 Y23.928 E19.98397
G1 X14.869 Y23.754 E20.04641
G1 X15.678 Y23.618 E20.10780
G1 X16.159 Y23.558 E20.14407
G1 X16.164 Y23.118 E20.17700
G1 X16.251 Y22.255 E20.24191
G1 X16.395 Y21.460 E20.30237
G1 X16.630 Y20.629 E20.36700
G1 X16.978 Y19.786 E20.43525
G1 X17.464 Y18.943 E20.50807
G1 X18.159 Y18.112 E20.58914
G1 F2400 E16.58914
G0 F6120 X20.979 Y20.976
;TYPE:WALL-INNER
G1 F2400 E20.58914
G1 F1560 X21.297 Y20.720 E20.61969
G1 X21.363 Y20.684 E20.62532
G1 X21.632 Y20.589 E20.64667
G1 X21.881 Y20.550 E20.66553
G1 X22.077 Y20.542 E20.68021
G1 X22.528 Y20.579 E20.71407
G1 X22.633 Y20.600 E20.72209
G1 X22.934 Y20.699 E20.74580
G1 X23.338 Y20.961 E20.78183
G1 X23.482 Y21.106 E20.79713
G1 X23.759 Y21.464 E20.83100
G1 X23.974 Y21.806 E20.86123
G1 X24.175 Y22.207 E20.89480
G1 X24.347 Y22.649 E20.93029
G1 X24.617 Y23.638 E21.00701
G1 X24.716 Y24.147 E21.04582
G1 X24.789 Y24.631 E21.08245
G1 X24.789 Y24.644 E21.08342
G1 X24.986 Y26.595 E21.23017
G1 X25.111 Y27.765 E21.31822
G1 X26.074 Y27.889 E21.39088
G1 X30.031 Y28.284 E21.68848
G1 X29.874 Y26.844 E21.79688
G1 X29.823 Y26.331 E21.83546
G1 X29.782 Y25.829 E21.87315
G1 X29.747 Y25.314 E21.91178
G1 X29.719 Y24.787 E21.95128
G1 X29.698 Y24.282 E21.98910
G1 X29.685 Y23.759 E22.02825
G1 X29.678 Y23.246 E22.06664
G1 X29.677 Y22.930 E22.09029
G1 X29.705 Y22.480 E22.12403
G1 X29.779 Y22.074 E22.15492
G1 X29.931 Y21.600 E22.19217
G1 X30.142 Y21.177 E22.22754
G1 X30.397 Y20.822 E22.26025
G1 X30.704 Y20.532 E22.29186
G1 X31.067 Y20.304 E22.32394
G1 X31.404 Y20.179 E22.35084
G1 X31.729 Y20.128 E22.37545
G1 X31.913 Y20.121 E22.38923
G1 X31.981 Y20.124 E22.39433
G1 X32.292 Y20.171 E22.41787
G1 X32.415 Y20.214 E22.42762
G1 X32.601 Y20.314 E22.44342
G1 X32.706 Y20.392 E22.45321
G1 X32.953 Y20.642 E22.47951
G1 X33.135 Y20.878 E22.50181
G1 X33.357 Y21.248 E22.53410
G1 X33.550 Y21.670 E22.56883
G1 X33.722 Y22.159 E22.60762
G1 X33.858 Y22.661 E22.64654
G1 X34.001 Y23.410 E22.70361
G1 X34.145 Y24.456 E22.78262
G1 X34.239 Y25.201 E22.83882
G1 X35.133 Y25.500 E22.90936
G1 X35.939 Y24.671 E22.99589
G1 X36.271 Y24.380 E23.02893
G1 X36.638 Y24.096 E23.06366
G1 X37.020 Y23.835 E23.09828
G1 X37.404 Y23.615 E23.13140
G1 X37.812 Y23.428 E23.16498
G1 X38.222 Y23.283 E23.19753
G1 X38.658 Y23.172 E23.23120
G1 X39.303 Y23.079 E23.27997
G1 X39.316 Y23.080 E23.28094
G1 X39.810 Y23.060 E23.31794
G1 X40.261 Y23.087 E23.35175
G1 X40.685 Y23.156 E23.38390
G1 X41.160 Y23.279 E23.42062
G1 X41.674 Y23.460 E23.46140
G1 X42.207 Y23.691 E23.50487
G1 X42.881 Y24.043 E23.56177
G1 X43.377 Y24.351 E23.60547
G1 X43.879 Y24.706 E23.65148
G1 X44.143 Y24.913 E23.67658
G1 X44.151 Y24.922 E23.67749
G1 X44.312 Y25.054 E23.69307
G1 X44.749 Y25.458 E23.73760
G1 X45.139 Y25.877 E23.78044
G1 X45.510 Y26.321 E23.82374
G1 X46.402 Y26.121 E23.89215
G1 X46.664 Y25.122 E23.96944
G1 X46.856 Y24.585 E24.01212
G1 X46.997 Y24.282 E24.03713
G1 X47.141 Y24.042 E24.05807
G1 X47.402 Y23.728 E24.08863
G1 X47.447 Y23.685 E24.09329
G1 X47.690 Y23.524 E24.11510
G1 X47.818 Y23.481 E24.12521
G1 X47.993 Y23.457 E24.13842
G1 X48.031 Y23.456 E24.14127
G1 X48.282 Y23.477 E24.16012
G1 X48.522 Y23.545 E24.17879
G1 X48.673 Y23.638 E24.19206
G1 X48.893 Y23.840 E24.21441
G1 X49.150 Y24.187 E24.24672
G1 X49.346 Y24.554 E24.27786
G1 X49.516 Y24.991 E24.31295
G1 X49.598 Y25.260 E24.33399
G1 X49.714 Y25.773 E24.37335
G1 X49.806 Y26.343 E24.41656
G1 X49.836 Y26.587 E24.43496
G1 X49.855 Y26.809 E24.45163
G1 X49.854 Y26.826 E24.45291
G1 X49.909 Y27.461 E24.50061
G1 X49.922 Y27.779 E24.52442
G1 X49.921 Y27.825 E24.52787
G1 X49.927 Y28.135 E24.55107
G1 X49.924 Y28.254 E24.55998
G1 X49.929 Y28.970 E24.61356
G1 X49.928 Y29.101 E24.62337
G1 X49.946 Y29.849 E24.67936
G1 X49.945 Y29.894 E24.68273
