;Generated with Cura_SteamEngine 15.05
; Default start code
G28 ; Home extruder
G1 Z15 F100
M107 ; Turn off fan
G90 ; Absolute positioning
M82 ; Extruder in absolute mode
; Activate all used extruder
M104 T0 S195
G92 E0 ; Reset extruder position
; Wait for all used extruders to reach temperature
M109 T0 S195
;Layer count: 32
;LAYER:0
M107
G0 F6120 X9.265 Y17.196 Z0.360
;TYPE:SKIRT
G1 F1560 X10.044 Y16.764 E0.06666
G1 X10.841 Y16.396 E0.13236
G1 X11.667 Y16.081 E0.19851
G1 X12.509 Y15.824 E0.26439
G1 X13.339 Y15.622 E0.32832
G1 X14.149 Y15.461 E0.39012
G1 X14.945 Y15.338 E0.45040
G1 X15.507 Y15.271 E0.49275
G1 X16.316 Y15.207 E0.55348
G1 X17.018 Y15.187 E0.60604
G1 X17.065 Y14.724 E0.64087
G1 X17.360 Y13.787 E0.71438
G1 X17.736 Y13.083 E0.77411
G1 X18.209 Y12.452 E0.83312
G1 X19.068 Y11.663 E0.92041
G1 X19.794 Y11.226 E0.98382
G1 X20.405 Y10.953 E1.03390
G1 X20.863 Y10.799 E1.07006
G1 X21.102 Y10.731 E1.08866
G1 X21.502 Y10.641 E1.11934
G1 X21.728 Y10.599 E1.13654
G1 X22.323 Y10.519 E1.18147
G1 X22.411 Y10.516 E1.18806
G1 X22.624 Y10.495 E1.20408
G1 X23.226 Y10.463 E1.24919
G1 X23.288 Y10.466 E1.25384
G1 X23.342 Y10.465 E1.25788
G1 X23.520 Y10.463 E1.27120
G1 X23.920 Y10.475 E1.30115
G1 X24.785 Y10.553 E1.36614
G1 X25.489 Y10.680 E1.41968
G1 X26.419 Y10.926 E1.49167
G1 X27.306 Y11.254 E1.56244
G1 X27.651 Y11.404 E1.59059
G1 X28.098 Y11.613 E1.62752
G1 X28.137 Y11.638 E1.63099
G1 X28.242 Y11.689 E1.63972
G1 X28.840 Y12.021 E1.69091
G1 X29.599 Y12.500 E1.75807
G1 X29.718 Y12.588 E1.76915
G1 X29.841 Y12.509 E1.78009
G1 X30.382 Y12.219 E1.82602
G1 X31.274 Y11.860 E1.89798
G1 X32.028 Y11.653 E1.95649
G1 X32.126 Y11.645 E1.96385
G1 X32.256 Y11.616 E1.97382
G1 X32.329 Y11.610 E1.97930
G1 X32.388 Y11.599 E1.98379
G1 X32.669 Y11.563 E2.00499
G1 X33.161 Y11.516 E2.04198
G1 X33.223 Y11.521 E2.04664
G1 X33.347 Y11.513 E2.05593
G1 X33.427 Y11.519 E2.06194
G1 X33.518 Y11.517 E2.06875
G1 X34.424 Y11.559 E2.13662
G1 X35.360 Y11.687 E2.20732
G1 X36.275 Y11.897 E2.27758
G1 X37.169 Y12.183 E2.34782
G1 X37.282 Y12.230 E2.35698
G1 X37.455 Y12.037 E2.37637
G1 X37.664 Y11.904 E2.39491
G1 X37.752 Y11.830 E2.40352
G1 X38.374 Y11.419 E2.45931
G1 X39.098 Y11.082 E2.51907
G1 X39.774 Y10.880 E2.57187
G1 X39.897 Y10.605 E2.59441
G1 X40.490 Y9.642 E2.67905
G1 X41.329 Y8.800 E2.76800
G1 X42.194 Y8.291 E2.84311
G1 X42.863 Y8.065 E2.89595
G1 X43.299 Y7.976 E2.92925
G1 X43.859 Y7.918 E2.97139
G1 X43.955 Y7.927 E2.97860
G1 X44.026 Y7.923 E2.98392
G1 X45.099 Y8.016 E3.06452
G1 X45.275 Y8.078 E3.07849
G1 X45.348 Y8.092 E3.08405
G1 X45.933 Y8.280 E3.13003
G1 X46.476 Y8.508 E3.17411
G1 X46.688 Y8.649 E3.19316
G1 X46.916 Y8.787 E3.21310
G1 X47.277 Y8.590 E3.24388
G1 X48.214 Y8.220 E3.31927
G1 X49.119 Y7.990 E3.38915
G1 X49.517 Y7.920 E3.41939
G1 X49.883 Y7.874 E3.44700
G1 X50.563 Y7.825 E3.49802
G1 X50.675 Y7.829 E3.50640
G1 X50.887 Y7.824 E3.52227
G1 X51.789 Y7.873 E3.58987
G1 X52.727 Y8.032 E3.66107
G1 X53.638 Y8.303 E3.73220
G1 X54.501 Y8.684 E3.80279
G1 X55.218 Y9.113 E3.86532
G1 X55.617 Y9.387 E3.90154
G1 X55.652 Y9.418 E3.90504
G1 X55.855 Y9.562 E3.92367
G1 X55.911 Y9.618 E3.92960
G1 X56.035 Y9.712 E3.94124
G1 X56.084 Y9.761 E3.94643
G1 X56.165 Y9.826 E3.95420
G1 X56.713 Y10.340 E4.01042
G1 X57.038 Y10.677 E4.04546
G1 X57.077 Y10.728 E4.05027
G1 X57.186 Y10.848 E4.06240
G1 X57.244 Y10.926 E4.06967
G1 X57.634 Y11.407 E4.11601
G1 X57.674 Y11.465 E4.12129
G1 X57.883 Y11.407 E4.13752
G1 X58.291 Y11.327 E4.16863
G1 X58.574 Y11.293 E4.18996
G1 X58.815 Y11.277 E4.20804
G1 X59.154 Y11.269 E4.23341
G1 X59.898 Y11.332 E4.28929
G1 X60.725 Y11.523 E4.35281
G1 X61.553 Y11.895 E4.42074
G1 X62.293 Y12.396 E4.48761
G1 X63.021 Y13.141 E4.56557
G1 X63.102 Y13.249 E4.57567
G1 X63.124 Y13.165 E4.58217
G1 X63.386 Y12.394 E4.64310
G1 X63.736 Y11.607 E4.70756
G1 X64.296 Y10.673 E4.78906
G1 X65.171 Y9.688 E4.88766
G1 X66.233 Y9.042 E4.98068
G1 X67.127 Y8.751 E5.05104
G1 X67.290 Y8.737 E5.06328
G1 X67.371 Y8.719 E5.06949
G1 X68.101 Y8.658 E5.12431
G1 X69.173 Y8.778 E5.20503
G1 X69.764 Y8.945 E5.25099
G1 X70.135 Y9.076 E5.28044
G1 X70.794 Y9.396 E5.33526
G1 X71.015 Y9.562 E5.35594
G1 X71.444 Y9.862 E5.39512
G1 X71.955 Y10.343 E5.44764
G1 X72.560 Y11.090 E5.51957
G1 X72.722 Y11.360 E5.54314
G1 X73.244 Y11.419 E5.58245
G1 X74.503 Y11.907 E5.68350
G1 X74.768 Y12.106 E5.70830
G1 X74.994 Y12.248 E5.72827
G1 X75.511 Y12.658 E5.77765
G1 X75.548 Y12.694 E5.78152
G1 X75.611 Y12.587 E5.79081
G1 X76.175 Y11.894 E5.85767
G1 X76.842 Y11.375 E5.92092
G1 X77.281 Y11.123 E5.95880
G1 X77.886 Y10.872 E6.00782
G1 X78.560 Y10.722 E6.05949
G1 X79.262 Y10.673 E6.11215
G1 X80.274 Y10.780 E6.18831
G1 X81.231 Y11.086 E6.26350
G1 X81.955 Y11.462 E6.32455
G1 X82.073 Y11.550 E6.33556
G1 X82.161 Y11.605 E6.34333
G1 X82.527 Y11.875 E6.37737
G1 X82.612 Y11.954 E6.38605
G1 X83.185 Y11.772 E6.43104
G1 X83.385 Y11.757 E6.44605
G1 X83.774 Y11.681 E6.47571
G1 X83.918 Y11.681 E6.48649
G1 X84.305 Y11.637 E6.51564
G1 X84.396 Y11.643 E6.52246
G1 X84.531 Y11.634 E6.53259
G1 X84.617 Y11.640 E6.53904
G1 X84.721 Y11.637 E6.54682
G1 X85.629 Y11.679 E6.61485
G1 X86.565 Y11.808 E6.68556
G1 X87.481 Y12.019 E6.75590
G1 X88.374 Y12.306 E6.82609
G1 X88.493 Y12.355 E6.83573
G1 X88.942 Y11.958 E6.88058
G1 X89.594 Y11.534 E6.93878
G1 X90.335 Y11.194 E6.99979
G1 X91.124 Y10.963 E7.06131
G1 X92.067 Y10.838 E7.13250
G1 X92.693 Y10.826 E7.17936
G1 X93.837 Y10.973 E7.26567
G1 X94.816 Y11.352 E7.34423
G1 X95.240 Y11.605 E7.38118
G1 X95.515 Y11.792 E7.40607
G1 X95.862 Y12.070 E7.43935
G1 X96.288 Y12.506 E7.48496
G1 X96.534 Y12.808 E7.51411
G1 X96.819 Y13.218 E7.55148
G1 X97.063 Y13.620 E7.58667
G1 X97.307 Y14.097 E7.62677
G1 X97.636 Y14.898 E7.69157
G1 X97.864 Y15.708 E7.75454
G1 X97.975 Y16.183 E7.79105
G1 X97.978 Y16.233 E7.79479
G1 X98.037 Y16.512 E7.81613
G1 X98.042 Y16.585 E7.82161
G1 X98.065 Y16.718 E7.83171
G1 X98.132 Y17.144 E7.86398
G1 X98.132 Y17.204 E7.86847
G1 X98.149 Y17.337 E7.87851
G1 X98.188 Y17.759 E7.91022
G1 X98.237 Y18.733 E7.98320
G1 X98.261 Y19.503 E8.04085
G1 X98.258 Y19.565 E8.04550
G1 X98.262 Y19.881 E8.06915
G1 X98.257 Y20.581 E8.12154
G1 X98.243 Y21.273 E8.17333
G1 X98.222 Y21.971 E8.22559
G1 X98.194 Y22.683 E8.27892
G1 X98.164 Y23.232 E8.32006
G1 X98.101 Y24.155 E8.38929
G1 X98.047 Y24.728 E8.43237
G1 X97.942 Y25.656 E8.50226
G1 X97.838 Y26.419 E8.55988
G1 X97.713 Y27.177 E8.61737
G1 X97.569 Y27.934 E8.67504
G1 X97.402 Y28.688 E8.73283
G1 X97.212 Y29.443 E8.79110
G1 X96.989 Y30.208 E8.85073
G1 X96.733 Y30.967 E8.91067
G1 X96.445 Y31.710 E8.97031
G1 X96.129 Y32.427 E9.02894
G1 X95.817 Y33.068 E9.08229
G1 X95.355 Y33.841 E9.14968
G1 X94.794 Y34.581 E9.21918
G1 X94.179 Y35.233 E9.28625
G1 X93.533 Y35.803 E9.35072
G1 X92.856 Y36.302 E9.41366
G1 X92.140 Y36.746 E9.47671
G1 X91.381 Y37.130 E9.54037
G1 X90.593 Y37.448 E9.60396
G1 X89.819 Y37.684 E9.66451
G1 X89.184 Y37.838 E9.71341
G1 X89.121 Y37.843 E9.71814
G1 X88.854 Y37.899 E9.73856
G1 X88.794 Y37.903 E9.74306
G1 X88.785 Y37.905 E9.74375
G1 X88.217 Y37.988 E9.78670
G1 X88.161 Y37.988 E9.79089
G1 X87.813 Y38.020 E9.81705
G1 X87.406 Y38.046 E9.84757
G1 X87.381 Y38.044 E9.84944
G1 X87.260 Y38.051 E9.85851
G1 X87.202 Y38.047 E9.86286
G1 X87.082 Y38.051 E9.87185
G1 X87.055 Y38.049 E9.87388
G1 X86.939 Y38.052 E9.88256
G1 X86.047 Y37.999 E9.94943
G1 X85.293 Y37.890 E10.00644
G1 X84.603 Y37.740 E10.05929
G1 X83.896 Y37.545 E10.11417
G1 X83.184 Y37.302 E10.17047
G1 X82.495 Y37.020 E10.22618
G1 X82.412 Y36.980 E10.23308
G1 X82.351 Y37.013 E10.23827
G1 X81.315 Y37.387 E10.32069
G1 X80.200 Y37.601 E10.40566
G1 X79.419 Y37.657 E10.46426
G1 X78.950 Y37.664 E10.49936
G1 X78.212 Y37.634 E10.55463
G1 X77.496 Y37.548 E10.60860
G1 X77.151 Y37.489 E10.63479
G1 X76.331 Y37.282 E10.69808
G1 X75.510 Y36.988 E10.76334
G1 X75.140 Y36.812 E10.79400
G1 X74.700 Y37.213 E10.83855
G1 X73.887 Y37.685 E10.90891
G1 X73.702 Y37.750 E10.92358
G1 X73.309 Y38.411 E10.98113
G1 X72.547 Y39.203 E11.06338
G1 X71.571 Y39.769 E11.14781
G1 X70.694 Y40.082 E11.21749
G1 X69.844 Y40.240 E11.28219
G1 X69.089 Y40.273 E11.33875
G1 X68.111 Y40.176 E11.41230
G1 X67.526 Y40.040 E11.45724
G1 X67.240 Y39.958 E11.47951
G1 X66.842 Y39.822 E11.51098
G1 X66.040 Y39.451 E11.57711
G1 X65.105 Y38.797 E11.66250
G1 X64.467 Y38.136 E11.73125
G1 X63.929 Y37.362 E11.80179
G1 X63.595 Y36.593 E11.86453
G1 X62.745 Y36.301 E11.93179
G1 X62.355 Y36.105 E11.96446
G1 X61.740 Y36.647 E12.02580
G1 X60.957 Y37.057 E12.09194
G1 X60.572 Y37.191 E12.12245
G1 X60.075 Y37.333 E12.16113
G1 X59.393 Y37.417 E12.21256
G1 X58.951 Y37.422 E12.24564
G1 X57.956 Y37.332 E12.32040
G1 X57.203 Y37.147 E12.37843
G1 X56.378 Y36.810 E12.44512
G1 X55.720 Y36.408 E12.50282
G1 X55.063 Y35.845 E12.56757
G1 X54.421 Y35.101 E12.64111
G1 X53.910 Y34.302 E12.71209
G1 X53.524 Y33.459 E12.78147
G1 X53.492 Y33.360 E12.78926
G1 X53.280 Y33.382 E12.80521
G1 X52.558 Y33.408 E12.85928
G1 X51.713 Y33.348 E12.92267
G1 X50.744 Y33.142 E12.99681
G1 X50.546 Y33.075 E13.01245
G1 X50.546 Y33.079 E13.01275
G1 X50.455 Y33.780 E13.06565
G1 X50.339 Y34.479 E13.11868
G1 X50.196 Y35.207 E13.17420
G1 X50.007 Y35.950 E13.23157
G1 X49.774 Y36.678 E13.28877
G1 X49.485 Y37.404 E13.34725
G1 X49.112 Y38.139 E13.40893
G1 X48.751 Y38.699 E13.45879
G1 X48.346 Y39.213 E13.50776
G1 X47.889 Y39.678 E13.55655
G1 X47.528 Y39.978 E13.59168
G1 X46.897 Y40.381 E13.64771
G1 X46.205 Y40.684 E13.70424
G1 X45.239 Y40.902 E13.77835
G1 X44.355 Y40.941 E13.84457
G1 X43.126 Y40.701 E13.93828
G1 X42.377 Y40.361 E13.99984
G1 X41.876 Y40.062 E14.04350
G1 X40.989 Y39.289 E14.13155
G1 X40.384 Y38.459 E14.20841
G1 X39.916 Y37.599 E14.28168
G1 X39.744 Y37.190 E14.31488
G1 X39.610 Y37.247 E14.32578
G1 X39.199 Y37.387 E14.35827
G1 X39.088 Y37.433 E14.36727
G1 X38.363 Y37.630 E14.42349
G1 X37.592 Y37.784 E14.48233
G1 X36.796 Y37.886 E14.54238
G1 X36.049 Y37.925 E14.59836
G1 X35.719 Y37.929 E14.62306
G1 X34.855 Y37.880 E14.68782
G1 X34.102 Y37.770 E14.74477
G1 X33.412 Y37.620 E14.79761
G1 X32.705 Y37.426 E14.85248
G1 X32.353 Y37.306 E14.88031
G1 X32.159 Y37.428 E14.89746
G1 X31.192 Y37.804 E14.97510
G1 X30.207 Y38.009 E15.05039
G1 X29.404 Y38.087 E15.11077
G1 X28.830 Y38.101 E15.15374
G1 X27.945 Y38.059 E15.22004
G1 X27.044 Y37.937 E15.28808
G1 X26.366 Y37.791 E15.33998
G1 X25.523 Y37.542 E15.40576
G1 X24.672 Y37.208 E15.47418
G1 X23.864 Y36.813 E15.54148
G1 X23.098 Y36.356 E15.60823
G1 X22.371 Y35.838 E15.67504
G1 X21.689 Y35.259 E15.74199
G1 X21.066 Y34.636 E15.80792
G1 X20.639 Y34.138 E15.85701
G1 X20.130 Y33.447 E15.92124
G1 X19.744 Y32.832 E15.97558
G1 X19.706 Y32.752 E15.98221
G1 X19.062 Y32.884 E16.03140
G1 X18.207 Y33.015 E16.09613
G1 X17.355 Y33.101 E16.16022
G1 X16.532 Y33.139 E16.22187
G1 X16.170 Y33.142 E16.24896
G1 X15.400 Y33.120 E16.30661
G1 X14.581 Y33.046 E16.36815
G1 X13.765 Y32.927 E16.42986
G1 X12.941 Y32.758 E16.49281
G1 X12.110 Y32.537 E16.55716
G1 X11.289 Y32.261 E16.62198
G1 X10.490 Y31.927 E16.68678
G1 X9.720 Y31.539 E16.75131
G1 X8.968 Y31.086 E16.81701
G1 X8.248 Y30.565 E16.88352
G1 X7.580 Y29.982 E16.94987
G1 X6.997 Y29.373 E17.01296
G1 X6.564 Y28.841 E17.06429
G1 X6.037 Y28.057 E17.13499
G1 X5.598 Y27.144 E17.21080
G1 X5.342 Y26.377 E17.27131
G1 X5.152 Y25.437 E17.34308
G1 X5.090 Y24.725 E17.39656
G1 X5.080 Y24.280 E17.42987
G1 X5.136 Y23.303 E17.50311
G1 X5.327 Y22.258 E17.58260
G1 X5.667 Y21.233 E17.66342
G1 X6.146 Y20.282 E17.74311
G1 X6.712 Y19.463 E17.81761
G1 X7.303 Y18.776 E17.88543
G1 X7.802 Y18.285 E17.93782
G1 X8.504 Y17.707 E18.00587
G1 X9.265 Y17.196 E18.07446
G1 F2400 E14.07446
G0 F6120 X11.358 Y20.609
;TYPE:WALL-INNER
G1 F2400 E18.07446
G1 F1560 X11.854 Y20.334 E18.11690
G1 X12.396 Y20.084 E18.16157
G1 X12.969 Y19.866 E18.20745
G1 X13.555 Y19.687 E18.25331
G1 X14.202 Y19.530 E18.30313
G1 X14.861 Y19.398 E18.35343
G1 X15.473 Y19.304 E18.39976
G1 X15.901 Y19.253 E18.43202
G1 X16.536 Y19.202 E18.47969
G1 X17.102 Y19.186 E18.52206
G1 X17.695 Y19.204 E18.56646
G1 X18.276 Y19.254 E18.61010
G1 X18.916 Y19.345 E18.65848
G1 X19.533 Y19.467 E18.70555
G1 X20.128 Y19.625 E18.75162
G1 X20.704 Y19.822 E18.79717
G1 X21.265 Y20.060 E18.84278
G1 X22.089 Y20.514 E18.91318
G1 X22.540 Y20.841 E18.95487
G1 X22.940 Y21.200 E18.99509
G1 X23.300 Y21.592 E19.03492
G1 X23.504 Y21.857 E19.05995
G1 X23.773 Y22.319 E19.09996
G1 X24.265 Y23.772 E19.21476
G1 X25.225 Y23.087 E19.30301
G1 X25.623 Y22.530 E19.35424
G1 X25.912 Y21.980 E19.40074
G1 X26.093 Y21.374 E19.44807
G1 X26.140 Y20.892 E19.48431
G1 X26.069 Y20.223 E19.53466
G1 X25.935 Y19.819 E19.56651
G1 X25.737 Y19.459 E19.59726
G1 X25.416 Y19.094 E19.63363
G1 X25.302 Y18.990 E19.64518
G1 X24.856 Y18.662 E19.68661
G1 X24.265 Y18.362 E19.73621
G1 X23.637 Y18.126 E19.78642
G1 X22.930 Y17.921 E19.84150
G1 X22.380 Y17.739 E19.88486
G1 X21.908 Y17.523 E19.92370
G1 X21.574 Y17.308 E19.95343
G1 X21.442 Y17.192 E19.96658
G1 X21.231 Y16.955 E19.99033
G1 X21.118 Y16.769 E20.00661
G1 X21.049 Y16.575 E20.02202
G1 X20.981 Y16.189 E20.05135
G1 X20.967 Y15.887 E20.07398
G1 X21.003 Y15.537 E20.10031
G1 X21.066 Y15.338 E20.11593
G1 X21.120 Y15.237 E20.12450
G1 X21.189 Y15.146 E20.13305
G1 X21.476 Y14.883 E20.16218
G1 X21.651 Y14.777 E20.17749
G1 X21.864 Y14.682 E20.19494
G1 X22.360 Y14.550 E20.23335
G1 X22.656 Y14.510 E20.25570
G1 X23.218 Y14.469 E20.29787
G1 X23.228 Y14.470 E20.29863
G1 X23.476 Y14.464 E20.31719
G1 X23.688 Y14.470 E20.33306
G1 X24.252 Y14.521 E20.37544
G1 X24.620 Y14.587 E20.40342
G1 X25.206 Y14.743 E20.44880
G1 X25.825 Y14.971 E20.49817
G1 X26.395 Y15.239 E20.54530
G1 X27.333 Y15.799 E20.62706
G1 X28.033 Y16.336 E20.69308
G1 X28.826 Y17.101 E20.77554
G1 X29.691 Y18.097 E20.87426
G1 X30.632 Y16.953 E20.98511
G1 X31.000 Y16.587 E21.02395
G1 X31.419 Y16.250 E21.06419
G1 X31.876 Y15.956 E21.10486
G1 X32.074 Y15.850 E21.12166
G1 X32.557 Y15.656 E21.16062
G1 X32.993 Y15.555 E21.19411
G1 X33.320 Y15.523 E21.21870
G1 X33.475 Y15.519 E21.23030
G1 X34.061 Y15.546 E21.27420
G1 X34.638 Y15.625 E21.31778
G1 X35.218 Y15.759 E21.36233
G1 X35.782 Y15.939 E21.40664
G1 X36.361 Y16.180 E21.45357
G1 X36.909 Y16.459 E21.49959
G1 X37.062 Y16.548 E21.51283
G1 X37.575 Y16.882 E21.55864
G1 X38.062 Y17.259 E21.60473
G1 X38.577 Y17.701 E21.65552
G1 X39.452 Y17.296 E21.72768
G1 X39.448 Y16.669 E21.77460
G1 X39.490 Y16.226 E21.80790
G1 X39.584 Y15.862 E21.83603
G1 X39.726 Y15.548 E21.86182
G1 X39.854 Y15.353 E21.87928
G1 X40.092 Y15.088 E21.90593
G1 X40.148 Y15.041 E21.91140
G1 X40.330 Y14.921 E21.92772
G1 X40.522 Y14.832 E21.94356
G1 X40.870 Y14.738 E21.97053
G1 X41.126 Y14.711 E21.98980
G1 X41.279 Y14.706 E22.00125
G1 X41.579 Y14.736 E22.02381
G1 X41.794 Y14.804 E22.04069
G1 X42.710 Y15.219 E22.11595
G1 X42.989 Y13.828 E22.22211
G1 X43.123 Y13.299 E22.26295
G1 X43.270 Y12.862 E22.29746
G1 X43.442 Y12.477 E22.32901
G1 X43.654 Y12.133 E22.35925
G1 X43.797 Y11.990 E22.37439
G1 X43.865 Y11.949 E22.38033
G1 X43.910 Y11.934 E22.38388
G1 X43.958 Y11.932 E22.38747
G1 X44.361 Y11.976 E22.41781
G1 X44.584 Y12.051 E22.43542
G1 X44.898 Y12.249 E22.46320
G1 X45.177 Y12.546 E22.49369
G1 X45.362 Y12.834 E22.51931
G1 X45.510 Y13.176 E22.54720
G1 X45.575 Y13.446 E22.56798
G1 X45.671 Y14.092 E22.61685
G1 X46.617 Y14.348 E22.69019
G1 X47.297 Y13.502 E22.77142
G1 X47.673 Y13.115 E22.81180
G1 X48.086 Y12.766 E22.85227
G1 X48.523 Y12.466 E22.89193
G1 X48.971 Y12.222 E22.93011
G1 X49.446 Y12.034 E22.96834
G1 X49.957 Y11.904 E23.00780
G1 X50.637 Y11.830 E23.05899
G1 X50.823 Y11.827 E23.07291
G1 X51.351 Y11.855 E23.11248
G1 X51.813 Y11.933 E23.14754
G1 X52.255 Y12.065 E23.18206
G1 X52.656 Y12.242 E23.21486
G1 X53.147 Y12.544 E23.25800
G1 X53.545 Y12.852 E23.29566
G1 X53.985 Y13.273 E23.34123
G1 X54.442 Y13.822 E23.39469
G1 X54.737 Y14.243 E23.43316
G1 X55.017 Y14.701 E23.47333
G1 X55.282 Y15.199 E23.51555
G1 X55.518 Y15.710 E23.55767
G1 X55.734 Y16.244 E23.60078
G1 X55.939 Y16.812 E23.64597
G1 X56.289 Y17.909 E23.73214
G1 X57.401 Y17.893 E23.81537
G1 X57.732 Y16.745 E23.90478
G1 X57.854 Y16.420 E23.93075
G1 X58.042 Y16.029 E23.96322
G1 X58.189 Y15.797 E23.98378
G1 X58.353 Y15.599 E24.00302
G1 X58.510 Y15.455 E24.01896
G1 X58.669 Y15.354 E24.03305
G1 X58.809 Y15.301 E24.04426
