;Generated with Cura_SteamEngine 15.05
; Default start code
G28 ; Home extruder
G1 Z15 F100
M107 ; Turn off fan
G90 ; Absolute positioning
M82 ; Extruder in absolute mode
; Activate all used extruder
M104 T0 S195
G92 E0 ; Reset extruder position
; Wait for all used extruders to reach temperature
M109 T0 S195
;Layer count: 24
;LAYER:0
M107
G0 F4800 X41.982 Y20.879 Z0.360
;TYPE:SKIRT
G1 F1500 X42.534 Y20.061 E0.07385
G1 X43.289 Y19.324 E0.15281
G1 X44.535 Y18.634 E0.25939
G1 X46.518 Y18.535 E0.40798
G1 X47.918 Y19.444 E0.53289
G1 X48.596 Y20.181 E0.60784
G1 X49.172 Y21.083 E0.68793
G1 X49.173 Y21.083 E0.68800
G1 X49.326 Y21.320 E0.70911
G1 X50.010 Y22.690 E0.82370
G1 X50.540 Y23.951 E0.92607
G1 X50.717 Y24.321 E0.95676
G1 X50.737 Y24.346 E0.95916
G1 X50.903 Y24.493 E0.97575
G1 X51.381 Y24.809 E1.01863
G1 X53.013 Y25.819 E1.16226
G1 X53.307 Y26.001 E1.18814
G1 X54.981 Y27.190 E1.34180
G1 X57.106 Y28.893 E1.54559
G1 X59.304 Y30.840 E1.76533
G1 X61.028 Y32.344 E1.93654
G1 X61.689 Y32.862 E1.99938
G1 X62.298 Y33.291 E2.05513
G1 X63.860 Y34.219 E2.19110
G1 X66.135 Y35.372 E2.38196
G1 X68.071 Y36.357 E2.54452
G1 X69.531 Y37.206 E2.67091
G1 X69.831 Y37.381 E2.69690
G1 X71.138 Y38.310 E2.81690
G1 X71.436 Y38.524 E2.84436
G1 X72.907 Y39.843 E2.99221
G1 X74.278 Y41.383 E3.14651
G1 X75.419 Y42.914 E3.28940
G1 X75.606 Y43.165 E3.31283
G1 X76.854 Y45.048 E3.48188
G1 X78.388 Y47.510 E3.69896
G1 X79.059 Y48.603 E3.79494
G1 X83.029 Y55.100 E4.36473
G1 X83.673 Y56.208 E4.46064
G1 X84.167 Y57.254 E4.54721
G1 X84.329 Y57.607 E4.57627
G1 X84.592 Y58.562 E4.65040
G1 X84.697 Y58.947 E4.68027
G1 X84.780 Y59.973 E4.75730
G1 X84.823 Y60.637 E4.80709
G1 X84.881 Y60.893 E4.82674
G1 X85.025 Y61.243 E4.85506
G1 X85.301 Y61.706 E4.89540
G1 X85.957 Y62.608 E4.97886
G1 X86.857 Y63.675 E5.08332
G1 X89.773 Y66.793 E5.40280
G1 X91.425 Y68.535 E5.58246
G1 X92.872 Y70.148 E5.74462
G1 X93.980 Y71.482 E5.87440
G1 X95.055 Y72.916 E6.00852
G1 X95.967 Y74.318 E6.13368
G1 X96.669 Y75.611 E6.24379
G1 X96.814 Y75.884 E6.26692
G1 X97.416 Y77.314 E6.38303
G1 X97.813 Y78.513 E6.47755
G1 X97.905 Y78.787 E6.49918
G1 X98.170 Y79.894 E6.58436
G1 X98.291 Y79.912 E6.59352
G1 X99.279 Y80.257 E6.67183
G1 X100.165 Y80.762 E6.74815
G1 X100.918 Y81.365 E6.82034
G1 X101.511 Y81.974 E6.88395
G1 X102.091 Y82.687 E6.95274
G1 X102.673 Y83.548 E7.03051
G1 X102.889 Y83.868 E7.05940
G1 X103.464 Y85.151 E7.16462
G1 X103.664 Y86.175 E7.24269
G1 X103.732 Y86.516 E7.26872
G1 X103.782 Y87.867 E7.36989
G1 X103.756 Y88.677 E7.43054
G1 X103.749 Y88.888 E7.44633
G1 X103.653 Y89.774 E7.51303
G1 X103.443 Y90.754 E7.58803
G1 X103.165 Y91.514 E7.64859
G1 X103.029 Y91.859 E7.67634
G1 X102.473 Y92.782 E7.75698
G1 X101.755 Y93.593 E7.83804
G1 X100.959 Y94.235 E7.91457
G1 X100.182 Y94.712 E7.98280
G1 X99.078 Y95.239 E8.07435
G1 X98.197 Y95.474 E8.14258
G1 X99.367 Y96.069 E8.24081
G1 X99.994 Y96.390 E8.29352
G1 X101.549 Y97.947 E8.45820
G1 X102.046 Y98.444 E8.51080
G1 X103.043 Y100.401 E8.67516
G1 X103.365 Y101.030 E8.72804
G1 X103.821 Y103.904 E8.94581
G1 X103.475 Y106.085 E9.11107
G1 X103.363 Y106.778 E9.16360
G1 X102.365 Y108.741 E9.32840
G1 X102.044 Y109.367 E9.38104
G1 X99.991 Y111.421 E9.59837
G1 X98.033 Y112.417 E9.76277
G1 X97.404 Y112.739 E9.81565
G1 X95.234 Y113.082 E9.98006
G1 X95.234 Y113.083 E9.98013
G1 X94.535 Y113.195 E10.03311
G1 X92.433 Y112.862 E10.19238
G1 X91.616 Y115.929 E10.42990
G1 X91.025 Y117.216 E10.53588
G1 X89.394 Y118.558 E10.69394
G1 X87.266 Y118.667 E10.85340
G1 X85.835 Y118.044 E10.97020
G1 X84.913 Y117.336 E11.05719
G1 X84.219 Y116.642 E11.13064
G1 X84.167 Y116.783 E11.14189
G1 X80.411 Y117.385 E11.42656
G1 X78.371 Y114.815 E11.67211
G1 X78.064 Y114.445 E11.70809
G1 X76.496 Y115.397 E11.84537
G1 X74.252 Y113.682 E12.05672
G1 X73.624 Y112.893 E12.13219
G1 X73.389 Y112.518 E12.16531
G1 X71.423 Y114.823 E12.39202
G1 X68.700 Y109.127 E12.86449
G1 X68.198 Y109.185 E12.90231
G1 X66.616 Y108.496 E13.03144
G1 X65.716 Y107.615 E13.12569
G1 X65.149 Y106.780 E13.20122
G1 X64.453 Y105.353 E13.32003
G1 X64.288 Y104.996 E13.34947
G1 X64.146 Y104.969 E13.36028
G1 X63.146 Y104.582 E13.44053
G1 X62.128 Y103.910 E13.53181
G1 X61.411 Y103.033 E13.61658
G1 X60.846 Y101.947 E13.70820
G1 X59.958 Y100.417 E13.84058
G1 X59.283 Y99.308 E13.93774
G1 X43.790 Y74.035 E16.15614
G1 X36.812 Y62.585 E17.15959
G1 X40.304 Y61.840 E17.42680
G1 X40.141 Y61.448 E17.45857
G1 X39.866 Y61.396 E17.47951
G1 X39.066 Y61.127 E17.54268
G1 X38.223 Y60.632 E17.61583
G1 X37.531 Y60.010 E17.68547
G1 X37.048 Y59.453 E17.74064
G1 X36.299 Y58.400 E17.83734
G1 X35.517 Y57.204 E17.94428
G1 X34.921 Y56.176 E18.03320
G1 X34.479 Y55.301 E18.10656
G1 X34.082 Y54.371 E18.18224
G1 X33.745 Y53.333 E18.26391
G1 X33.568 Y52.263 E18.34507
G1 X33.629 Y50.970 E18.44194
G1 X34.292 Y49.369 E18.57162
G1 X35.876 Y48.152 E18.72110
G1 X37.588 Y47.921 E18.85038
G1 X38.854 Y48.188 E18.94721
G1 X39.835 Y48.622 E19.02748
G1 X40.700 Y49.155 E19.10352
G1 X41.313 Y49.617 E19.16096
G1 X41.422 Y49.194 E19.19365
G1 X47.203 Y50.912 E19.64498
G1 X49.218 Y51.417 E19.80043
G1 X50.526 Y51.686 E19.90037
G1 X51.272 Y51.793 E19.95676
G1 X52.021 Y51.841 E20.01293
G1 X52.441 Y51.804 E20.04448
G1 X52.960 Y51.662 E20.08475
G1 X54.360 Y51.139 E20.19659
G1 X56.248 Y50.376 E20.34898
G1 X54.307 Y50.680 E20.49601
G1 X53.581 Y50.794 E20.55100
G1 X50.349 Y50.288 E20.79582
G1 X48.083 Y49.146 E20.98571
G1 X47.424 Y48.812 E21.04100
G1 X45.633 Y47.037 E21.22970
G1 X45.632 Y47.038 E21.22981
G1 X45.104 Y46.515 E21.28543
G1 X43.946 Y44.268 E21.47460
G1 X43.947 Y44.268 E21.47467
G1 X43.607 Y43.611 E21.53003
G1 X43.089 Y40.379 E21.77499
G1 X43.606 Y37.150 E22.01971
G1 X44.765 Y34.899 E22.20918
G1 X44.784 Y34.861 E22.21236
G1 X44.248 Y34.488 E22.26123
G1 X43.520 Y33.770 E22.33775
G1 X42.936 Y32.776 E22.42402
G1 X42.659 Y31.723 E22.50550
G1 X42.610 Y30.629 E22.58746
G1 X42.579 Y30.259 E22.61524
G1 X42.479 Y29.714 E22.65671
G1 X42.350 Y29.254 E22.69246
G1 X42.096 Y28.557 E22.74798
G1 X41.841 Y27.895 E22.80107
G1 X41.533 Y26.850 E22.88259
G1 X41.345 Y25.861 E22.95793
G1 X41.254 Y24.980 E23.02421
G1 X41.234 Y23.922 E23.10340
G1 X41.333 Y22.913 E23.17927
G1 X41.563 Y21.905 E23.25665
G1 X41.982 Y20.879 E23.33958
G1 F2400 E19.33958
G0 F4800 X45.389 Y23.115
;TYPE:WALL-INNER
G1 F2400 E23.33958
G1 F1500 X45.520 Y22.796 E23.36539
G1 X45.813 Y23.255 E23.40614
G1 X46.371 Y24.356 E23.49851
G1 X46.887 Y25.583 E23.59813
G1 X47.231 Y26.303 E23.65784
G1 X47.301 Y26.442 E23.66949
G1 X47.808 Y27.097 E23.73147
G1 X48.463 Y27.674 E23.79680
G1 X49.246 Y28.192 E23.86705
G1 X51.107 Y29.344 E24.03085
G1 X52.560 Y30.376 E24.16422
G1 X54.532 Y31.956 E24.35332
G1 X56.672 Y33.852 E24.56728
G1 X58.478 Y35.428 E24.74666
G1 X59.296 Y36.069 E24.82443
G1 X60.120 Y36.650 E24.89988
G1 X61.933 Y37.727 E25.05769
G1 X64.325 Y38.939 E25.25836
G1 X66.155 Y39.869 E25.41198
G1 X67.516 Y40.662 E25.52986
G1 X68.815 Y41.565 E25.64825
G1 X68.932 Y41.651 E25.65912
G1 X70.068 Y42.669 E25.77327
G1 X71.178 Y43.916 E25.89821
G1 X72.334 Y45.467 E26.04297
G1 X73.484 Y47.202 E26.19874
G1 X74.987 Y49.616 E26.41155
G1 X75.647 Y50.691 E26.50595
G1 X79.597 Y57.155 E27.07285
G1 X80.130 Y58.071 E27.15216
G1 X80.540 Y58.939 E27.22400
G1 X80.560 Y58.985 E27.22775
G1 X80.734 Y59.618 E27.27688
G1 X80.790 Y60.268 E27.32570
G1 X80.851 Y61.208 E27.39620
G1 X81.022 Y61.963 E27.45413
G1 X81.056 Y62.112 E27.46556
G1 X81.438 Y63.035 E27.54032
G1 X81.956 Y63.908 E27.61629
G1 X82.815 Y65.087 E27.72545
G1 X83.867 Y66.334 E27.84754
G1 X86.853 Y69.527 E28.17470
G1 X88.478 Y71.240 E28.35139
G1 X89.843 Y72.762 E28.50439
G1 X90.838 Y73.960 E28.62093
G1 X91.772 Y75.206 E28.73747
G1 X92.529 Y76.370 E28.84137
G1 X93.147 Y77.507 E28.93822
G1 X93.667 Y78.717 E29.03678
G1 X94.021 Y79.784 E29.12091
G1 X94.374 Y81.217 E29.23135
G1 X94.405 Y81.345 E29.24121
G1 X94.550 Y82.462 E29.32550
G1 X94.580 Y83.055 E29.36993
G1 X94.851 Y83.677 E29.42071
G1 X95.329 Y83.923 E29.46094
G1 X95.721 Y83.950 E29.49034
G1 X96.639 Y83.783 E29.56017
G1 X97.023 Y83.766 E29.58893
G1 X97.326 Y83.812 E29.61187
G1 X97.614 Y83.913 E29.63471
G1 X97.912 Y84.083 E29.66038
G1 X98.220 Y84.329 E29.68988
G1 X98.524 Y84.640 E29.72243
G1 X98.878 Y85.076 E29.76446
G1 X99.380 Y85.819 E29.83156
G1 X99.626 Y86.367 E29.87651
G1 X99.741 Y86.957 E29.92150
G1 X99.780 Y87.864 E29.98943
G1 X99.758 Y88.544 E30.04035
G1 X99.756 Y88.603 E30.04477
G1 X99.697 Y89.145 E30.08557
G1 X99.591 Y89.640 E30.12345
G1 X99.428 Y90.085 E30.15892
G1 X99.237 Y90.403 E30.18668
G1 X98.983 Y90.689 E30.21530
G1 X98.647 Y90.960 E30.24761
G1 X98.267 Y91.193 E30.28096
G1 X97.690 Y91.469 E30.32883
G1 X97.217 Y91.595 E30.36546
G1 X96.685 Y91.632 E30.40537
G1 X95.962 Y91.577 E30.45963
G1 X93.792 Y91.308 E30.62327
G1 X92.944 Y94.985 E30.90566
G1 X91.898 Y99.082 E31.22209
G1 X94.531 Y98.664 E31.42160
G1 X96.151 Y98.921 E31.54435
G1 X97.547 Y99.631 E31.66156
G1 X97.610 Y99.664 E31.66688
G1 X98.771 Y100.826 E31.78981
G1 X99.482 Y102.223 E31.90711
G1 X99.514 Y102.285 E31.91233
G1 X99.770 Y103.904 E32.03500
G1 X99.525 Y105.455 E32.15250
G1 X99.515 Y105.523 E32.15765
G1 X98.803 Y106.921 E32.27506
G1 X98.768 Y106.987 E32.28065
G1 X97.611 Y108.144 E32.40309
G1 X96.211 Y108.856 E32.52063
G1 X96.149 Y108.888 E32.52586
G1 X94.598 Y109.133 E32.64336
G1 X94.529 Y109.144 E32.64859
G1 X92.979 Y108.899 E32.76603
G1 X92.912 Y108.889 E32.77110
G1 X91.514 Y108.177 E32.88850
G1 X91.450 Y108.143 E32.89393
G1 X90.562 Y107.257 E32.98780
G1 X89.726 Y107.482 E33.05259
G1 X87.845 Y114.544 E33.59950
G1 X87.555 Y114.322 E33.62683
G1 X87.104 Y113.871 E33.67457
G1 X86.599 Y113.280 E33.73274
G1 X86.265 Y112.853 E33.77331
G1 X86.550 Y112.730 E33.79654
G1 X86.550 Y110.951 E33.92967
G1 X86.558 Y110.714 E33.94742
G1 X86.632 Y110.015 E34.00002
G1 X86.866 Y108.824 E34.09085
G1 X87.171 Y107.582 E34.18656
G1 X87.648 Y105.920 E34.31596
G1 X88.659 Y102.457 E34.58593
G1 X88.912 Y101.543 E34.65690
G1 X89.900 Y97.759 E34.94957
G1 X90.685 Y94.372 E35.20976
G1 X91.046 Y92.613 E35.34414
G1 X91.248 Y91.326 E35.44163
G1 X91.303 Y90.211 E35.52517
G1 X91.313 Y90.020 E35.53948
G1 X91.256 Y89.436 E35.58339
G1 X90.878 Y88.765 E35.64103
G1 X90.002 Y88.801 E35.70664
G1 X90.113 Y88.107 E35.75924
G1 X89.684 Y87.906 E35.79469
G1 X89.851 Y87.202 E35.84884
G1 X88.904 Y86.639 E35.93128
G1 X86.652 Y88.657 E36.15758
G1 X86.082 Y88.346 E36.20617
G1 X85.217 Y88.831 E36.28038
G1 X83.868 Y89.708 E36.40079
G1 X79.984 Y92.364 E36.75291
G1 X77.752 Y93.934 E36.95713
G1 X75.825 Y95.289 E37.13342
G1 X74.415 Y96.317 E37.26400
G1 X73.673 Y96.861 E37.33286
G1 X74.350 Y97.842 E37.42206
G1 X73.033 Y98.696 E37.53952
G1 X72.578 Y98.995 E37.58026
G1 X72.241 Y99.276 E37.61310
G1 X72.226 Y99.296 E37.61497
G1 X71.635 Y98.385 E37.69624
G1 X70.086 Y99.449 E37.83687
G1 X69.043 Y100.108 E37.92920
G1 X68.278 Y100.521 E37.99426
G1 X67.440 Y100.935 E38.06420
G1 X67.242 Y101.032 E38.08070
G1 X66.808 Y101.443 E38.12543
G1 X66.766 Y101.547 E38.13383
G1 X66.729 Y101.515 E38.13749
G1 X66.325 Y101.311 E38.17136
G1 X66.146 Y101.277 E38.18499
G1 X66.762 Y100.818 E38.24248
G1 X69.217 Y98.879 E38.47660
G1 X71.341 Y97.083 E38.68475
G1 X72.049 Y96.480 E38.75435
G1 X71.571 Y95.660 E38.82538
G1 X72.067 Y95.479 E38.86489
G1 X71.207 Y94.162 E38.98260
G1 X70.242 Y92.675 E39.11526
G1 X69.777 Y91.963 E39.17890
G1 X68.101 Y89.387 E39.40889
G1 X66.931 Y87.586 E39.56961
G1 X66.400 Y86.772 E39.64234
G1 X64.857 Y84.399 E39.85416
G1 X63.309 Y82.020 E40.06657
G1 X61.273 Y78.891 E40.34594
G1 X60.413 Y77.570 E40.46390
G1 X58.482 Y74.601 E40.72894
G1 X56.935 Y72.223 E40.94124
G1 X55.547 Y70.091 E41.13162
G1 X54.486 Y68.458 E41.27736
G1 X54.123 Y67.906 E41.32680
G1 X52.246 Y65.017 E41.58462
G1 X50.730 Y62.687 E41.79265
G1 X49.391 Y60.628 E41.97645
G1 X48.110 Y58.660 E42.15218
G1 X47.678 Y57.998 E42.21134
G1 X45.162 Y58.651 E42.40586
G1 X43.636 Y59.082 E42.52452
G1 X43.598 Y58.648 E42.55713
G1 X43.420 Y58.255 E42.58941
G1 X43.082 Y57.926 E42.62471
G1 X42.420 Y57.702 E42.67701
G1 X41.686 Y57.624 E42.73225
G1 X40.931 Y57.527 E42.78922
G1 X40.735 Y57.467 E42.80456
G1 X40.594 Y57.385 E42.81676
G1 X40.391 Y57.202 E42.83722
G1 X40.196 Y56.978 E42.85944
G1 X39.603 Y56.144 E42.93602
G1 X38.924 Y55.106 E43.02884
G1 X38.434 Y54.261 E43.10194
G1 X38.110 Y53.620 E43.15569
G1 X37.831 Y52.964 E43.20904
G1 X37.643 Y52.385 E43.25460
G1 X37.584 Y52.027 E43.28175
G1 X37.585 Y52.009 E43.28310
G1 X37.620 Y52.016 E43.28577
G1 X37.966 Y52.169 E43.31408
G1 X38.439 Y52.461 E43.35568
G1 X38.961 Y52.854 E43.40458
G1 X39.612 Y53.410 E43.46864
G1 X40.447 Y54.215 E43.55544
G1 X42.842 Y56.658 E43.81146
G1 X43.689 Y56.431 E43.87709
G1 X44.088 Y54.873 E43.99744
G1 X44.259 Y54.210 E44.04868
G1 X46.148 Y54.771 E44.19615
G1 X48.337 Y55.319 E44.36502
G1 X49.836 Y55.628 E44.47956
G1 X50.860 Y55.775 E44.55697
G1 X52.071 Y55.852 E44.64778
G1 X53.152 Y55.756 E44.72900
G1 X54.194 Y55.471 E44.80984
G1 X55.793 Y54.874 E44.93757
G1 X58.265 Y53.874 E45.13712
G1 X63.182 Y54.071 E45.50539
G1 X65.687 Y54.139 E45.69292
G1 X67.402 Y54.097 E45.82130
G1 X68.403 Y54.007 E45.89651
G1 X69.091 Y53.866 E45.94907
G1 X69.688 Y53.647 E45.99665
G1 X70.200 Y53.309 E46.04257
G1 X70.581 Y52.827 E46.08855
G1 X70.764 Y52.242 E46.13442
G1 X70.761 Y51.634 E46.17992
G1 X70.608 Y50.967 E46.23113
G1 X70.401 Y50.399 E46.27637
G1 X70.117 Y49.780 E46.32734
G1 X69.221 Y48.128 E46.46798
G1 X68.590 Y47.120 E46.55697
G1 X67.952 Y46.216 E46.63977
G1 X67.163 Y45.200 E46.73604
G1 X66.298 Y44.184 E46.83590
G1 X65.365 Y43.181 E46.93841
G1 X64.369 Y42.183 E47.04393
G1 X62.112 Y40.157 E47.27090
G1 X61.275 Y39.507 E47.35020
G1 X60.783 Y39.122 E47.39696
G1 X59.903 Y39.642 E47.47345
G1 X60.020 Y40.379 E47.52929
G1 X59.723 Y42.242 E47.67047
G1 X59.707 Y42.343 E47.67812
G1 X58.842 Y44.023 E47.81953
G1 X58.794 Y44.117 E47.82743
G1 X57.445 Y45.452 E47.96946
G1 X57.368 Y45.528 E47.97756
G1 X55.668 Y46.385 E48.12003
G1 X55.573 Y46.433 E48.12800
G1 X53.580 Y46.745 E48.27896
G1 X51.588 Y46.433 E48.42985
G1 X49.887 Y45.576 E48.57239
G1 X49.794 Y45.529 E48.58018
G1 X48.443 Y44.192 E48.72243
G1 X48.368 Y44.118 E48.73031
G1 X47.502 Y42.436 E48.87189
G1 X47.455 Y42.345 E48.87955
G1 X47.140 Y40.379 E49.02855
G1 X47.455 Y38.413 E49.17756
G1 X48.319 Y36.735 E49.31880
G1 X48.368 Y36.639 E49.32687
G1 X49.790 Y35.233 E49.47652
G1 X51.177 Y34.532 E49.59282
G1 X51.152 Y33.582 E49.66393
G1 X50.140 Y33.136 E49.74670
G1 X48.078 Y32.134 E49.91826
G1 X47.063 Y31.574 E50.00501
G1 X46.814 Y31.400 E50.02775
G1 X46.703 Y31.291 E50.03939
G1 X46.663 Y31.222 E50.04536
G1 X46.635 Y31.118 E50.05342
G1 X46.603 Y30.376 E50.10900
G1 X46.549 Y29.734 E50.15721
G1 X46.379 Y28.806 E50.22781
G1 X46.163 Y28.031 E50.28802
G1 X45.851 Y27.179 E50.35592
G1 X45.629 Y26.601 E50.40226
G1 X45.427 Y25.915 E50.45577
G1 X45.306 Y25.279 E50.50422
G1 X45.250 Y24.737 E50.54500
G1 X45.238 Y24.074 E50.59462
G1 X45.288 Y23.558 E50.63342
G1 X45.389 Y23.115 E50.66742
G0 F4800 X51.072 Y33.636
G0 X51.094 Y34.483
G0 X61.244 Y39.547
G0 X66.261 Y44.218
G0 X69.177 Y48.154
G0 X70.709 Y51.641
G0 X70.533 Y52.801
G0 X69.076 Y53.817
G0 X63.184 Y54.020
G0 X54.007 Y56.896
G1 F1500 X53.588 Y57.677 E50.73375
G1 X53.691 Y57.836 E50.74792
G1 X52.457 Y58.636 E50.85798
G1 X53.872 Y60.814 E51.05235
G1 X54.642 Y61.996 E51.15792
G1 X54.983 Y62.516 E51.20445
G1 X56.020 Y62.235 E51.28485
G1 X56.461 Y62.103 E51.31930
G1 X56.578 Y62.285 E51.33550
G1 X56.320 Y62.390 E51.35634
G1 X55.305 Y63.016 E51.44558
G1 X57.209 Y65.941 E51.70677
G1 X58.822 Y68.423 E51.92829
G1 X59.988 Y70.211 E52.08803
G1 X61.273 Y72.187 E52.26442
G1 X62.706 Y74.391 E52.46116
G1 X64.437 Y77.051 E52.69866
G1 X64.603 Y77.304 E52.72130
G1 X66.507 Y80.233 E52.98273
G1 X67.427 Y81.648 E53.10904
G1 X67.588 Y81.894 E53.13104
G1 X69.460 Y84.771 E53.38791
G1 X71.007 Y87.149 E53.60021
G1 X73.391 Y90.815 E53.92746
G1 X74.493 Y92.507 E54.07857
G1 X75.229 Y93.677 E54.18201
G1 X76.427 Y92.578 E54.30368
G1 X77.405 Y91.675 E54.40329
G1 X79.101 Y90.103 E54.57635
G1 X79.714 Y89.524 E54.63945
G1 X82.450 Y86.893 E54.92351
G1 X84.991 Y84.329 E55.19365
G1 X86.733 Y82.401 E55.38810
G1 X87.166 Y81.824 E55.44209
G1 X87.268 Y81.689 E55.45475
