;Generated with Cura_SteamEngine 15.05
; Default start code
G28 ; Home extruder
G1 Z15 F100
M107 ; Turn off fan
G90 ; Absolute positioning
M82 ; Extruder in absolute mode
; Activate all used extruder
M104 T0 S195
G92 E0 ; Reset extruder position
; Wait for all used extruders to reach temperature
M109 T0 S195
;Layer count: 21
;LAYER:0
M107
G0 F6120 X54.639 Y60.272 Z0.360
;TYPE:SKIRT
G1 F1560 X54.675 Y60.745 E0.03550
G1 X54.723 Y61.313 E0.07816
G1 X54.781 Y61.935 E0.12491
G1 X54.843 Y62.575 E0.17303
G1 X54.908 Y63.232 E0.22243
G1 X54.974 Y63.903 E0.27289
G1 X55.038 Y64.583 E0.32400
G1 X55.101 Y65.280 E0.37638
G1 X55.131 Y65.669 E0.40557
G1 X60.094 Y65.641 E0.77699
G1 X60.094 Y60.272 E1.17878
G1 X54.639 Y60.272 E1.58700
G0 F6120 X60.612 Y55.698
G1 F1560 X60.628 Y55.875 E1.60030
G1 X67.216 Y45.157 E2.54179
G1 X73.366 Y45.157 E3.00203
G1 X80.432 Y56.755 E4.01836
G1 X80.393 Y74.298 E5.33120
G1 X86.025 Y73.883 E5.75382
G1 X86.929 Y75.068 E5.86536
G1 X86.818 Y74.579 E5.90288
G1 X86.647 Y73.935 E5.95275
G1 X86.470 Y73.354 E5.99820
G1 X86.286 Y72.825 E6.04011
G1 X86.096 Y72.339 E6.07916
G1 X85.895 Y71.877 E6.11687
G1 X85.698 Y71.463 E6.15118
G1 X85.484 Y71.053 E6.18579
G1 X85.290 Y70.709 E6.21534
G1 X85.067 Y70.344 E6.24735
G1 X84.649 Y69.715 E6.30387
G1 X84.236 Y69.140 E6.35685
G1 X83.781 Y68.523 E6.41422
G1 X83.316 Y67.859 E6.47488
G1 X82.876 Y67.112 E6.53976
G1 X82.625 Y66.557 E6.58535
G1 X82.434 Y65.997 E6.62962
G1 X82.300 Y65.370 E6.67761
G1 X82.240 Y64.634 E6.73287
G1 X82.342 Y63.588 E6.81152
G1 X82.568 Y62.724 E6.87835
G1 X82.918 Y61.896 E6.94562
G1 X83.513 Y60.982 E7.02724
G1 X84.303 Y60.174 E7.11180
G1 X85.057 Y59.665 E7.17988
G1 X85.057 Y42.045 E8.49848
G1 X92.178 Y30.458 E9.51626
G1 X98.327 Y30.458 E9.97642
G1 X105.395 Y42.055 E10.99277
G1 X105.354 Y60.016 E12.33689
G1 X105.501 Y60.102 E12.34964
G1 X105.710 Y60.259 E12.36920
G1 X106.345 Y60.767 E12.43005
G1 X106.787 Y61.197 E12.47620
G1 X107.385 Y61.896 E12.54504
G1 X107.922 Y62.675 E12.61585
G1 X108.366 Y63.469 E12.68393
G1 X108.726 Y64.261 E12.74903
G1 X109.015 Y65.042 E12.81135
G1 X109.238 Y65.797 E12.87027
G1 X109.410 Y66.531 E12.92668
G1 X109.533 Y67.265 E12.98238
G1 X109.618 Y68.182 E13.05130
G1 X109.703 Y71.836 E13.32482
G1 X103.560 Y71.836 E13.78453
G1 X103.593 Y72.274 E13.81740
G1 X103.647 Y72.896 E13.86412
G1 X103.703 Y73.499 E13.90944
G1 X103.765 Y74.139 E13.95756
G1 X103.830 Y74.796 E14.00697
G1 X103.896 Y75.467 E14.05743
G1 X103.960 Y76.147 E14.10854
G1 X104.023 Y76.844 E14.16091
G1 X104.053 Y77.233 E14.19011
G1 X109.654 Y77.201 E14.60927
G1 X109.600 Y83.732 E15.09804
G1 X109.556 Y87.165 E15.35497
G1 X104.264 Y87.193 E15.75100
G1 X102.313 Y87.205 E15.89701
G1 X100.507 Y87.215 E16.03216
G1 X98.837 Y87.223 E16.15714
G1 X97.296 Y87.227 E16.27246
G1 X95.875 Y87.225 E16.37880
G1 X94.568 Y87.215 E16.47661
G1 X93.366 Y87.195 E16.56658
G1 X92.260 Y87.164 E16.64938
G1 X91.244 Y87.119 E16.72548
G1 X90.301 Y87.059 E16.79620
G1 X89.425 Y86.978 E16.86203
G1 X88.604 Y86.873 E16.92397
G1 X87.826 Y86.736 E16.98309
G1 X87.077 Y86.561 E17.04065
G1 X86.344 Y86.332 E17.09812
G1 X85.601 Y86.024 E17.15831
G1 X84.924 Y85.653 E17.21608
G1 X84.717 Y85.508 E17.23500
G1 X84.741 Y86.536 E17.31195
G1 X78.599 Y86.536 E17.77159
G1 X78.631 Y86.974 E17.80445
G1 X78.685 Y87.596 E17.85117
G1 X78.741 Y88.203 E17.89679
G1 X78.802 Y88.839 E17.94461
G1 X78.867 Y89.496 E17.99401
G1 X78.933 Y90.167 E18.04447
G1 X78.997 Y90.847 E18.09558
G1 X79.060 Y91.544 E18.14796
G1 X79.090 Y91.933 E18.17715
G1 X84.693 Y91.901 E18.59646
G1 X84.637 Y98.433 E19.08530
G1 X84.593 Y101.865 E19.34216
G1 X79.302 Y101.893 E19.73812
G1 X77.351 Y101.905 E19.88413
G1 X75.544 Y101.915 E20.01936
G1 X73.875 Y101.923 E20.14426
G1 X72.334 Y101.927 E20.25958
G1 X70.913 Y101.925 E20.36592
G1 X69.605 Y101.915 E20.46381
G1 X68.403 Y101.895 E20.55377
G1 X67.298 Y101.864 E20.63650
G1 X66.282 Y101.819 E20.71260
G1 X65.339 Y101.759 E20.78332
G1 X64.463 Y101.678 E20.84915
G1 X63.641 Y101.573 E20.91117
G1 X62.862 Y101.436 E20.97036
G1 X62.115 Y101.262 E21.02776
G1 X61.380 Y101.032 E21.08539
G1 X60.638 Y100.723 E21.14554
G1 X59.962 Y100.353 E21.20321
G1 X59.342 Y99.919 E21.25985
G1 X58.793 Y99.435 E21.31462
G1 X58.299 Y98.882 E21.37011
G1 X57.887 Y98.309 E21.42292
G1 X57.529 Y97.706 E21.47540
G1 X57.061 Y96.715 E21.55742
G1 X56.818 Y96.116 E21.60579
G1 X56.610 Y95.575 E21.64917
G1 X56.419 Y95.060 E21.69027
G1 X56.206 Y94.494 E21.73553
G1 X55.996 Y93.951 E21.77910
G1 X55.725 Y93.283 E21.83305
G1 X53.999 Y89.104 E22.17141
G1 X61.161 Y88.576 E22.70883
G1 X61.958 Y89.729 E22.81373
G1 X61.853 Y89.265 E22.84933
G1 X61.691 Y88.655 E22.89656
G1 X61.511 Y88.066 E22.94265
G1 X61.320 Y87.518 E22.98608
G1 X61.135 Y87.042 E23.02430
G1 X60.929 Y86.569 E23.06290
G1 X60.736 Y86.163 E23.09655
G1 X60.521 Y85.752 E23.13126
G1 X60.330 Y85.415 E23.16025
G1 X60.111 Y85.055 E23.19178
G1 X59.680 Y84.406 E23.25008
G1 X59.250 Y83.808 E23.30520
G1 X58.841 Y83.253 E23.35680
G1 X58.809 Y83.211 E23.36075
G1 X58.353 Y82.557 E23.42041
G1 X57.917 Y81.817 E23.48469
G1 X57.664 Y81.262 E23.53033
G1 X57.471 Y80.697 E23.57501
G1 X57.335 Y80.063 E23.62354
G1 X57.279 Y79.327 E23.67878
G1 X57.380 Y78.290 E23.75675
G1 X57.605 Y77.423 E23.82378
G1 X57.972 Y76.560 E23.89396
G1 X58.620 Y75.612 E23.97989
G1 X55.343 Y75.629 E24.22513
G1 X53.391 Y75.641 E24.37121
G1 X51.585 Y75.651 E24.50637
G1 X49.916 Y75.659 E24.63127
G1 X48.374 Y75.663 E24.74667
G1 X46.953 Y75.661 E24.85301
G1 X45.646 Y75.651 E24.95082
G1 X44.444 Y75.631 E25.04078
G1 X43.338 Y75.600 E25.12358
G1 X42.323 Y75.555 E25.19962
G1 X41.379 Y75.495 E25.27040
G1 X40.504 Y75.414 E25.33616
G1 X39.682 Y75.309 E25.39818
G1 X38.904 Y75.172 E25.45730
G1 X38.155 Y74.997 E25.51486
G1 X37.422 Y74.768 E25.57233
G1 X36.679 Y74.460 E25.63252
G1 X36.002 Y74.089 E25.69029
G1 X35.379 Y73.653 E25.74719
G1 X34.832 Y73.168 E25.80190
G1 X34.340 Y72.618 E25.85713
G1 X33.896 Y72.002 E25.91395
G1 X33.337 Y70.981 E26.00106
G1 X32.880 Y69.908 E26.08834
G1 X32.665 Y69.346 E26.13337
G1 X32.461 Y68.798 E26.17713
G1 X32.248 Y68.235 E26.22218
G1 X32.035 Y67.683 E26.26645
G1 X31.774 Y67.038 E26.31852
G1 X30.040 Y62.840 E26.65843
G1 X37.202 Y62.312 E27.19585
G1 X37.998 Y63.465 E27.30070
G1 X37.896 Y63.015 E27.33523
G1 X37.728 Y62.379 E27.38446
G1 X37.546 Y61.787 E27.43081
G1 X37.364 Y61.261 E27.47246
G1 X37.174 Y60.775 E27.51151
G1 X36.973 Y60.313 E27.54922
G1 X36.768 Y59.883 E27.58487
G1 X36.569 Y59.500 E27.61717
G1 X36.371 Y59.151 E27.64719
G1 X36.145 Y58.780 E27.67970
G1 X35.718 Y58.138 E27.73740
G1 X35.312 Y57.573 E27.78947
G1 X34.859 Y56.957 E27.84669
G1 X34.395 Y56.295 E27.90719
G1 X33.958 Y55.553 E27.97163
G1 X33.705 Y54.998 E28.01728
G1 X33.512 Y54.433 E28.06196
G1 X33.376 Y53.799 E28.11048
G1 X33.320 Y53.063 E28.16572
G1 X33.421 Y52.028 E28.24355
G1 X33.655 Y51.123 E28.31350
G1 X34.095 Y50.153 E28.39321
G1 X34.619 Y49.389 E28.46254
G1 X35.357 Y48.635 E28.54149
G1 X36.135 Y48.085 E28.61279
G1 X36.135 Y30.481 E29.93020
G1 X43.257 Y18.894 E30.94801
G1 X49.406 Y18.894 E31.40818
G1 X56.473 Y30.491 E32.42449
G1 X56.433 Y48.453 E33.76868
G1 X56.621 Y48.562 E33.78494
G1 X57.462 Y49.233 E33.86546
G1 X58.120 Y49.915 E33.93638
G1 X58.505 Y50.387 E33.98196
G1 X59.003 Y51.118 E34.04815
G1 X59.444 Y51.905 E34.11566
G1 X59.804 Y52.697 E34.18077
G1 X60.093 Y53.478 E34.24309
G1 X60.316 Y54.233 E34.30200
G1 X60.487 Y54.964 E34.35818
G1 X60.612 Y55.698 E34.41390
G1 F2400 E30.41390
G0 F6120 X55.951 Y53.998
;TYPE:WALL-INNER
G1 F2400 E34.41390
G1 F1560 X55.643 Y53.802 E34.44122
G1 X55.171 Y53.591 E34.47992
G1 X54.664 Y53.457 E34.51916
G1 X54.060 Y53.392 E34.56462
G1 X53.524 Y53.419 E34.60478
G1 X53.066 Y53.503 E34.63963
G1 X52.593 Y53.668 E34.67712
G1 X52.191 Y53.891 E34.71152
G1 X51.853 Y54.153 E34.74353
G1 X51.534 Y54.495 E34.77852
G1 X51.015 Y55.635 E34.87226
G1 X50.806 Y56.095 E34.91007
G1 X50.701 Y56.618 E34.94999
G1 X50.597 Y57.576 E35.02211
G1 X50.573 Y58.119 E35.06278
G1 X50.569 Y58.647 E35.10229
G1 X50.568 Y58.702 E35.10641
G1 X50.579 Y59.244 E35.14698
G1 X50.604 Y59.831 E35.19095
G1 X50.640 Y60.435 E35.23623
G1 X50.686 Y61.051 E35.28246
G1 X50.740 Y61.679 E35.32963
G1 X50.799 Y62.321 E35.37787
G1 X50.863 Y62.969 E35.42660
G1 X50.993 Y64.285 E35.52556
G1 X51.055 Y64.948 E35.57540
G1 X51.114 Y65.611 E35.62521
G1 X51.167 Y66.284 E35.67573
G1 X51.211 Y66.938 E35.72478
G1 X51.248 Y67.608 E35.77500
G1 X51.272 Y68.246 E35.82278
G1 X51.283 Y68.907 E35.87225
G1 X51.301 Y69.691 E35.93094
G1 X56.699 Y69.660 E36.33490
G1 X56.682 Y71.622 E36.48174
G1 X49.900 Y71.659 E36.98928
G1 X48.371 Y71.663 E37.10370
G1 X46.974 Y71.661 E37.20825
G1 X45.697 Y71.651 E37.30381
G1 X44.537 Y71.632 E37.39063
G1 X43.476 Y71.602 E37.47007
G1 X42.530 Y71.561 E37.54093
G1 X41.703 Y71.508 E37.60294
G1 X40.935 Y71.437 E37.66066
G1 X40.288 Y71.354 E37.70948
G1 X39.695 Y71.250 E37.75453
G1 X38.787 Y71.004 E37.82493
G1 X38.410 Y70.848 E37.85546
G1 X38.118 Y70.688 E37.88038
G1 X37.860 Y70.507 E37.90397
G1 X37.659 Y70.329 E37.92406
G1 X37.458 Y70.104 E37.94664
G1 X37.291 Y69.871 E37.96809
G1 X36.938 Y69.228 E38.02298
G1 X36.587 Y68.403 E38.09008
G1 X36.716 Y68.537 E38.10400
G1 X37.172 Y68.888 E38.14706
G1 X37.668 Y69.179 E38.19010
G1 X37.955 Y69.313 E38.21380
G1 X38.566 Y69.531 E38.26235
G1 X39.269 Y69.688 E38.31625
G1 X40.049 Y69.774 E38.37498
G1 X40.523 Y69.789 E38.41047
G1 X41.406 Y69.760 E38.47658
G1 X42.603 Y69.651 E38.56653
G1 X42.553 Y67.859 E38.70069
G1 X42.490 Y66.742 E38.78441
G1 X42.398 Y65.689 E38.86351
G1 X42.278 Y64.696 E38.93837
G1 X42.134 Y63.761 E39.00916
G1 X41.968 Y62.882 E39.07610
G1 X41.780 Y62.057 E39.13943
G1 X41.575 Y61.282 E39.19942
G1 X41.353 Y60.556 E39.25623
G1 X41.118 Y59.879 E39.30986
G1 X40.870 Y59.244 E39.36088
G1 X40.614 Y58.654 E39.40901
G1 X40.351 Y58.104 E39.45463
G1 X40.084 Y57.590 E39.49798
G1 X39.814 Y57.113 E39.53899
G1 X39.525 Y56.638 E39.58060
G1 X39.022 Y55.882 E39.64856
G1 X38.536 Y55.205 E39.71092
G1 X38.113 Y54.631 E39.76428
G1 X37.759 Y54.125 E39.81050
G1 X37.508 Y53.698 E39.84756
G1 X37.429 Y53.525 E39.86179
G1 X37.373 Y53.361 E39.87476
G1 X37.344 Y53.228 E39.88495
G1 X37.335 Y53.101 E39.89448
G1 X37.371 Y52.729 E39.92245
G1 X37.441 Y52.460 E39.94325
G1 X37.592 Y52.127 E39.97061
G1 X37.721 Y51.939 E39.98767
G1 X37.962 Y51.692 E40.01350
G1 X38.236 Y51.499 E40.03858
G1 X38.543 Y51.357 E40.06389
G1 X38.682 Y51.314 E40.07478
G1 X38.951 Y51.261 E40.09530
G1 X39.077 Y51.250 E40.10476
G1 X40.135 Y51.333 E40.18418
G1 X40.135 Y31.612 E41.66001
G1 X45.494 Y22.894 E42.42583
G1 X46.281 Y22.894 E42.48472
G1 X40.763 Y31.877 E43.27367
G1 X40.763 Y52.096 E44.78676
G1 X41.068 Y52.640 E44.83344
G1 X41.359 Y53.346 E44.89058
G1 X41.508 Y53.827 E44.92827
G1 X41.713 Y54.584 E44.98696
G1 X43.463 Y54.584 E45.11792
G1 X43.463 Y32.640 E46.76010
G1 X46.336 Y27.964 E47.17081
G1 X49.084 Y32.499 E47.56763
G1 X49.084 Y51.631 E48.99938
G1 X49.840 Y52.063 E49.06454
G1 X50.450 Y51.703 E49.11755
G1 X50.940 Y51.490 E49.15753
G1 X51.784 Y51.238 E49.22345
G1 X51.784 Y31.746 E50.68214
G1 X46.420 Y22.894 E51.45671
G1 X47.160 Y22.894 E51.51209
G1 X52.471 Y31.609 E52.27584
G1 X52.427 Y51.191 E53.74127
G1 X53.419 Y51.424 E53.81753
G1 X53.914 Y51.615 E53.85723
G1 X54.355 Y51.872 E53.89543
G1 X54.762 Y52.196 E53.93436
G1 X55.130 Y52.577 E53.97400
G1 X55.297 Y52.783 E53.99385
G1 X55.602 Y53.229 E54.03428
G1 X55.869 Y53.706 E54.07519
G1 X56.032 Y54.064 E54.10463
G1 X55.951 Y53.998 E54.11245
G0 F6120 X55.882 Y54.587
;TYPE:WALL-OUTER
G1 F1560 X55.658 Y54.404 E54.13409
G1 X55.406 Y54.243 E54.15647
G1 X55.004 Y54.064 E54.18940
G1 X54.566 Y53.948 E54.22331
G1 X54.057 Y53.893 E54.26162
G1 X53.582 Y53.917 E54.29721
G1 X53.194 Y53.988 E54.32673
G1 X52.798 Y54.126 E54.35812
G1 X52.467 Y54.310 E54.38646
G1 X52.191 Y54.524 E54.41259
G1 X51.955 Y54.776 E54.43843
G1 X51.285 Y56.250 E54.55960
G1 X51.196 Y56.694 E54.59348
G1 X51.096 Y57.614 E54.66274
G1 X51.073 Y58.132 E54.70154
G1 X51.069 Y58.661 E54.74113
G1 X51.068 Y58.703 E54.74427
G1 X51.079 Y59.228 E54.78357
G1 X51.103 Y59.806 E54.82686
G1 X51.139 Y60.401 E54.87147
G1 X51.185 Y61.011 E54.91725
G1 X51.238 Y61.635 E54.96412
G1 X51.297 Y62.274 E55.01214
G1 X51.553 Y64.903 E55.20981
G1 X51.613 Y65.572 E55.26008
G1 X51.666 Y66.242 E55.31037
G1 X51.711 Y66.911 E55.36055
G1 X51.747 Y67.576 E55.41039
G1 X51.772 Y68.237 E55.45989
G1 X51.783 Y68.897 E55.50929
G1 X51.790 Y69.188 E55.53107
G1 X57.204 Y69.157 E55.93624
G1 X57.178 Y72.119 E56.15791
G1 X48.371 Y72.163 E56.81699
G1 X46.970 Y72.161 E56.92184
G1 X45.689 Y72.151 E57.01770
G1 X44.523 Y72.132 E57.10497
G1 X43.466 Y72.102 E57.18411
G1 X42.508 Y72.060 E57.25587
G1 X41.656 Y72.006 E57.31975
G1 X40.887 Y71.934 E57.37755
G1 X40.201 Y71.847 E57.42930
G1 X39.603 Y71.742 E57.47474
G1 X39.086 Y71.621 E57.51447
G1 X38.614 Y71.473 E57.55149
G1 X38.191 Y71.298 E57.58575
G1 X37.853 Y71.113 E57.61459
G1 X37.552 Y70.902 E57.64209
G1 X37.306 Y70.684 E57.66669
G1 X37.073 Y70.423 E57.69287
G1 X36.860 Y70.128 E57.72010
G1 X36.490 Y69.453 E57.77771
G1 X36.124 Y68.592 E57.84772
G1 X35.938 Y68.108 E57.88653
G1 X35.740 Y67.575 E57.92908
G1 X35.522 Y66.997 E57.97530
G1 X35.281 Y66.373 E58.02536
G1 X35.120 Y65.975 E58.05749
G1 X35.461 Y65.950 E58.08308
G1 X35.687 Y66.276 E58.11277
G1 X36.213 Y67.170 E58.19039
G1 X36.575 Y67.669 E58.23652
G1 X37.051 Y68.164 E58.28792
G1 X37.452 Y68.473 E58.32580
G1 X37.901 Y68.736 E58.36474
G1 X38.145 Y68.850 E58.38490
G1 X38.705 Y69.050 E58.42940
G1 X39.351 Y69.194 E58.47893
G1 X40.084 Y69.275 E58.53411
G1 X40.523 Y69.289 E58.56698
G1 X41.375 Y69.261 E58.63078
G1 X42.090 Y69.196 E58.68451
G1 X42.054 Y67.880 E58.78303
G1 X41.991 Y66.778 E58.86563
G1 X41.901 Y65.741 E58.94352
G1 X41.783 Y64.764 E59.01717
G1 X41.641 Y63.846 E59.08669
G1 X41.479 Y62.984 E59.15232
G1 X41.295 Y62.176 E59.21434
G1 X41.094 Y61.419 E59.27295
G1 X40.878 Y60.711 E59.32835
G1 X40.649 Y60.052 E59.38056
G1 X40.408 Y59.435 E59.43013
G1 X40.159 Y58.861 E59.47695
G1 X39.904 Y58.327 E59.52123
G1 X39.645 Y57.829 E59.56324
G1 X39.383 Y57.366 E59.60305
G1 X39.103 Y56.907 E59.64329
G1 X38.611 Y56.167 E59.70979
G1 X38.131 Y55.499 E59.77135
G1 X37.704 Y54.919 E59.82524
G1 X37.340 Y54.398 E59.87281
G1 X37.066 Y53.933 E59.91320
G1 X36.889 Y53.490 E59.94890
G1 X36.848 Y53.298 E59.96359
G1 X36.833 Y53.102 E59.97830
G1 X36.878 Y52.639 E60.01311
G1 X36.968 Y52.293 E60.03987
G1 X37.155 Y51.881 E60.07373
G1 X37.334 Y51.620 E60.09741
G1 X37.640 Y51.307 E60.13017
G1 X37.980 Y51.066 E60.16136
G1 X38.363 Y50.890 E60.19290
G1 X38.565 Y50.827 E60.20873
G1 X39.080 Y50.749 E60.24771
G1 X39.635 Y50.792 E60.28937
G1 X39.635 Y31.471 E61.73527
G1 X45.214 Y22.394 E62.53259
G1 X47.441 Y22.394 E62.69925
G1 X52.971 Y31.469 E63.49454
G1 X52.928 Y50.795 E64.94081
G1 X53.572 Y50.946 E64.99031
G1 X54.124 Y51.159 E65.03459
G1 X54.641 Y51.460 E65.07936
G1 X55.098 Y51.824 E65.12308
G1 X55.501 Y52.242 E65.16653
G1 X55.704 Y52.491 E65.19057
G1 X56.024 Y52.961 E65.23312
G1 X56.317 Y53.483 E65.27792
G1 X56.569 Y54.038 E65.32354
G1 X56.767 Y54.574 E65.36630
G1 X56.933 Y55.136 E65.41015
G1 X57.057 Y55.664 E65.45074
G1 X57.197 Y56.772 E65.53432
G1 X56.828 Y56.772 E65.56193
G1 X56.821 Y56.680 E65.56883
G1 X56.716 Y56.078 E65.61457
G1 X56.527 Y55.514 E65.65908
G1 X56.250 Y55.013 E65.70192
G1 X55.882 Y54.587 E65.74405
G0 F6120 X56.104 Y54.317
G0 X51.634 Y50.865
G0 X51.284 Y50.865
G1 F1560 X51.284 Y31.885 E67.16442
G1 X46.348 Y23.740 E67.87715
G1 X41.263 Y32.018 E68.60418
G1 X41.263 Y51.965 E70.09692
G1 X41.517 Y52.418 E70.13578
G1 X41.829 Y53.177 E70.19720
G1 X41.993 Y53.705 E70.23857
G1 X42.096 Y54.084 E70.26796
G1 X42.963 Y54.084 E70.33284
G1 X42.963 Y32.499 E71.94816
G1 X46.338 Y27.004 E72.43075
G1 X49.584 Y32.361 E72.89950
G1 X49.584 Y51.341 E74.31987
G1 X49.836 Y51.485 E74.34159
G1 X50.223 Y51.257 E74.37521
G1 X50.765 Y51.020 E74.41948
G1 X51.284 Y50.865 E74.46001
G0 F6120 X51.958 Y50.897
;TYPE:SKIN
G1 F1560 X52.251 Y51.190 E74.49102
G0 F6120 X52.434 Y51.373
G1 F1560 X54.302 Y53.241 E74.68872
G0 F6120 X53.593 Y53.240
G1 F1560 X51.776 Y51.422 E74.88107
G0 F6120 X51.232 Y51.585
G1 F1560 X52.989 Y53.343 E75.06707
G0 F6120 X52.472 Y53.533
