;Generated with Cura_SteamEngine 15.05
; Default start code
G28 ; Home extruder
G1 Z15 F100
M107 ; Turn off fan
G90 ; Absolute positioning
M82 ; Extruder in absolute mode
; Activate all used extruder
M104 T0 S195
G92 E0 ; Reset extruder position
; Wait for all used extruders to reach temperature
M109 T0 S195
;Layer count: 10
;LAYER:0
M107
G0 F6120 X44.472 Y39.568 Z0.360
G0 X44.235 Y39.856
;TYPE:SKIRT
G1 F1560 X44.472 Y39.568 E0.02791
G1 X45.418 Y38.680 E0.12501
G1 X46.399 Y37.893 E0.21913
G1 X46.912 Y37.533 E0.26603
G1 X47.287 Y37.272 E0.30022
G1 X50.157 Y36.161 E0.53053
G1 X50.924 Y35.864 E0.59208
G1 X54.004 Y35.485 E0.82431
G1 X54.816 Y35.384 E0.88554
G1 X57.894 Y35.763 E1.11763
G1 X58.712 Y35.864 E1.17931
G1 X61.596 Y36.980 E1.41073
G1 X62.404 Y37.294 E1.47560
G1 X63.769 Y38.315 E1.60316
G1 X64.051 Y38.527 E1.62957
G1 X64.722 Y39.138 E1.69748
G1 X65.352 Y39.790 E1.76533
G1 X65.586 Y40.037 E1.79079
G1 X66.158 Y40.828 E1.86384
G1 X66.387 Y40.444 E1.89730
G1 X66.575 Y40.139 E1.92411
G1 X67.366 Y39.173 E2.01755
G1 X67.602 Y38.887 E2.04530
G1 X68.546 Y37.997 E2.14239
G1 X69.530 Y37.208 E2.23677
G1 X70.063 Y36.835 E2.28546
G1 X70.440 Y36.581 E2.31948
G1 X73.288 Y35.478 E2.54803
G1 X74.055 Y35.181 E2.60958
G1 X77.135 Y34.802 E2.84182
G1 X77.947 Y34.701 E2.90305
G1 X81.025 Y35.080 E3.13513
G1 X81.843 Y35.181 E3.19681
G1 X84.727 Y36.297 E3.42823
G1 X85.534 Y36.611 E3.49304
G1 X86.899 Y37.630 E3.62051
G1 X87.183 Y37.844 E3.64712
G1 X87.854 Y38.456 E3.71509
G1 X88.483 Y39.107 E3.78283
G1 X88.717 Y39.354 E3.80829
G1 X89.459 Y40.380 E3.90305
G1 X89.688 Y40.697 E3.93231
G1 X90.109 Y41.491 E3.99957
G1 X90.278 Y41.812 E4.02672
G1 X90.671 Y42.961 E4.11759
G1 X90.672 Y42.961 E4.11767
G1 X90.810 Y43.367 E4.14976
G1 X90.995 Y44.513 E4.23663
G1 X91.052 Y44.855 E4.26258
G1 X91.085 Y45.716 E4.32706
G1 X91.094 Y45.969 E4.34600
G1 X91.053 Y46.748 E4.40438
G1 X91.038 Y46.977 E4.42155
G1 X90.887 Y48.092 E4.50576
G1 X90.842 Y48.412 E4.52994
G1 X90.417 Y50.171 E4.66536
G1 X90.327 Y50.540 E4.69379
G1 X89.656 Y52.619 E4.85727
G1 X87.122 Y59.590 E5.41235
G1 X86.767 Y60.559 E5.48957
G1 X86.061 Y62.770 E5.66327
G1 X85.651 Y64.156 E5.77143
G1 X85.497 Y65.169 E5.84811
G1 X85.384 Y65.880 E5.90198
G1 X84.594 Y67.424 E6.03178
G1 X84.595 Y67.424 E6.03185
G1 X84.270 Y68.062 E6.08543
G1 X83.031 Y69.289 E6.21593
G1 X82.535 Y69.780 E6.26816
G1 X80.993 Y70.569 E6.39778
G1 X80.364 Y70.889 E6.45060
G1 X78.654 Y71.164 E6.58021
G1 X77.954 Y71.279 E6.63329
G1 X76.220 Y71.000 E6.76473
G1 X75.524 Y70.886 E6.81751
G1 X73.989 Y70.100 E6.94656
G1 X73.989 Y70.101 E6.94664
G1 X73.365 Y69.783 E6.99905
G1 X72.134 Y68.564 E7.12870
G1 X71.630 Y68.062 E7.18193
G1 X70.840 Y66.519 E7.31166
G1 X70.509 Y65.875 E7.36584
G1 X70.251 Y64.182 E7.49400
G1 X69.457 Y61.571 E7.69823
G1 X69.346 Y61.207 E7.72671
G1 X66.511 Y53.341 E8.35243
G1 X63.991 Y60.273 E8.90440
G1 X63.637 Y61.243 E8.98168
G1 X62.930 Y63.454 E9.15539
G1 X62.520 Y64.841 E9.26363
G1 X62.366 Y65.852 E9.34016
G1 X62.253 Y66.563 E9.39403
G1 X61.463 Y68.107 E9.52383
G1 X61.464 Y68.107 E9.52390
G1 X61.139 Y68.745 E9.57748
G1 X59.900 Y69.972 E9.70798
G1 X59.404 Y70.463 E9.76021
G1 X57.872 Y71.247 E9.88900
G1 X57.240 Y71.572 E9.94218
G1 X55.533 Y71.845 E10.07155
G1 X54.825 Y71.961 E10.12524
G1 X53.091 Y71.684 E10.25665
G1 X52.393 Y71.570 E10.30957
G1 X50.845 Y70.778 E10.43970
G1 X50.228 Y70.458 E10.49171
G1 X49.004 Y69.247 E10.62057
G1 X48.499 Y68.745 E10.67385
G1 X47.709 Y67.202 E10.80358
G1 X47.378 Y66.558 E10.85777
G1 X47.120 Y64.865 E10.98593
G1 X46.326 Y62.255 E11.19008
G1 X46.215 Y61.891 E11.21856
G1 X43.372 Y54.004 E11.84596
G1 X42.890 Y52.670 E11.95211
G1 X42.298 Y50.660 E12.10892
G1 X42.158 Y50.190 E12.14562
G1 X41.823 Y48.305 E12.28889
G1 X41.711 Y47.371 E12.35929
G1 X41.682 Y47.064 E12.38237
G1 X41.702 Y45.950 E12.46575
G1 X41.710 Y45.563 E12.49471
G1 X41.910 Y44.367 E12.58546
G1 X41.976 Y43.988 E12.61425
G1 X42.290 Y43.004 E12.69154
G1 X42.714 Y42.039 E12.77042
G1 X43.256 Y41.128 E12.84975
G1 X43.444 Y40.822 E12.87663
G1 X44.235 Y39.856 E12.97006
G1 F2400 E8.97006
G0 F6120 X47.326 Y42.394
;TYPE:WALL-INNER
G1 F2400 E12.97006
G1 F1560 X47.395 Y42.310 E12.97820
G1 X48.043 Y41.702 E13.04470
G1 X48.798 Y41.097 E13.11710
G1 X49.179 Y40.829 E13.15196
G1 X51.906 Y39.773 E13.37080
G1 X54.492 Y39.455 E13.56578
G1 X54.819 Y39.414 E13.59044
G1 X57.402 Y39.732 E13.78520
G1 X57.729 Y39.773 E13.80987
G1 X60.446 Y40.824 E14.02788
G1 X61.368 Y41.515 E14.11410
G1 X61.499 Y41.613 E14.12634
G1 X61.942 Y42.017 E14.17121
G1 X62.461 Y42.554 E14.22710
G1 X63.153 Y43.499 E14.31475
G1 X63.441 Y44.043 E14.36082
G1 X63.463 Y44.085 E14.36436
G1 X63.786 Y45.029 E14.43903
G1 X63.918 Y45.849 E14.50119
G1 X63.934 Y45.946 E14.50854
G1 X63.959 Y46.616 E14.55872
G1 X63.928 Y47.198 E14.60233
G1 X63.795 Y48.224 E14.67976
G1 X63.777 Y48.347 E14.68906
G1 X63.344 Y50.133 E14.82659
G1 X62.740 Y52.007 E14.97393
G1 X60.234 Y58.902 E15.52295
G1 X59.850 Y59.950 E15.60647
G1 X59.117 Y62.244 E15.78669
G1 X58.671 Y63.748 E15.90409
G1 X58.605 Y63.976 E15.92185
G1 X58.414 Y65.237 E16.01730
G1 X58.402 Y65.308 E16.02269
G1 X57.899 Y66.292 E16.10539
G1 X57.867 Y66.355 E16.11068
G1 X57.082 Y67.132 E16.19333
G1 X57.029 Y67.185 E16.19894
G1 X56.043 Y67.690 E16.28184
G1 X55.979 Y67.723 E16.28723
G1 X54.887 Y67.898 E16.37000
G1 X54.818 Y67.909 E16.37522
G1 X53.728 Y67.735 E16.45783
G1 X53.660 Y67.724 E16.46298
G1 X52.674 Y67.220 E16.54585
G1 X52.609 Y67.187 E16.55131
G1 X51.820 Y66.406 E16.63439
G1 X51.771 Y66.358 E16.63952
G1 X51.266 Y65.373 E16.72236
G1 X51.234 Y65.310 E16.72764
G1 X51.067 Y64.213 E16.81068
G1 X51.029 Y63.970 E16.82909
G1 X50.012 Y60.631 E17.09030
G1 X46.689 Y51.414 E17.82351
G1 X46.134 Y49.528 E17.97064
G1 X46.056 Y49.265 E17.99117
G1 X45.783 Y47.730 E18.10784
G1 X45.688 Y46.938 E18.16754
G1 X45.686 Y46.912 E18.16949
G1 X45.701 Y46.028 E18.23565
G1 X45.703 Y45.938 E18.24239
G1 X45.853 Y45.041 E18.31045
G1 X45.870 Y44.945 E18.31774
G1 X46.037 Y44.420 E18.35897
G1 X46.279 Y43.871 E18.40387
G1 X46.675 Y43.204 E18.46192
G1 X46.711 Y43.145 E18.46709
G1 X47.326 Y42.394 E18.53973
G0 F6120 X51.256 Y44.405
G1 F1560 X51.061 Y45.552 E18.62680
G1 X51.220 Y46.703 E18.71376
G1 X51.735 Y47.758 E18.80161
G1 X52.542 Y48.590 E18.88835
G1 X53.072 Y48.880 E18.93356
G1 X53.072 Y66.353 E20.24116
G1 X56.564 Y66.353 E20.50249
G1 X56.564 Y48.880 E21.81008
G1 X57.093 Y48.590 E21.85523
G1 X57.900 Y47.759 E21.94192
G1 X58.416 Y46.703 E22.02987
G1 X58.575 Y45.552 E22.11682
G1 X58.380 Y44.405 E22.20389
G1 X57.841 Y43.366 E22.29149
G1 X57.007 Y42.542 E22.37922
G1 X55.966 Y42.028 E22.46611
G1 X54.818 Y41.846 E22.55309
G1 X53.670 Y42.028 E22.64007
G1 X52.629 Y42.542 E22.72696
G1 X51.795 Y43.366 E22.81469
G1 X51.256 Y44.405 E22.90229
G0 F6120 X51.736 Y44.566
;TYPE:WALL-OUTER
G1 F1560 X51.567 Y45.560 E22.97774
G1 X51.705 Y46.556 E23.05299
G1 X52.150 Y47.467 E23.12886
G1 X52.848 Y48.187 E23.20391
G1 X53.572 Y48.583 E23.26566
G1 X53.572 Y65.853 E24.55807
G1 X56.064 Y65.853 E24.74456
G1 X56.064 Y48.583 E26.03696
G1 X56.787 Y48.187 E26.09865
G1 X57.486 Y47.468 E26.17370
G1 X57.931 Y46.556 E26.24964
G1 X58.069 Y45.560 E26.32489
G1 X57.900 Y44.566 E26.40034
G1 X57.434 Y43.666 E26.47618
G1 X56.713 Y42.955 E26.55196
G1 X55.813 Y42.510 E26.62710
G1 X54.818 Y42.352 E26.70249
G1 X53.823 Y42.510 E26.77789
G1 X52.923 Y42.955 E26.85302
G1 X52.202 Y43.666 E26.92880
G1 X51.736 Y44.566 E27.00464
G0 F6120 X51.392 Y44.507
G0 X49.106 Y40.695
G0 X48.917 Y40.402
G1 F1560 X48.941 Y40.385 E27.00685
G1 X51.783 Y39.284 E27.23493
G1 X54.818 Y38.911 E27.46376
G1 X57.852 Y39.284 E27.69252
G1 X60.691 Y40.383 E27.92034
G1 X61.817 Y41.227 E28.02565
G1 X62.277 Y41.645 E28.07217
G1 X62.825 Y42.212 E28.13118
G1 X62.885 Y42.274 E28.13763
G1 X63.579 Y43.235 E28.22634
G1 X63.923 Y43.883 E28.28124
G1 X64.272 Y44.903 E28.36192
G1 X64.411 Y45.768 E28.42748
G1 X64.432 Y45.894 E28.43704
G1 X64.460 Y46.624 E28.49171
G1 X64.427 Y47.229 E28.53706
G1 X64.289 Y48.294 E28.61742
G1 X64.268 Y48.441 E28.62853
G1 X63.825 Y50.270 E28.76937
G1 X63.215 Y52.163 E28.91820
G1 X60.323 Y60.112 E29.55122
G1 X59.595 Y62.391 E29.73025
G1 X59.094 Y64.083 E29.86231
G1 X58.907 Y65.315 E29.95556
G1 X58.883 Y65.464 E29.96686
G1 X58.275 Y66.655 E30.06693
G1 X57.326 Y67.595 E30.16689
G1 X56.134 Y68.205 E30.26709
G1 X54.967 Y68.391 E30.35553
G1 X54.817 Y68.416 E30.36691
G1 X53.650 Y68.229 E30.45536
G1 X53.501 Y68.205 E30.46665
G1 X52.446 Y67.665 E30.55534
G1 X52.312 Y67.596 E30.56662
G1 X51.361 Y66.655 E30.66674
G1 X50.752 Y65.465 E30.76678
G1 X50.573 Y64.290 E30.85573
G1 X50.540 Y64.082 E30.87149
G1 X49.537 Y60.788 E31.12917
G1 X46.220 Y51.586 E31.86118
G1 X45.569 Y49.380 E32.03330
G1 X45.285 Y47.783 E32.15469
G1 X45.191 Y46.997 E32.21393
G1 X45.185 Y46.931 E32.21889
G1 X45.204 Y45.892 E32.29665
G1 X45.361 Y44.954 E32.36783
G1 X45.383 Y44.823 E32.37777
G1 X45.567 Y44.247 E32.42302
G1 X45.832 Y43.643 E32.47238
G1 X46.249 Y42.942 E32.53342
G1 X46.304 Y42.853 E32.54125
G1 X47.030 Y41.966 E32.62703
G1 X47.714 Y41.325 E32.69718
G1 X48.496 Y40.698 E32.77219
G1 X48.917 Y40.402 E32.81070
G0 F6120 X49.175 Y41.044
;TYPE:SKIN
G1 F1560 X51.564 Y43.432 E33.06348
G0 F6120 X51.876 Y43.038
G1 F1560 X49.666 Y40.827 E33.29743
G0 F6120 X50.176 Y40.630
G1 F1560 X52.232 Y42.686 E33.51502
G0 F6120 X52.608 Y42.355
G1 F1560 X50.686 Y40.433 E33.71843
G0 F6120 X51.195 Y40.235
G1 F1560 X53.081 Y42.121 E33.91803
G0 F6120 X53.555 Y41.888
G1 F1560 X51.705 Y40.038 E34.11382
G0 F6120 X52.278 Y39.904
G1 F1560 X54.148 Y41.774 E34.31173
G0 F6120 X54.759 Y41.677
G1 F1560 X52.907 Y39.826 E34.50768
G0 F6120 X53.537 Y39.748
G1 F1560 X55.577 Y41.788 E34.72358
G0 F6120 X56.681 Y42.185
G1 F1560 X54.166 Y39.670 E34.98975
G0 F6120 X54.795 Y39.593
G1 F1560 X63.587 Y48.384 E35.92018
G0 F6120 X63.449 Y48.953
G1 F1560 X58.224 Y43.728 E36.47316
G0 F6120 X58.630 Y44.841
G1 F1560 X63.310 Y49.522 E36.96851
G0 F6120 X63.172 Y50.091
G1 F1560 X58.736 Y45.655 E37.43799
G0 F6120 X58.650 Y46.276
G1 F1560 X63.000 Y50.626 E37.89836
G0 F6120 X62.828 Y51.161
G1 F1560 X58.531 Y46.864 E38.35313
G0 F6120 X58.299 Y47.339
G1 F1560 X62.656 Y51.695 E38.81419
G0 F6120 X62.475 Y52.222
G1 F1560 X58.067 Y47.814 E39.28070
G0 F6120 X57.730 Y48.184
G1 F1560 X62.286 Y52.740 E39.76288
G0 F6120 X62.098 Y53.259
G1 F1560 X57.381 Y48.542 E40.26209
G0 F6120 X56.982 Y48.850
G1 F1560 X61.909 Y53.777 E40.78353
G0 F6120 X61.720 Y54.295
G1 F1560 X56.738 Y49.313 E41.31079
G0 F6120 X56.738 Y50.020
G1 F1560 X61.532 Y54.814 E41.81815
G0 F6120 X61.343 Y55.333
G1 F1560 X56.738 Y50.727 E42.30557
G0 F6120 X56.738 Y51.434
G1 F1560 X61.154 Y55.851 E42.77298
G0 F6120 X60.966 Y56.369
G1 F1560 X56.738 Y52.142 E43.22039
G0 F6120 X56.738 Y52.849
G1 F1560 X60.777 Y56.888 E43.64785
G0 F6120 X60.589 Y57.407
G1 F1560 X56.738 Y53.556 E44.05541
G0 F6120 X56.738 Y54.263
G1 F1560 X60.400 Y57.925 E44.44297
G0 F6120 X60.211 Y58.443
G1 F1560 X56.738 Y54.970 E44.81053
G0 F6120 X56.738 Y55.677
G1 F1560 X60.022 Y58.962 E45.15814
G0 F6120 X63.677 Y47.767
G1 F1560 X55.596 Y39.686 E46.01338
G0 F6120 X56.403 Y39.786
G1 F1560 X63.754 Y47.137 E46.79136
G0 F6120 X63.777 Y46.453
G1 F1560 X57.209 Y39.885 E47.48647
G0 F6120 X58.158 Y40.126
G1 F1560 X63.713 Y45.682 E48.07443
G0 F6120 X63.513 Y44.774
G1 F1560 X59.310 Y40.572 E48.51919
G0 F6120 X52.661 Y42.585
G0 X51.322 Y43.897
G1 F1560 X48.769 Y41.344 E48.78938
G0 F6120 X48.376 Y41.658
G1 F1560 X51.084 Y44.367 E49.07603
G0 F6120 X50.982 Y44.971
G1 F1560 X47.996 Y41.985 E49.39205
G0 F6120 X47.631 Y42.328
G1 F1560 X50.888 Y45.585 E49.73675
G0 F6120 X51.001 Y46.405
G1 F1560 X47.298 Y42.702 E50.12865
G0 F6120 X46.980 Y43.091
G1 F1560 X51.436 Y47.547 E50.60024
G0 F6120 X52.896 Y49.714
G1 F1560 X46.694 Y43.512 E51.25662
G0 F6120 X46.431 Y43.956
G1 F1560 X52.896 Y50.421 E51.94083
G0 F6120 X52.896 Y51.128
G1 F1560 X46.215 Y44.447 E52.64790
G0 F6120 X46.041 Y44.980
G1 F1560 X52.896 Y51.835 E53.37338
G0 F6120 X52.896 Y52.542
G1 F1560 X45.939 Y45.585 E54.10966
G0 F6120 X45.872 Y46.226
G1 F1560 X52.896 Y53.250 E54.85304
G0 F6120 X52.896 Y53.957
G1 F1560 X45.861 Y46.922 E55.59757
G0 F6120 X45.960 Y47.728
G1 F1560 X52.896 Y54.664 E56.33163
G0 F6120 X52.896 Y55.371
G1 F1560 X46.113 Y48.588 E57.04950
G0 F6120 X46.304 Y49.486
G1 F1560 X52.896 Y56.078 E57.74715
G0 F6120 X52.896 Y56.785
G1 F1560 X46.600 Y50.489 E58.41347
G0 F6120 X46.909 Y51.505
G1 F1560 X52.896 Y57.492 E59.04710
G0 F6120 X52.897 Y58.200
G1 F1560 X47.307 Y52.610 E59.63870
G0 F6120 X47.705 Y53.716
G1 F1560 X52.897 Y58.907 E60.18814
G0 F6120 X52.897 Y59.614
G1 F1560 X48.104 Y54.821 E60.69539
G0 F6120 X48.502 Y55.927
G1 F1560 X52.897 Y60.321 E61.16048
G0 F6120 X52.897 Y61.028
G1 F1560 X48.901 Y57.033 E61.58333
G0 F6120 X49.299 Y58.138
G1 F1560 X52.897 Y61.736 E61.96412
G0 F6120 X52.897 Y62.443
G1 F1560 X49.697 Y59.243 E62.30279
G0 F6120 X53.181 Y66.244
G0 X56.455 Y66.244
G0 X56.738 Y59.213
G1 F1560 X59.135 Y61.610 E62.55647
G0 F6120 X58.964 Y62.146
G1 F1560 X56.738 Y59.920 E62.79205
G0 F6120 X56.738 Y58.506
G1 F1560 X59.306 Y61.074 E63.06383
G0 F6120 X59.478 Y60.538
G1 F1560 X56.738 Y57.798 E63.35382
G0 F6120 X56.738 Y57.091
G1 F1560 X59.649 Y60.002 E63.66190
G0 F6120 X58.802 Y62.691
G1 F1560 X56.738 Y60.627 E63.88034
G0 F6120 X56.738 Y61.334
G1 F1560 X58.641 Y63.237 E64.08174
G0 F6120 X58.479 Y63.783
G1 F1560 X56.738 Y62.041 E64.26604
G0 F6120 X56.738 Y62.748
G1 F1560 X58.367 Y64.377 E64.43845
G0 F6120 X58.274 Y64.992
G1 F1560 X56.738 Y63.455 E64.60106
G0 F6120 X56.738 Y64.162
G1 F1560 X58.095 Y65.520 E64.74473
G0 F6120 X57.856 Y65.988
G1 F1560 X56.738 Y64.869 E64.86310
G0 F6120 X56.738 Y65.577
G1 F1560 X57.565 Y66.404 E64.95063
G0 F6120 X57.210 Y66.756
G1 F1560 X56.506 Y66.405 E65.00055
G1 X56.833 Y67.086 E65.05708
G0 F6120 X56.366 Y67.326
G1 F1560 X55.567 Y66.527 E65.14164
G0 F6120 X54.860 Y66.527
G1 F1560 X55.891 Y67.558 E65.25075
G0 F6120 X55.281 Y67.655
G1 F1560 X54.153 Y66.527 E65.37013
G0 F6120 X53.445 Y66.527
G1 F1560 X54.618 Y67.699 E65.49422
G0 F6120 X53.776 Y67.564
G1 F1560 X51.391 Y65.179 E65.74664
G0 F6120 X51.263 Y64.344
G1 F1560 X52.897 Y65.978 E65.91957
G0 F6120 X52.897 Y65.271
G1 F1560 X51.042 Y63.416 E66.11589
G0 F6120 X50.733 Y62.400
G1 F1560 X52.897 Y64.564 E66.34491
G0 F6120 X52.897 Y63.857
G1 F1560 X50.423 Y61.383 E66.60674
G0 F6120 X50.096 Y60.349
G1 F1560 X52.897 Y63.150 E66.90318
G0 F6120 X53.181 Y66.244
G0 X56.455 Y66.244
G0 X56.738 Y56.384
G1 F1560 X59.833 Y59.480 E67.23079
G0 F6120 X62.912 Y43.467
G1 F1560 X60.613 Y41.168 E67.47410
G1 F2400 E63.47410
G0 F6120 X69.169 Y43.734
;TYPE:WALL-INNER
G1 F2400 E67.47410
G1 F1560 X69.409 Y43.187 E67.51880
G1 X69.806 Y42.521 E67.57682
G1 X69.842 Y42.462 E67.58199
G1 X70.457 Y41.711 E67.65464
G1 X70.527 Y41.626 E67.66288
G1 X71.173 Y41.018 E67.72926
G1 X71.928 Y40.413 E67.80167
G1 X72.306 Y40.147 E67.83626
G1 X75.037 Y39.090 E68.05540
G1 X77.623 Y38.772 E68.25039
G1 X77.950 Y38.731 E68.27505
G1 X80.533 Y39.049 E68.46981
G1 X80.860 Y39.090 E68.49447
G1 X83.577 Y40.141 E68.71248
G1 X84.499 Y40.831 E68.79866
G1 X84.630 Y40.929 E68.81090
G1 X85.073 Y41.333 E68.85577
G1 X85.592 Y41.871 E68.91171
G1 X86.284 Y42.816 E68.99937
G1 X86.572 Y43.360 E69.04543
G1 X86.594 Y43.402 E69.04898
G1 X86.917 Y44.345 E69.12357
G1 X87.049 Y45.165 E69.18573
G1 X87.065 Y45.262 E69.19308
G1 X87.090 Y45.933 E69.24333
G1 X87.059 Y46.515 E69.28695
G1 X86.926 Y47.540 E69.36430
G1 X86.908 Y47.663 E69.37360
G1 X86.475 Y49.450 E69.51120
G1 X85.871 Y51.324 E69.65855
G1 X83.365 Y58.218 E70.20749
G1 X82.981 Y59.266 E70.29102
G1 X82.248 Y61.560 E70.47124
G1 X81.802 Y63.065 E70.58871
G1 X81.736 Y63.293 E70.60647
G1 X81.545 Y64.554 E70.70192
G1 X81.533 Y64.625 E70.70730
G1 X81.030 Y65.609 E70.79001
G1 X80.998 Y65.672 E70.79529
G1 X80.213 Y66.449 E70.87795
G1 X80.161 Y66.501 E70.88345
G1 X79.174 Y67.006 E70.96642
G1 X79.110 Y67.040 E70.97185
G1 X78.018 Y67.215 E71.05461
G1 X77.950 Y67.226 E71.05976
G1 X76.860 Y67.051 E71.14238
G1 X76.791 Y67.040 E71.14761
G1 X75.804 Y66.536 E71.23054
G1 X75.738 Y66.502 E71.23610
G1 X74.901 Y65.673 E71.32426
G1 X74.397 Y64.690 E71.40693
G1 X74.365 Y64.627 E71.41222
G1 X74.198 Y63.530 E71.49526
